;FLAVOR:Marlin
;TIME:20431
;Filament used: 11.2621m
;Layer height: 0.2
;MINX:38.836
;MINY:39.276
;MINZ:0.2
;MAXX:195.944
;MAXY:196.164
;MAXZ:10.6
;Generated with Cura_SteamEngine 4.8.0
M140 S60
M105
M190 S60
M104 S220
M105
M109 S220
M82 ;absolute extrusion mode
; Ender 3 Custom Start G-code
G92 E0 ; Reset Extruder
G28 ; Home all axes
G1 Z2.0 F3000 ; Move Z Axis up little to prevent scratching of Heat Bed
G1 X0.1 Y20 Z0.3 F5000.0 ; Move to start position
G1 X0.1 Y200.0 Z0.3 F1500.0 E15 ; Draw the first line
G1 X0.4 Y200.0 Z0.3 F5000.0 ; Move to side a little
G1 X0.4 Y20 Z0.3 F1500.0 E30 ; Draw the second line
G92 E0 ; Reset Extruder
G1 Z2.0 F3000 ; Move Z Axis up little to prevent scratching of Heat Bed
G1 X5 Y20 Z0.3 F5000.0 ; Move over to prevent blob squish
M83 ;relative extrusion mode
G1 F2700 E-5
;LAYER_COUNT:53
;LAYER:0
M107
;MESH:CE3_gripper_flex_square.3mf
G0 F6000 X121.702 Y194.9 Z0.2
;TYPE:WALL-INNER
G1 F2700 E5
G1 F1200 X113.229 Y194.899 E0.28181
G1 X112.844 Y194.834 E0.01299
G1 X112.496 Y194.669 E0.01281
G1 X112.212 Y194.418 E0.01261
G1 X111.994 Y194.079 E0.01341
G1 X111.882 Y193.704 E0.01302
G1 X111.873 Y193.651 E0.00179
G1 X104.037 Y130.963 E2.10124
G1 X41.35 Y123.127 E2.1012
G1 X41.151 Y123.088 E0.00674
G1 X40.786 Y122.934 E0.01318
G1 X40.477 Y122.688 E0.01314
G1 X40.263 Y122.385 E0.01234
G1 X40.135 Y122.031 E0.01252
G1 X40.1 Y121.709 E0.01077
G1 X40.1 Y113.357 E0.27779
G1 X40.108 Y113.135 E0.00739
G1 X40.206 Y112.737 E0.01363
G1 X40.278 Y112.586 E0.00556
G1 X40.515 Y112.276 E0.01298
G1 X40.836 Y112.037 E0.01331
G1 X40.995 Y111.963 E0.00583
G1 X41.36 Y111.872 E0.01251
G1 X104.037 Y104.037 E2.10087
G1 X111.873 Y41.352 E2.10114
G1 X111.912 Y41.151 E0.00681
G1 X112.066 Y40.786 E0.01318
G1 X112.312 Y40.477 E0.01314
G1 X112.444 Y40.369 E0.00567
G1 X112.801 Y40.182 E0.0134
G1 X112.971 Y40.135 E0.00587
G1 X113.298 Y40.1 E0.01094
G1 X121.771 Y40.101 E0.28181
G1 X122.156 Y40.166 E0.01299
G1 X122.504 Y40.331 E0.01281
G1 X122.788 Y40.582 E0.01261
G1 X122.998 Y40.908 E0.0129
G1 X123.121 Y41.311 E0.01401
G1 X130.963 Y104.037 E2.10252
G1 X193.65 Y111.873 E2.1012
G1 X193.849 Y111.912 E0.00674
G1 X194.214 Y112.066 E0.01318
G1 X194.523 Y112.312 E0.01314
G1 X194.631 Y112.444 E0.00567
G1 X194.818 Y112.801 E0.0134
G1 X194.865 Y112.971 E0.00587
G1 X194.9 Y113.291 E0.01071
G1 X194.899 Y121.771 E0.28205
G1 X194.834 Y122.156 E0.01299
G1 X194.669 Y122.504 E0.01281
G1 X194.418 Y122.788 E0.01261
G1 X194.079 Y123.006 E0.01341
G1 X193.704 Y123.118 E0.01302
G1 X193.651 Y123.127 E0.00179
G1 X130.963 Y130.963 E2.10124
G1 X123.128 Y193.645 E2.10104
G1 X123.088 Y193.849 E0.00691
G1 X122.934 Y194.214 E0.01318
G1 X122.688 Y194.523 E0.01314
G1 X122.556 Y194.631 E0.00567
G1 X122.199 Y194.818 E0.0134
G1 X122.029 Y194.865 E0.00587
G1 X121.702 Y194.9 E0.01094
G0 F6000 X121.725 Y195.3
;TYPE:WALL-OUTER
G1 F1200 X113.207 Y195.299 E0.28331
G1 X112.955 Y195.273 E0.00843
G1 X112.722 Y195.216 E0.00798
G1 X112.488 Y195.123 E0.00838
G1 X112.268 Y194.999 E0.0084
G1 X112.079 Y194.852 E0.00796
G1 X111.901 Y194.673 E0.0084
G1 X111.634 Y194.258 E0.01641
G1 X111.546 Y194.027 E0.00822
G1 X111.489 Y193.783 E0.00833
G1 X111.478 Y193.717 E0.00223
G1 X103.679 Y131.321 E2.09145
G1 X41.285 Y123.522 E2.09138
G1 X41.036 Y123.474 E0.00843
G1 X40.579 Y123.28 E0.01651
G1 X40.197 Y122.976 E0.01624
G1 X40.034 Y122.777 E0.00856
G1 X39.908 Y122.572 E0.008
G1 X39.807 Y122.343 E0.00832
G1 X39.74 Y122.102 E0.00832
G1 X39.7 Y121.734 E0.01231
G1 X39.7 Y113.342 E0.27912
G1 X39.71 Y113.079 E0.00875
G1 X39.826 Y112.604 E0.01626
G1 X39.934 Y112.378 E0.00833
G1 X40.234 Y111.987 E0.01639
G1 X40.631 Y111.691 E0.01647
G1 X40.859 Y111.585 E0.00836
G1 X41.288 Y111.478 E0.01471
G1 X103.679 Y103.679 E2.09128
G1 X111.477 Y41.29 E2.09121
G1 X111.526 Y41.036 E0.0086
G1 X111.72 Y40.579 E0.01651
G1 X112.024 Y40.197 E0.01624
G1 X112.223 Y40.034 E0.00856
G1 X112.655 Y39.808 E0.01622
G1 X112.898 Y39.74 E0.00839
G1 X113.275 Y39.7 E0.01261
G1 X121.793 Y39.701 E0.28331
G1 X122.045 Y39.727 E0.00843
G1 X122.278 Y39.784 E0.00798
G1 X122.512 Y39.877 E0.00838
G1 X122.732 Y40.001 E0.0084
G1 X122.921 Y40.148 E0.00796
G1 X123.099 Y40.327 E0.0084
G1 X123.366 Y40.742 E0.01641
G1 X123.51 Y41.214 E0.01641
G1 X123.522 Y41.283 E0.00233
G1 X131.321 Y103.679 E2.09145
G1 X193.715 Y111.478 E2.09138
G1 X193.964 Y111.526 E0.00843
G1 X194.421 Y111.72 E0.01651
G1 X194.803 Y112.024 E0.01624
G1 X194.966 Y112.223 E0.00856
G1 X195.192 Y112.655 E0.01622
G1 X195.26 Y112.898 E0.00839
G1 X195.3 Y113.266 E0.01231
G1 X195.299 Y121.793 E0.28361
G1 X195.273 Y122.045 E0.00843
G1 X195.216 Y122.278 E0.00798
G1 X195.123 Y122.512 E0.00838
G1 X194.999 Y122.732 E0.0084
G1 X194.852 Y122.921 E0.00796
G1 X194.673 Y123.099 E0.0084
G1 X194.258 Y123.366 E0.01641
G1 X194.027 Y123.454 E0.00822
G1 X193.783 Y123.511 E0.00833
G1 X193.717 Y123.522 E0.00223
G1 X131.321 Y131.321 E2.09145
G1 X123.523 Y193.71 E2.09121
G1 X123.474 Y193.964 E0.0086
G1 X123.28 Y194.421 E0.01651
G1 X122.976 Y194.803 E0.01624
G1 X122.777 Y194.966 E0.00856
G1 X122.345 Y195.192 E0.01622
G1 X122.102 Y195.26 E0.00839
G1 X121.725 Y195.3 E0.01261
G0 F6000 X121.702 Y194.861
G0 X121.679 Y194.51
;TYPE:SKIN
G1 F1200 X113.258 Y194.509 E0.28008
G1 X112.968 Y194.46 E0.00978
G1 X112.71 Y194.337 E0.00951
G1 X112.512 Y194.162 E0.00879
G1 X112.352 Y193.914 E0.00982
G1 X112.26 Y193.607 E0.01066
G1 X104.386 Y130.614 E2.11146
G1 X41.407 Y122.741 E2.11099
G1 X41.266 Y122.714 E0.00477
G1 X40.988 Y122.597 E0.01003
G1 X40.763 Y122.417 E0.00958
G1 X40.612 Y122.204 E0.00868
G1 X40.519 Y121.944 E0.00918
G1 X40.49 Y121.684 E0.0087
G1 X40.49 Y113.371 E0.27649
G1 X40.496 Y113.185 E0.00619
G1 X40.574 Y112.873 E0.0107
G1 X40.615 Y112.787 E0.00317
G1 X40.792 Y112.556 E0.00968
G1 X41.038 Y112.373 E0.0102
G1 X41.124 Y112.332 E0.00317
G1 X41.427 Y112.256 E0.01039
G1 X104.386 Y104.386 E2.11032
G1 X112.256 Y41.426 E2.11035
G1 X112.288 Y41.264 E0.00549
G1 X112.404 Y40.987 E0.00999
G1 X112.59 Y40.754 E0.00992
G1 X112.661 Y40.696 E0.00305
G1 X112.946 Y40.546 E0.01071
G1 X113.042 Y40.52 E0.00331
G1 X113.321 Y40.49 E0.00933
G1 X121.742 Y40.491 E0.28008
G1 X122.032 Y40.54 E0.00978
G1 X122.29 Y40.663 E0.00951
G1 X122.488 Y40.838 E0.00879
G1 X122.641 Y41.074 E0.00935
G1 X122.738 Y41.391 E0.01103
G1 X130.614 Y104.386 E2.11153
G1 X193.593 Y112.259 E2.11099
G1 X193.734 Y112.286 E0.00477
G1 X194.012 Y112.403 E0.01003
G1 X194.246 Y112.59 E0.00996
G1 X194.304 Y112.661 E0.00305
G1 X194.454 Y112.945 E0.01068
G1 X194.481 Y113.043 E0.00338
G1 X194.51 Y113.315 E0.0091
G1 X194.509 Y121.742 E0.28028
G1 X194.46 Y122.032 E0.00978
G1 X194.337 Y122.29 E0.00951
G1 X194.162 Y122.488 E0.00879
G1 X193.914 Y122.648 E0.00982
G1 X193.594 Y122.742 E0.01109
G1 X130.614 Y130.614 E2.11102
G1 X122.743 Y193.583 E2.11066
G1 X122.714 Y193.734 E0.00511
G1 X122.597 Y194.012 E0.01003
G1 X122.41 Y194.246 E0.00996
G1 X122.339 Y194.304 E0.00305
G1 X122.054 Y194.454 E0.01071
G1 X121.958 Y194.48 E0.00331
G1 X121.679 Y194.51 E0.00933
G1 F2700 E-5
G0 F6000 X121.678 Y194.789
G0 X113.243 Y194.728
G0 X112.897 Y194.67
G0 X112.589 Y194.524
G0 X112.345 Y194.308
G0 X112.15 Y194.004
G0 X112.041 Y193.621
G0 X103.886 Y131.114
G0 X41.201 Y122.924
G0 X40.875 Y122.786
G0 X40.603 Y122.57
G0 X40.433 Y122.329
G0 X40.21 Y121.542
G0 X40.649 Y121.542
G1 F2700 E5
G1 F1200 X41.727 Y122.62 E0.05071
G0 F6000 X42.373 Y122.7
G1 F1200 X40.649 Y120.976 E0.08109
G0 F6000 X40.649 Y120.411
G1 F1200 X43.019 Y122.781 E0.11148
G0 F6000 X43.665 Y122.861
G1 F1200 X40.649 Y119.845 E0.14186
G0 F6000 X40.649 Y119.279
G1 F1200 X44.312 Y122.943 E0.17232
G0 F6000 X44.959 Y123.023
G1 F1200 X40.649 Y118.714 E0.20271
G0 F6000 X40.649 Y118.148
G1 F1200 X45.605 Y123.104 E0.23312
G0 F6000 X46.252 Y123.185
G1 F1200 X40.649 Y117.582 E0.26355
G0 F6000 X40.649 Y117.016
G1 F1200 X46.898 Y123.266 E0.29396
G0 F6000 X47.545 Y123.346
G1 F1200 X40.649 Y116.451 E0.32434
G0 F6000 X40.649 Y115.885
G1 F1200 X48.191 Y123.427 E0.35475
G0 F6000 X48.838 Y123.508
G1 F1200 X40.649 Y115.319 E0.38519
G0 F6000 X40.649 Y114.754
G1 F1200 X49.484 Y123.589 E0.41557
G0 F6000 X50.131 Y123.67
G1 F1200 X40.649 Y114.188 E0.446
G0 F6000 X40.649 Y113.622
G1 F1200 X50.778 Y123.751 E0.47644
G0 F6000 X51.424 Y123.832
G1 F1200 X40.683 Y113.091 E0.50522
G0 F6000 X40.871 Y112.713
G1 F1200 X52.07 Y123.912 E0.52677
G0 F6000 X52.716 Y123.993
G1 F1200 X41.2 Y112.477 E0.54168
G0 F6000 X41.675 Y112.386
G1 F1200 X53.363 Y124.074 E0.54977
G0 F6000 X54.01 Y124.155
G1 F1200 X42.178 Y112.323 E0.55654
G0 F6000 X42.68 Y112.26
G1 F1200 X54.656 Y124.235 E0.56329
G0 F6000 X55.303 Y124.317
G1 F1200 X43.183 Y112.197 E0.57009
G0 F6000 X43.686 Y112.134
G1 F1200 X55.949 Y124.397 E0.57681
G0 F6000 X56.596 Y124.478
G1 F1200 X44.189 Y112.071 E0.58359
G0 F6000 X44.691 Y112.008
G1 F1200 X57.242 Y124.558 E0.59034
G0 F6000 X57.889 Y124.64
G1 F1200 X45.194 Y111.945 E0.59713
G0 F6000 X45.698 Y111.883
G1 F1200 X58.535 Y124.72 E0.60381
G0 F6000 X59.182 Y124.801
G1 F1200 X46.2 Y111.82 E0.61061
G0 F6000 X46.703 Y111.757
G1 F1200 X59.829 Y124.882 E0.61738
G0 F6000 X60.475 Y124.963
G1 F1200 X47.206 Y111.694 E0.62413
G0 F6000 X47.709 Y111.631
G1 F1200 X61.121 Y125.044 E0.63088
G0 F6000 X61.767 Y125.124
G1 F1200 X48.211 Y111.568 E0.63763
G0 F6000 X48.714 Y111.505
G1 F1200 X62.414 Y125.205 E0.64441
G0 F6000 X63.061 Y125.286
G1 F1200 X49.217 Y111.442 E0.65118
G0 F6000 X49.72 Y111.379
G1 F1200 X63.707 Y125.367 E0.65793
G0 F6000 X64.354 Y125.448
G1 F1200 X50.223 Y111.317 E0.66468
G0 F6000 X50.726 Y111.254
G1 F1200 X65 Y125.529 E0.67143
G0 F6000 X65.647 Y125.609
G1 F1200 X51.229 Y111.191 E0.67818
G0 F6000 X51.731 Y111.128
G1 F1200 X66.293 Y125.69 E0.68495
G0 F6000 X66.94 Y125.771
G1 F1200 X52.234 Y111.065 E0.69173
G0 F6000 X52.737 Y111.003
G1 F1200 X67.586 Y125.852 E0.69845
G0 F6000 X68.232 Y125.932
G1 F1200 X53.24 Y110.94 E0.70518
G0 F6000 X53.742 Y110.877
G1 F1200 X68.879 Y126.014 E0.712
G0 F6000 X69.526 Y126.094
G1 F1200 X54.245 Y110.814 E0.71875
G0 F6000 X54.749 Y110.752
G1 F1200 X70.172 Y126.175 E0.72545
G0 F6000 X70.818 Y126.256
G1 F1200 X55.251 Y110.689 E0.73222
G0 F6000 X55.754 Y110.626
G1 F1200 X71.465 Y126.337 E0.739
G0 F6000 X72.112 Y126.417
G1 F1200 X56.257 Y110.563 E0.74575
G0 F6000 X56.76 Y110.5
G1 F1200 X72.758 Y126.498 E0.7525
G0 F6000 X73.405 Y126.579
G1 F1200 X57.262 Y110.437 E0.75929
G0 F6000 X57.765 Y110.374
G1 F1200 X74.051 Y126.66 E0.76604
G0 F6000 X74.698 Y126.741
G1 F1200 X58.268 Y110.311 E0.77282
G0 F6000 X58.771 Y110.248
G1 F1200 X75.344 Y126.821 E0.77954
G0 F6000 X75.991 Y126.903
G1 F1200 X59.274 Y110.186 E0.78632
G0 F6000 X59.777 Y110.123
G1 F1200 X76.637 Y126.983 E0.79304
G0 F6000 X77.283 Y127.064
G1 F1200 X60.28 Y110.06 E0.79979
G0 F6000 X60.782 Y109.997
G1 F1200 X77.93 Y127.145 E0.80659
G0 F6000 X78.577 Y127.226
G1 F1200 X61.285 Y109.934 E0.81336
G0 F6000 X61.788 Y109.871
G1 F1200 X79.223 Y127.306 E0.82009
G0 F6000 X79.869 Y127.387
G1 F1200 X62.291 Y109.808 E0.82684
G0 F6000 X62.793 Y109.745
G1 F1200 X80.516 Y127.468 E0.83364
G0 F6000 X81.163 Y127.549
G1 F1200 X63.296 Y109.682 E0.84041
G0 F6000 X63.8 Y109.62
G1 F1200 X81.809 Y127.629 E0.84709
G0 F6000 X82.456 Y127.711
G1 F1200 X64.302 Y109.557 E0.85391
G0 F6000 X64.805 Y109.494
G1 F1200 X83.102 Y127.791 E0.86063
G0 F6000 X83.749 Y127.872
G1 F1200 X65.308 Y109.431 E0.86741
G0 F6000 X65.811 Y109.368
G1 F1200 X84.395 Y127.953 E0.87416
G0 F6000 X85.042 Y128.034
G1 F1200 X66.313 Y109.305 E0.88095
G0 F6000 X66.816 Y109.243
G1 F1200 X85.688 Y128.115 E0.88768
G0 F6000 X86.334 Y128.195
G1 F1200 X67.319 Y109.18 E0.89441
G0 F6000 X67.822 Y109.117
G1 F1200 X86.981 Y128.276 E0.90118
G0 F6000 X87.628 Y128.357
G1 F1200 X68.325 Y109.054 E0.90795
G0 F6000 X68.828 Y108.992
G1 F1200 X88.274 Y128.438 E0.91468
G0 F6000 X88.92 Y128.518
G1 F1200 X69.331 Y108.929 E0.92141
G0 F6000 X69.833 Y108.866
G1 F1200 X89.567 Y128.6 E0.92823
G0 F6000 X90.214 Y128.68
G1 F1200 X70.336 Y108.803 E0.93498
G0 F6000 X70.839 Y108.74
G1 F1200 X90.86 Y128.761 E0.94173
G0 F6000 X91.507 Y128.842
G1 F1200 X71.342 Y108.677 E0.9485
G0 F6000 X71.844 Y108.614
G1 F1200 X92.153 Y128.923 E0.95527
G0 F6000 X92.799 Y129.003
G1 F1200 X72.347 Y108.551 E0.962
G0 F6000 X72.851 Y108.489
G1 F1200 X93.446 Y129.084 E0.96873
G0 F6000 X94.093 Y129.165
G1 F1200 X73.353 Y108.426 E0.97552
G0 F6000 X73.856 Y108.363
G1 F1200 X94.739 Y129.246 E0.98227
G0 F6000 X95.385 Y129.327
G1 F1200 X74.359 Y108.3 E0.98902
G0 F6000 X74.862 Y108.237
G1 F1200 X96.032 Y129.408 E0.9958
G0 F6000 X96.679 Y129.488
G1 F1200 X75.364 Y108.174 E1.00257
G0 F6000 X75.867 Y108.111
G1 F1200 X97.325 Y129.569 E1.00932
G0 F6000 X97.971 Y129.65
G1 F1200 X76.37 Y108.048 E1.01607
G0 F6000 X76.873 Y107.985
G1 F1200 X98.618 Y129.731 E1.02284
G0 F6000 X99.265 Y129.812
G1 F1200 X77.376 Y107.923 E1.02959
G0 F6000 X77.879 Y107.86
G1 F1200 X99.911 Y129.892 E1.03632
G0 F6000 X100.558 Y129.974
G1 F1200 X78.382 Y107.797 E1.04311
G0 F6000 X78.884 Y107.734
G1 F1200 X101.204 Y130.054 E1.04986
G0 F6000 X101.85 Y130.135
G1 F1200 X79.387 Y107.671 E1.05661
G0 F6000 X79.89 Y107.608
G1 F1200 X102.497 Y130.215 E1.06336
G0 F6000 X103.144 Y130.297
G1 F1200 X80.393 Y107.545 E1.07016
G0 F6000 X80.895 Y107.483
G1 F1200 X103.79 Y130.377 E1.07689
G0 F6000 X104.436 Y130.458
G1 F1200 X81.398 Y107.42 E1.08364
G0 F6000 X81.902 Y107.357
G1 F1200 X127.642 Y153.098 E2.15149
G0 F6000 X127.579 Y153.601
G1 F1200 X104.54 Y130.562 E1.08368
G0 F6000 X104.621 Y131.208
G1 F1200 X127.516 Y154.104 E1.07693
G0 F6000 X127.454 Y154.607
G1 F1200 X104.702 Y131.854 E1.07021
G0 F6000 X104.783 Y132.501
G1 F1200 X127.391 Y155.11 E1.06343
G0 F6000 X127.328 Y155.612
G1 F1200 X104.863 Y133.148 E1.05666
G0 F6000 X104.944 Y133.794
G1 F1200 X127.265 Y156.115 E1.04991
G0 F6000 X127.202 Y156.618
G1 F1200 X105.025 Y134.44 E1.04316
G0 F6000 X105.106 Y135.087
G1 F1200 X127.139 Y157.121 E1.03639
G0 F6000 X127.076 Y157.624
G1 F1200 X105.187 Y135.734 E1.02961
G0 F6000 X105.267 Y136.38
G1 F1200 X127.014 Y158.126 E1.02289
G0 F6000 X126.951 Y158.63
G1 F1200 X105.349 Y137.027 E1.01612
G0 F6000 X105.429 Y137.673
G1 F1200 X126.888 Y159.132 E1.00937
G0 F6000 X126.825 Y159.635
G1 F1200 X105.51 Y138.319 E1.00262
G0 F6000 X105.59 Y138.966
G1 F1200 X126.763 Y160.138 E0.99589
G0 F6000 X126.7 Y160.641
G1 F1200 X105.672 Y139.613 E0.98909
G0 F6000 X105.752 Y140.259
G1 F1200 X126.637 Y161.143 E0.98234
G0 F6000 X126.574 Y161.646
G1 F1200 X105.833 Y140.905 E0.97559
G0 F6000 X105.914 Y141.552
G1 F1200 X126.511 Y162.149 E0.96882
G0 F6000 X126.449 Y162.652
G1 F1200 X105.995 Y142.199 E0.96207
G0 F6000 X106.075 Y142.845
G1 F1200 X126.386 Y163.155 E0.95534
G0 F6000 X126.323 Y163.658
G1 F1200 X106.156 Y143.491 E0.94859
G0 F6000 X106.237 Y144.138
G1 F1200 X126.26 Y164.161 E0.94182
G0 F6000 X126.197 Y164.663
G1 F1200 X106.318 Y144.785 E0.93502
G0 F6000 X106.399 Y145.431
G1 F1200 X126.134 Y165.166 E0.92827
G0 F6000 X126.071 Y165.669
G1 F1200 X106.48 Y146.078 E0.9215
G0 F6000 X106.56 Y146.724
G1 F1200 X126.008 Y166.172 E0.91477
G0 F6000 X125.946 Y166.675
G1 F1200 X106.641 Y147.37 E0.90805
G0 F6000 X106.722 Y148.017
G1 F1200 X125.883 Y167.178 E0.90127
G0 F6000 X125.82 Y167.681
G1 F1200 X106.803 Y148.664 E0.8945
G0 F6000 X106.884 Y149.31
G1 F1200 X125.757 Y168.183 E0.88773
G0 F6000 X125.694 Y168.686
G1 F1200 X106.964 Y149.956 E0.881
G0 F6000 X107.046 Y150.603
G1 F1200 X125.631 Y169.189 E0.8742
G0 F6000 X125.568 Y169.692
G1 F1200 X107.126 Y151.25 E0.86746
G0 F6000 X107.207 Y151.896
G1 F1200 X125.505 Y170.194 E0.86068
G0 F6000 X125.443 Y170.698
G1 F1200 X107.287 Y152.542 E0.854
G0 F6000 X107.369 Y153.189
G1 F1200 X125.38 Y171.201 E0.84721
G0 F6000 X125.317 Y171.703
G1 F1200 X107.449 Y153.836 E0.84043
G0 F6000 X107.53 Y154.482
G1 F1200 X125.254 Y172.206 E0.83368
G0 F6000 X125.191 Y172.709
G1 F1200 X107.611 Y155.129 E0.82691
G0 F6000 X107.692 Y155.775
G1 F1200 X125.128 Y173.212 E0.82016
G0 F6000 X125.065 Y173.714
G1 F1200 X107.772 Y156.421 E0.81341
G0 F6000 X107.853 Y157.068
G1 F1200 X125.003 Y174.217 E0.80666
G0 F6000 X124.94 Y174.721
G1 F1200 X107.934 Y157.715 E0.79991
G0 F6000 X108.015 Y158.361
G1 F1200 X124.877 Y175.223 E0.79314
G0 F6000 X124.814 Y175.726
