;FLAVOR:Marlin
;TIME:16427
;Filament used: 10.167m
;Layer height: 0.2
;MINX:28.5
;MINY:28.5
;MINZ:0.2
;MAXX:206.5
;MAXY:206.5
;MAXZ:10.4
;Generated with Cura_SteamEngine 4.8.0
M140 S50
M105
M190 S50
M104 S210
M105
M109 S210
M82 ;absolute extrusion mode
; Ender 3 Custom Start G-code
G92 E0 ; Reset Extruder
G28 ; Home all axes
G1 Z2.0 F3000 ; Move Z Axis up little to prevent scratching of Heat Bed
G1 X0.1 Y20 Z0.3 F5000.0 ; Move to start position
G1 X0.1 Y200.0 Z0.3 F1500.0 E15 ; Draw the first line
G1 X0.4 Y200.0 Z0.3 F5000.0 ; Move to side a little
G1 X0.4 Y20 Z0.3 F1500.0 E30 ; Draw the second line
G92 E0 ; Reset Extruder
G1 Z2.0 F3000 ; Move Z Axis up little to prevent scratching of Heat Bed
G1 X5 Y20 Z0.3 F5000.0 ; Move over to prevent blob squish
G92 E0
G92 E0
G1 F2700 E-5
;LAYER_COUNT:52
;LAYER:0
M107
G0 F6000 X101.15 Y36.823 Z0.2
;TYPE:SKIRT
G1 F2700 E0
G1 F1200 X101.227 Y36.628 E0.00697
G1 X101.816 Y35.373 E0.05308
G1 X101.95 Y35.129 E0.06234
G1 X102.542 Y34.171 E0.0998
G1 X102.881 Y33.701 E0.11907
G1 X103.006 Y33.537 E0.12593
G1 X103.701 Y32.713 E0.16178
G1 X104.042 Y32.359 E0.17813
G1 X104.2 Y32.202 E0.18554
G1 X105.183 Y31.335 E0.22913
G1 X105.361 Y31.196 E0.23665
G1 X106.124 Y30.651 E0.26783
G1 X106.544 Y30.391 E0.28426
G1 X106.795 Y30.243 E0.29395
G1 X107.622 Y29.801 E0.32514
G1 X108.2 Y29.544 E0.34618
G1 X108.453 Y29.44 E0.35528
G1 X109.335 Y29.121 E0.38647
G1 X109.804 Y28.985 E0.40272
G1 X110.018 Y28.928 E0.41008
G1 X111.393 Y28.654 E0.45671
G1 X111.715 Y28.611 E0.46752
G1 X112.622 Y28.528 E0.49781
G1 X113.12 Y28.51 E0.51439
G1 X113.93 Y28.5 E0.54133
G1 X121.262 Y28.502 E0.78519
G1 X121.948 Y28.512 E0.80801
G1 X122.84 Y28.561 E0.83772
G1 X123.121 Y28.588 E0.84711
G1 X124.319 Y28.771 E0.88742
G1 X124.854 Y28.893 E0.90567
G1 X125.054 Y28.944 E0.91254
G1 X126.363 Y29.367 E0.95829
G1 X126.607 Y29.463 E0.96701
G1 X127.465 Y29.843 E0.99822
G1 X127.9 Y30.071 E1.01456
G1 X128.119 Y30.192 E1.02288
G1 X129.014 Y30.744 E1.05785
G1 X129.106 Y30.807 E1.06156
G1 X129.709 Y31.251 E1.08647
G1 X129.866 Y31.375 E1.09312
G1 X130.826 Y32.229 E1.13586
G1 X131.006 Y32.409 E1.14432
G1 X131.926 Y33.453 E1.19061
G1 X132.094 Y33.67 E1.19973
G1 X132.636 Y34.435 E1.23092
G1 X132.983 Y35.011 E1.25328
G1 X133.118 Y35.251 E1.26244
G1 X133.543 Y36.087 E1.29363
G1 X133.76 Y36.599 E1.31213
G1 X133.847 Y36.819 E1.32
G1 X134.021 Y37.29 E1.3367
G1 X134.244 Y38.003 E1.36155
G1 X134.348 Y38.382 E1.37462
G1 X135.066 Y40.855 E1.46027
G1 X135.837 Y43.257 E1.54417
G1 X136.678 Y45.636 E1.6281
G1 X137.56 Y47.927 E1.70975
G1 X138.549 Y50.296 E1.79513
G1 X139.59 Y52.6 E1.87922
G1 X140.68 Y54.844 E1.9622
G1 X141.856 Y57.101 E2.04684
G1 X143.06 Y59.258 E2.129
G1 X144.37 Y61.456 E2.21411
G1 X145.732 Y63.604 E2.2987
G1 X147.107 Y65.641 E2.38045
G1 X148.592 Y67.712 E2.4652
G1 X150.111 Y69.707 E2.5486
G1 X151.687 Y71.662 E2.63212
G1 X153.317 Y73.572 E2.71564
G1 X155.011 Y75.445 E2.79964
G1 X156.761 Y77.273 E2.8838
G1 X158.552 Y79.041 E2.96751
G1 X160.375 Y80.742 E3.05044
G1 X162.274 Y82.416 E3.13464
G1 X164.211 Y84.027 E3.21843
G1 X166.195 Y85.587 E3.30237
G1 X168.226 Y87.091 E3.38643
G1 X170.252 Y88.506 E3.46862
G1 X172.42 Y89.928 E3.55486
G1 X174.494 Y91.207 E3.6359
G1 X176.71 Y92.489 E3.72105
G1 X178.92 Y93.686 E3.80465
G1 X181.153 Y94.813 E3.88784
G1 X183.47 Y95.904 E3.97302
G1 X185.739 Y96.893 E4.05534
G1 X188.062 Y97.83 E4.13865
G1 X190.468 Y98.721 E4.22399
G1 X192.813 Y99.514 E4.30632
G1 X195.264 Y100.268 E4.39161
G1 X196.951 Y100.743 E4.44991
G1 X197.41 Y100.879 E4.46583
G1 X197.491 Y100.905 E4.46866
G1 X198.133 Y101.134 E4.49133
G1 X198.33 Y101.211 E4.49836
G1 X199.574 Y101.789 E4.54399
G1 X199.819 Y101.922 E4.55326
G1 X200.623 Y102.404 E4.58444
G1 X201.11 Y102.744 E4.60419
G1 X201.321 Y102.9 E4.61292
G1 X202.108 Y103.54 E4.64666
G1 X202.164 Y103.59 E4.64916
G1 X202.641 Y104.042 E4.67101
G1 X202.794 Y104.196 E4.67823
G1 X203.645 Y105.159 E4.72098
G1 X203.787 Y105.34 E4.72863
G1 X204.334 Y106.102 E4.75983
G1 X204.602 Y106.531 E4.77665
G1 X204.751 Y106.783 E4.78639
G1 X205.193 Y107.61 E4.81758
G1 X205.45 Y108.186 E4.83855
G1 X205.554 Y108.438 E4.84762
G1 X205.875 Y109.319 E4.87881
G1 X206.017 Y109.809 E4.89578
G1 X206.072 Y110.016 E4.9029
G1 X206.34 Y111.35 E4.94815
G1 X206.385 Y111.679 E4.9592
G1 X206.471 Y112.598 E4.9899
G1 X206.476 Y112.694 E4.9931
G1 X206.49 Y113.109 E5.00691
G1 X206.5 Y113.898 E5.03315
G1 X206.498 Y121.263 E5.27811
G1 X206.488 Y121.948 E5.3009
G1 X206.438 Y122.843 E5.33071
G1 X206.411 Y123.123 E5.34007
G1 X206.242 Y124.254 E5.3781
G1 X206.228 Y124.323 E5.38044
G1 X206.113 Y124.829 E5.3977
G1 X206.063 Y125.027 E5.4045
G1 X205.64 Y126.346 E5.45057
G1 X205.546 Y126.586 E5.45914
G1 X205.167 Y127.444 E5.49034
G1 X204.922 Y127.912 E5.50791
G1 X204.796 Y128.139 E5.51654
G1 X204.284 Y128.973 E5.54909
G1 X204.223 Y129.063 E5.55271
G1 X203.749 Y129.709 E5.57936
G1 X203.625 Y129.866 E5.58601
G1 X203.054 Y130.533 E5.61521
G1 X203.002 Y130.589 E5.61776
G1 X202.41 Y131.179 E5.64555
G1 X202.21 Y131.364 E5.65462
G1 X201.495 Y131.971 E5.68581
G1 X200.79 Y132.476 E5.71465
G1 X200.506 Y132.663 E5.72596
G1 X199.702 Y133.145 E5.75714
G1 X199.151 Y133.424 E5.77768
G1 X198.92 Y133.533 E5.78618
G1 X197.894 Y133.956 E5.82309
G1 X197.73 Y134.014 E5.82888
G1 X196.98 Y134.249 E5.85502
G1 X196.605 Y134.352 E5.86795
G1 X194.145 Y135.066 E5.95315
G1 X191.743 Y135.837 E6.03705
G1 X189.364 Y136.678 E6.12098
G1 X187.073 Y137.56 E6.20263
G1 X184.704 Y138.549 E6.28801
G1 X182.4 Y139.59 E6.3721
G1 X180.157 Y140.679 E6.45503
G1 X177.893 Y141.859 E6.53995
G1 X175.744 Y143.058 E6.6218
G1 X173.544 Y144.37 E6.70699
G1 X171.413 Y145.722 E6.79093
G1 X169.342 Y147.12 E6.87404
G1 X167.288 Y148.592 E6.95809
G1 X165.293 Y150.111 E7.04149
G1 X163.338 Y151.687 E7.12501
G1 X161.428 Y153.317 E7.20852
G1 X159.536 Y155.028 E7.29337
G1 X157.744 Y156.744 E7.37589
G1 X155.959 Y158.552 E7.46039
G1 X154.241 Y160.392 E7.54412
G1 X152.599 Y162.256 E7.62674
G1 X150.958 Y164.228 E7.71207
G1 X149.427 Y166.178 E7.79453
G1 X147.909 Y168.226 E7.87931
G1 X146.494 Y170.252 E7.96151
G1 X145.072 Y172.42 E8.04774
G1 X143.786 Y174.505 E8.12922
G1 X142.515 Y176.702 E8.21364
G1 X141.315 Y178.917 E8.29743
G1 X140.187 Y181.153 E8.38072
G1 X139.096 Y183.47 E8.4659
G1 X138.106 Y185.741 E8.5483
G1 X137.171 Y188.061 E8.6315
G1 X136.279 Y190.468 E8.71688
G1 X135.486 Y192.813 E8.79921
G1 X134.732 Y195.264 E8.8845
G1 X134.257 Y196.951 E8.94279
G1 X134.128 Y197.387 E8.95791
G1 X133.868 Y198.128 E8.98403
G1 X133.789 Y198.33 E8.99125
G1 X133.214 Y199.569 E9.03668
G1 X133.08 Y199.816 E9.04602
G1 X132.564 Y200.673 E9.0793
G1 X132.532 Y200.721 E9.08121
G1 X132.16 Y201.244 E9.10256
G1 X132.034 Y201.411 E9.10952
G1 X131.414 Y202.162 E9.14191
G1 X131.367 Y202.214 E9.14424
G1 X130.984 Y202.616 E9.16271
G1 X130.833 Y202.767 E9.16981
G1 X129.828 Y203.657 E9.21446
G1 X129.645 Y203.8 E9.22219
G1 X128.882 Y204.345 E9.25337
G1 X128.466 Y204.604 E9.26967
G1 X128.212 Y204.754 E9.27948
G1 X127.384 Y205.196 E9.3107
G1 X126.8 Y205.456 E9.33196
G1 X126.547 Y205.56 E9.34106
G1 X125.665 Y205.879 E9.37225
G1 X125.196 Y206.015 E9.3885
G1 X124.982 Y206.072 E9.39586
G1 X123.607 Y206.346 E9.44249
G1 X123.285 Y206.389 E9.4533
G1 X122.378 Y206.472 E9.48359
G1 X121.88 Y206.49 E9.50017
G1 X121.07 Y206.5 E9.52711
G1 X113.739 Y206.498 E9.77094
G1 X113.053 Y206.488 E9.79376
G1 X112.165 Y206.439 E9.82334
G1 X111.883 Y206.412 E9.83276
G1 X110.681 Y206.229 E9.8732
G1 X110.146 Y206.107 E9.89145
G1 X109.946 Y206.056 E9.89832
G1 X108.629 Y205.63 E9.94435
G1 X108.383 Y205.533 E9.95315
G1 X107.526 Y205.152 E9.98434
G1 X107.069 Y204.912 E10.00151
G1 X106.839 Y204.784 E10.01027
G1 X105.903 Y204.2 E10.04696
G1 X105.824 Y204.145 E10.05016
G1 X105.291 Y203.749 E10.07225
G1 X105.134 Y203.625 E10.0789
G1 X104.174 Y202.771 E10.12164
G1 X103.994 Y202.591 E10.1301
G1 X103.36 Y201.9 E10.16129
G1 X103.058 Y201.526 E10.17728
G1 X102.887 Y201.304 E10.1866
G1 X102.346 Y200.537 E10.21782
G1 X102.008 Y199.974 E10.23966
G1 X101.875 Y199.737 E10.2487
G1 X101.452 Y198.901 E10.27986
G1 X101.234 Y198.386 E10.29846
G1 X101.143 Y198.155 E10.30672
G1 X100.914 Y197.517 E10.32927
G1 X100.89 Y197.443 E10.33185
G1 X100.742 Y196.95 E10.34897
G1 X100.641 Y196.579 E10.36176
G1 X99.937 Y194.154 E10.44575
G1 X99.159 Y191.733 E10.53033
G1 X98.322 Y189.364 E10.61389
G1 X97.44 Y187.073 E10.69554
G1 X96.445 Y184.69 E10.78143
G1 X95.423 Y182.426 E10.86405
G1 X94.314 Y180.144 E10.94844
G1 X93.141 Y177.893 E11.03286
G1 X91.942 Y175.744 E11.11471
G1 X90.63 Y173.544 E11.19991
G1 X89.278 Y171.413 E11.28385
G1 X87.88 Y169.342 E11.36695
G1 X86.408 Y167.288 E11.451
G1 X84.889 Y165.293 E11.5344
G1 X83.313 Y163.338 E11.61792
G1 X81.683 Y161.428 E11.70144
G1 X79.972 Y159.536 E11.78628
G1 X78.256 Y157.744 E11.8688
G1 X76.448 Y155.959 E11.95331
G1 X74.608 Y154.241 E12.03703
G1 X72.744 Y152.599 E12.11965
G1 X70.772 Y150.958 E12.20498
G1 X68.822 Y149.427 E12.28744
G1 X66.774 Y147.909 E12.37223
G1 X64.748 Y146.494 E12.45442
G1 X62.58 Y145.072 E12.54066
G1 X60.506 Y143.793 E12.6217
G1 X58.29 Y142.511 E12.70685
G1 X56.08 Y141.314 E12.79044
G1 X53.847 Y140.187 E12.87364
G1 X51.53 Y139.096 E12.95882
G1 X49.259 Y138.106 E13.04122
G1 X46.939 Y137.171 E13.12441
G1 X44.532 Y136.279 E13.20979
G1 X42.187 Y135.486 E13.29212
G1 X39.736 Y134.732 E13.37741
G1 X38.049 Y134.257 E13.4357
G1 X37.59 Y134.121 E13.45163
G1 X37.509 Y134.095 E13.45446
G1 X36.867 Y133.866 E13.47713
G1 X36.67 Y133.789 E13.48416
G1 X35.426 Y133.211 E13.52979
G1 X35.181 Y133.078 E13.53906
G1 X34.377 Y132.596 E13.57024
G1 X33.901 Y132.265 E13.58952
G1 X33.684 Y132.105 E13.59849
G1 X32.845 Y131.419 E13.63453
G1 X32.794 Y131.373 E13.63682
G1 X32.333 Y130.933 E13.65801
G1 X32.179 Y130.777 E13.6653
G1 X31.347 Y129.832 E13.70718
G1 X31.206 Y129.652 E13.71479
G1 X30.66 Y128.89 E13.74596
G1 X30.375 Y128.43 E13.76396
G1 X30.225 Y128.174 E13.77383
G1 X29.786 Y127.345 E13.80503
G1 X29.543 Y126.797 E13.82497
G1 X29.441 Y126.549 E13.83389
G1 X29.121 Y125.667 E13.86509
G1 X28.985 Y125.196 E13.8814
G1 X28.928 Y124.982 E13.88877
G1 X28.654 Y123.607 E13.9354
G1 X28.611 Y123.285 E13.9462
G1 X28.527 Y122.361 E13.97706
G1 X28.521 Y122.237 E13.98119
G1 X28.509 Y121.836 E13.99453
G1 X28.5 Y121.029 E14.02138
G1 X28.502 Y113.715 E14.26464
G1 X28.512 Y113.04 E14.28709
G1 X28.564 Y112.12 E14.31774
G1 X28.591 Y111.847 E14.32687
G1 X28.777 Y110.647 E14.36726
G1 X28.887 Y110.171 E14.3835
G1 X28.937 Y109.973 E14.3903
G1 X29.205 Y109.074 E14.4215
G1 X29.378 Y108.608 E14.43803
G1 X29.48 Y108.351 E14.44723
G1 X29.863 Y107.495 E14.47842
G1 X30.114 Y107.02 E14.49629
G1 X30.232 Y106.81 E14.5043
G1 X30.669 Y106.097 E14.53211
G1 X30.727 Y106.01 E14.53559
G1 X31.275 Y105.26 E14.56648
G1 X31.404 Y105.098 E14.57337
G1 X32.209 Y104.194 E14.61363
G1 X32.387 Y104.015 E14.62203
G1 X33.076 Y103.378 E14.65324
G1 X33.498 Y103.039 E14.67124
G1 X33.716 Y102.872 E14.68038
G1 X34.484 Y102.334 E14.71156
G1 X34.995 Y102.026 E14.73141
G1 X35.234 Y101.891 E14.74054
G1 X36.07 Y101.465 E14.77175
G1 X36.619 Y101.232 E14.79158
G1 X36.853 Y101.14 E14.79994
G1 X37.399 Y100.941 E14.81927
G1 X37.459 Y100.921 E14.82138
G1 X38.02 Y100.751 E14.84087
G1 X38.395 Y100.648 E14.85381
G1 X40.855 Y99.934 E14.939
G1 X43.257 Y99.163 E15.02291
G1 X45.636 Y98.322 E15.10683
G1 X47.927 Y97.44 E15.18848
G1 X50.296 Y96.451 E15.27387
G1 X52.6 Y95.41 E15.35796
G1 X54.843 Y94.321 E15.44089
G1 X57.107 Y93.141 E15.5258
G1 X59.256 Y91.942 E15.60765
G1 X61.456 Y90.63 E15.69285
G1 X63.587 Y89.278 E15.77679
G1 X65.658 Y87.88 E15.85989
G1 X67.712 Y86.408 E15.94394
G1 X69.707 Y84.889 E16.02734
G1 X71.662 Y83.313 E16.11086
G1 X73.572 Y81.683 E16.19438
G1 X75.464 Y79.972 E16.27922
G1 X77.256 Y78.256 E16.36174
G1 X79.041 Y76.448 E16.44625
G1 X80.759 Y74.608 E16.52997
G1 X82.401 Y72.744 E16.6126
G1 X84.042 Y70.772 E16.69792
G1 X85.573 Y68.822 E16.78038
G1 X87.091 Y66.774 E16.86517
G1 X88.506 Y64.748 E16.94736
G1 X89.928 Y62.58 E17.0336
G1 X91.214 Y60.495 E17.11508
G1 X92.485 Y58.298 E17.1995
G1 X93.685 Y56.083 E17.28328
G1 X94.813 Y53.847 E17.36658
G1 X95.904 Y51.53 E17.45176
G1 X96.894 Y49.259 E17.53416
G1 X97.829 Y46.939 E17.61735
G1 X98.721 Y44.532 E17.70273
G1 X99.514 Y42.187 E17.78506
G1 X100.268 Y39.736 E17.87036
G1 X100.752 Y38.017 E17.92975
G1 X100.908 Y37.498 E17.94778
G1 X100.929 Y37.434 E17.95002
G1 X101.15 Y36.823 E17.97163
G0 F6000 X101.522 Y36.97
G1 F1200 X101.599 Y36.775 E17.9786
G1 X102.167 Y35.566 E18.02303
G1 X102.301 Y35.322 E18.03229
G1 X102.871 Y34.399 E18.06837
G1 X103.2 Y33.943 E18.08707
G1 X103.325 Y33.779 E18.09393
G1 X103.994 Y32.985 E18.12846
G1 X104.324 Y32.643 E18.14427
G1 X104.482 Y32.486 E18.15168
G1 X105.429 Y31.651 E18.19367
G1 X105.607 Y31.512 E18.20118
G1 X106.747 Y30.735 E18.24707
G1 X106.998 Y30.587 E18.25676
G1 X107.811 Y30.154 E18.2874
G1 X108.352 Y29.914 E18.30708
G1 X108.605 Y29.81 E18.31618
G1 X109.907 Y29.371 E18.36188
G1 X110.121 Y29.314 E18.36925
G1 X111.446 Y29.05 E18.41418
G1 X111.768 Y29.007 E18.42499
G1 X112.642 Y28.927 E18.45418
G1 X112.742 Y28.922 E18.45751
G1 X113.126 Y28.91 E18.47029
G1 X113.929 Y28.9 E18.49699
G1 X121.257 Y28.902 E18.74073
G1 X121.943 Y28.912 E18.76354
G1 X122.802 Y28.96 E18.79216
G1 X123.083 Y28.987 E18.80155
G1 X124.237 Y29.162 E18.84037
G1 X124.755 Y29.281 E18.85805
G1 X124.955 Y29.332 E18.86491
G1 X126.217 Y29.739 E18.90901
G1 X126.461 Y29.835 E18.91774
G1 X127.706 Y30.421 E18.9635
G1 X127.925 Y30.542 E18.97182
G1 X128.788 Y31.074 E19.00554
G1 X128.88 Y31.137 E19.00925
G1 X129.461 Y31.565 E19.03325
G1 X129.618 Y31.689 E19.03991
G1 X130.543 Y32.512 E19.08109
G1 X130.723 Y32.692 E19.08955
G1 X131.61 Y33.698 E19.13416
G1 X131.778 Y33.915 E19.14329
G1 X132.309 Y34.667 E19.17391
G1 X132.635 Y35.207 E19.19489
G1 X132.77 Y35.447 E19.20405
G1 X133.186 Y36.268 E19.23466
G1 X133.388 Y36.746 E19.25192
G1 X133.475 Y36.966 E19.25979
G1 X133.644 Y37.422 E19.27596
G1 X133.858 Y38.109 E19.29989
G1 X133.952 Y38.45 E19.31166
G1 X134.687 Y40.984 E19.39941
G1 X135.459 Y43.387 E19.48336
G1 X136.299 Y45.765 E19.56724
G1 X137.189 Y48.076 E19.64961
G1 X138.187 Y50.465 E19.73572
G1 X139.216 Y52.745 E19.81892
G1 X140.338 Y55.054 E19.90431
G1 X141.486 Y57.258 E19.98696
G1 X142.725 Y59.479 E20.07155
G1 X144.021 Y61.653 E20.15573
G1 X145.38 Y63.796 E20.24013
G1 X146.795 Y65.892 E20.32424
G1 X148.265 Y67.941 E20.40812
G1 X149.797 Y69.955 E20.49228
G1 X151.387 Y71.927 E20.57653
G1 X153.017 Y73.837 E20.66005
G1 X154.708 Y75.706 E20.74388
G1 X156.492 Y77.569 E20.82967
G1 X158.263 Y79.317 E20.91243
G1 X160.12 Y81.051 E20.99694
G1 X162.019 Y82.725 E21.08114
G1 X163.97 Y84.348 E21.16554
G1 X165.938 Y85.894 E21.24878
G1 X167.982 Y87.408 E21.33338
G1 X170.049 Y88.852 E21.41725
G1 X172.17 Y90.243 E21.50161
G1 X174.315 Y91.567 E21.58545
G1 X176.514 Y92.838 E21.66993
G1 X178.728 Y94.037 E21.75367
G1 X180.981 Y95.175 E21.83762
G1 X183.276 Y96.255 E21.92198
G1 X185.596 Y97.266 E22.00615
G1 X187.952 Y98.216 E22.09065
G1 X190.306 Y99.088 E22.17414
G1 X192.705 Y99.9 E22.25838
G1 X195.137 Y100.648 E22.343
G1 X196.695 Y101.088 E22.39685
G1 X196.846 Y101.129 E22.40206
G1 X197.288 Y101.26 E22.41739
G1 X197.369 Y101.286 E22.42022
G1 X197.988 Y101.506 E22.44207
G1 X198.185 Y101.583 E22.4491
G1 X199.383 Y102.14 E22.49304
G1 X199.628 Y102.273 E22.50232
G1 X200.417 Y102.747 E22.53293
G1 X200.873 Y103.066 E22.55144
G1 X201.084 Y103.222 E22.56017
G1 X201.842 Y103.838 E22.59265
G1 X201.898 Y103.888 E22.59515
G1 X202.358 Y104.324 E22.61623
G1 X202.511 Y104.478 E22.62345
G1 X203.331 Y105.406 E22.66464
G1 X203.473 Y105.587 E22.67229
G1 X204.009 Y106.336 E22.70292
G1 X204.257 Y106.735 E22.71855
G1 X204.406 Y106.987 E22.72829
G1 X204.84 Y107.799 E22.75891
G1 X205.08 Y108.338 E22.77853
G1 X205.184 Y108.59 E22.7876
G1 X205.498 Y109.456 E22.81824
G1 X205.631 Y109.912 E22.83404
G1 X205.686 Y110.119 E22.84116
G1 X205.943 Y111.405 E22.88478
G1 X205.988 Y111.734 E22.89582
G1 X206.072 Y112.619 E22.92539
G1 X206.077 Y112.715 E22.92859
G1 X206.09 Y113.115 E22.9419
G1 X206.1 Y113.897 E22.96791
G1 X206.098 Y121.257 E23.21271
G1 X206.088 Y121.942 E23.23549
G1 X206.04 Y122.804 E23.26421
G1 X206.013 Y123.084 E23.27356
