;FLAVOR:Marlin
;TIME:18781
;Filament used: 10.167m
;Layer height: 0.2
;MINX:28.5
;MINY:28.5
;MINZ:0.2
;MAXX:206.5
;MAXY:206.5
;MAXZ:10.4
;Generated with Cura_SteamEngine 4.8.0
M140 S50
M105
M190 S50
M104 S210
M105
M109 S210
M82 ;absolute extrusion mode
; Ender 3 Custom Start G-code
G92 E0 ; Reset Extruder
G28 ; Home all axes
G1 Z2.0 F3000 ; Move Z Axis up little to prevent scratching of Heat Bed
G1 X0.1 Y20 Z0.3 F5000.0 ; Move to start position
G1 X0.1 Y200.0 Z0.3 F1500.0 E15 ; Draw the first line
G1 X0.4 Y200.0 Z0.3 F5000.0 ; Move to side a little
G1 X0.4 Y20 Z0.3 F1500.0 E30 ; Draw the second line
G92 E0 ; Reset Extruder
G1 Z2.0 F3000 ; Move Z Axis up little to prevent scratching of Heat Bed
G1 X5 Y20 Z0.3 F5000.0 ; Move over to prevent blob squish
M83 ;relative extrusion mode
G1 F2700 E-5
;LAYER_COUNT:52
;LAYER:0
M107
G0 F6000 X101.15 Y36.823 Z0.2
;TYPE:SKIRT
G1 F2700 E5
G1 F1200 X101.227 Y36.628 E0.00697
G1 X101.816 Y35.373 E0.04611
G1 X101.95 Y35.129 E0.00926
G1 X102.542 Y34.171 E0.03746
G1 X102.881 Y33.701 E0.01927
G1 X103.006 Y33.537 E0.00686
G1 X103.701 Y32.713 E0.03585
G1 X104.042 Y32.359 E0.01635
G1 X104.2 Y32.202 E0.00741
G1 X105.183 Y31.335 E0.04359
G1 X105.361 Y31.196 E0.00751
G1 X106.124 Y30.651 E0.03119
G1 X106.544 Y30.391 E0.01643
G1 X106.795 Y30.243 E0.00969
G1 X107.622 Y29.801 E0.03119
G1 X108.2 Y29.544 E0.02104
G1 X108.453 Y29.44 E0.0091
G1 X109.335 Y29.121 E0.0312
G1 X109.804 Y28.985 E0.01624
G1 X110.018 Y28.928 E0.00737
G1 X111.393 Y28.654 E0.04663
G1 X111.715 Y28.611 E0.0108
G1 X112.622 Y28.528 E0.03029
G1 X113.12 Y28.51 E0.01657
G1 X113.93 Y28.5 E0.02694
G1 X121.262 Y28.502 E0.24386
G1 X121.948 Y28.512 E0.02282
G1 X122.84 Y28.561 E0.02971
G1 X123.121 Y28.588 E0.00939
G1 X124.319 Y28.771 E0.04031
G1 X124.854 Y28.893 E0.01825
G1 X125.054 Y28.944 E0.00686
G1 X126.363 Y29.367 E0.04575
G1 X126.607 Y29.463 E0.00872
G1 X127.465 Y29.843 E0.03121
G1 X127.9 Y30.071 E0.01634
G1 X128.119 Y30.192 E0.00832
G1 X129.014 Y30.744 E0.03497
G1 X129.106 Y30.807 E0.00371
G1 X129.709 Y31.251 E0.02491
G1 X129.866 Y31.375 E0.00665
G1 X130.826 Y32.229 E0.04274
G1 X131.006 Y32.409 E0.00847
G1 X131.926 Y33.453 E0.04628
G1 X132.094 Y33.67 E0.00913
G1 X132.636 Y34.435 E0.03118
G1 X132.983 Y35.011 E0.02237
G1 X133.118 Y35.251 E0.00916
G1 X133.543 Y36.087 E0.03119
G1 X133.76 Y36.599 E0.0185
G1 X133.847 Y36.819 E0.00787
G1 X134.021 Y37.29 E0.0167
G1 X134.244 Y38.003 E0.02485
G1 X134.348 Y38.382 E0.01307
G1 X135.066 Y40.855 E0.08565
G1 X135.837 Y43.257 E0.08391
G1 X136.678 Y45.636 E0.08392
G1 X137.56 Y47.927 E0.08165
G1 X138.549 Y50.296 E0.08538
G1 X139.59 Y52.6 E0.08409
G1 X140.68 Y54.844 E0.08297
G1 X141.856 Y57.101 E0.08465
G1 X143.06 Y59.258 E0.08216
G1 X144.37 Y61.456 E0.08511
G1 X145.732 Y63.604 E0.08459
G1 X147.107 Y65.641 E0.08174
G1 X148.592 Y67.712 E0.08476
G1 X150.111 Y69.707 E0.0834
G1 X151.687 Y71.662 E0.08352
G1 X153.317 Y73.572 E0.08352
G1 X155.011 Y75.445 E0.084
G1 X156.761 Y77.273 E0.08417
G1 X158.552 Y79.041 E0.0837
G1 X160.375 Y80.742 E0.08293
G1 X162.274 Y82.416 E0.0842
G1 X164.211 Y84.027 E0.0838
G1 X166.195 Y85.587 E0.08394
G1 X168.226 Y87.091 E0.08406
G1 X170.252 Y88.506 E0.08219
G1 X172.42 Y89.928 E0.08623
G1 X174.494 Y91.207 E0.08104
G1 X176.71 Y92.489 E0.08515
G1 X178.92 Y93.686 E0.08359
G1 X181.153 Y94.813 E0.08319
G1 X183.47 Y95.904 E0.08518
G1 X185.739 Y96.893 E0.08232
G1 X188.062 Y97.83 E0.08331
G1 X190.468 Y98.721 E0.08533
G1 X192.813 Y99.514 E0.08233
G1 X195.264 Y100.268 E0.08529
G1 X196.951 Y100.743 E0.05829
G1 X197.41 Y100.879 E0.01592
G1 X197.491 Y100.905 E0.00283
G1 X198.133 Y101.134 E0.02267
G1 X198.33 Y101.211 E0.00703
G1 X199.574 Y101.789 E0.04562
G1 X199.819 Y101.922 E0.00927
G1 X200.623 Y102.404 E0.03118
G1 X201.11 Y102.744 E0.01975
G1 X201.321 Y102.9 E0.00873
G1 X202.108 Y103.54 E0.03374
G1 X202.164 Y103.59 E0.0025
G1 X202.641 Y104.042 E0.02186
G1 X202.794 Y104.196 E0.00722
G1 X203.645 Y105.159 E0.04274
G1 X203.787 Y105.34 E0.00765
G1 X204.334 Y106.102 E0.0312
G1 X204.602 Y106.531 E0.01682
G1 X204.751 Y106.783 E0.00974
G1 X205.193 Y107.61 E0.03119
G1 X205.45 Y108.186 E0.02098
G1 X205.554 Y108.438 E0.00907
G1 X205.875 Y109.319 E0.03119
G1 X206.017 Y109.809 E0.01697
G1 X206.072 Y110.016 E0.00712
G1 X206.34 Y111.35 E0.04526
G1 X206.385 Y111.679 E0.01104
G1 X206.471 Y112.598 E0.0307
G1 X206.476 Y112.694 E0.0032
G1 X206.49 Y113.109 E0.01381
G1 X206.5 Y113.898 E0.02624
G1 X206.498 Y121.263 E0.24496
G1 X206.488 Y121.948 E0.02279
G1 X206.438 Y122.843 E0.02981
G1 X206.411 Y123.123 E0.00936
G1 X206.242 Y124.254 E0.03803
G1 X206.228 Y124.323 E0.00234
G1 X206.113 Y124.829 E0.01726
G1 X206.063 Y125.027 E0.00679
G1 X205.64 Y126.346 E0.04607
G1 X205.546 Y126.586 E0.00857
G1 X205.167 Y127.444 E0.0312
G1 X204.922 Y127.912 E0.01757
G1 X204.796 Y128.139 E0.00864
G1 X204.284 Y128.973 E0.03255
G1 X204.223 Y129.063 E0.00362
G1 X203.749 Y129.709 E0.02665
G1 X203.625 Y129.866 E0.00665
G1 X203.054 Y130.533 E0.0292
G1 X203.002 Y130.589 E0.00254
G1 X202.41 Y131.179 E0.0278
G1 X202.21 Y131.364 E0.00906
G1 X201.495 Y131.971 E0.03119
G1 X200.79 Y132.476 E0.02884
G1 X200.506 Y132.663 E0.01131
G1 X199.702 Y133.145 E0.03118
G1 X199.151 Y133.424 E0.02054
G1 X198.92 Y133.533 E0.0085
G1 X197.894 Y133.956 E0.03691
G1 X197.73 Y134.014 E0.00579
G1 X196.98 Y134.249 E0.02614
G1 X196.605 Y134.352 E0.01293
G1 X194.145 Y135.066 E0.0852
G1 X191.743 Y135.837 E0.08391
G1 X189.364 Y136.678 E0.08392
G1 X187.073 Y137.56 E0.08165
G1 X184.704 Y138.549 E0.08538
G1 X182.4 Y139.59 E0.08409
G1 X180.157 Y140.679 E0.08293
G1 X177.893 Y141.859 E0.08491
G1 X175.744 Y143.058 E0.08185
G1 X173.544 Y144.37 E0.0852
G1 X171.413 Y145.722 E0.08394
G1 X169.342 Y147.12 E0.08311
G1 X167.288 Y148.592 E0.08405
G1 X165.293 Y150.111 E0.0834
G1 X163.338 Y151.687 E0.08352
G1 X161.428 Y153.317 E0.08352
G1 X159.536 Y155.028 E0.08484
G1 X157.744 Y156.744 E0.08252
G1 X155.959 Y158.552 E0.0845
G1 X154.241 Y160.392 E0.08373
G1 X152.599 Y162.256 E0.08262
G1 X150.958 Y164.228 E0.08533
G1 X149.427 Y166.178 E0.08246
G1 X147.909 Y168.226 E0.08479
G1 X146.494 Y170.252 E0.08219
G1 X145.072 Y172.42 E0.08623
G1 X143.786 Y174.505 E0.08148
G1 X142.515 Y176.702 E0.08442
G1 X141.315 Y178.917 E0.08379
G1 X140.187 Y181.153 E0.0833
G1 X139.096 Y183.47 E0.08518
G1 X138.106 Y185.741 E0.0824
G1 X137.171 Y188.061 E0.08319
G1 X136.279 Y190.468 E0.08538
G1 X135.486 Y192.813 E0.08233
G1 X134.732 Y195.264 E0.08529
G1 X134.257 Y196.951 E0.05829
G1 X134.128 Y197.387 E0.01512
G1 X133.868 Y198.128 E0.02612
G1 X133.789 Y198.33 E0.00721
G1 X133.214 Y199.569 E0.04543
G1 X133.08 Y199.816 E0.00935
G1 X132.564 Y200.673 E0.03327
G1 X132.532 Y200.721 E0.00192
G1 X132.16 Y201.244 E0.02135
G1 X132.034 Y201.411 E0.00696
G1 X131.414 Y202.162 E0.03239
G1 X131.367 Y202.214 E0.00233
G1 X130.984 Y202.616 E0.01847
G1 X130.833 Y202.767 E0.0071
G1 X129.828 Y203.657 E0.04465
G1 X129.645 Y203.8 E0.00772
G1 X128.882 Y204.345 E0.03119
G1 X128.466 Y204.604 E0.0163
G1 X128.212 Y204.754 E0.00981
G1 X127.384 Y205.196 E0.03122
G1 X126.8 Y205.456 E0.02126
G1 X126.547 Y205.56 E0.0091
G1 X125.665 Y205.879 E0.0312
G1 X125.196 Y206.015 E0.01624
G1 X124.982 Y206.072 E0.00737
G1 X123.607 Y206.346 E0.04663
G1 X123.285 Y206.389 E0.0108
G1 X122.378 Y206.472 E0.03029
G1 X121.88 Y206.49 E0.01657
G1 X121.07 Y206.5 E0.02694
G1 X113.739 Y206.498 E0.24383
G1 X113.053 Y206.488 E0.02282
G1 X112.165 Y206.439 E0.02958
G1 X111.883 Y206.412 E0.00942
G1 X110.681 Y206.229 E0.04044
G1 X110.146 Y206.107 E0.01825
G1 X109.946 Y206.056 E0.00686
G1 X108.629 Y205.63 E0.04604
G1 X108.383 Y205.533 E0.0088
G1 X107.526 Y205.152 E0.03119
G1 X107.069 Y204.912 E0.01717
G1 X106.839 Y204.784 E0.00875
G1 X105.903 Y204.2 E0.03669
G1 X105.824 Y204.145 E0.0032
G1 X105.291 Y203.749 E0.02208
G1 X105.134 Y203.625 E0.00665
G1 X104.174 Y202.771 E0.04274
G1 X103.994 Y202.591 E0.00847
G1 X103.36 Y201.9 E0.03119
G1 X103.058 Y201.526 E0.01599
G1 X102.887 Y201.304 E0.00932
G1 X102.346 Y200.537 E0.03122
G1 X102.008 Y199.974 E0.02184
G1 X101.875 Y199.737 E0.00904
G1 X101.452 Y198.901 E0.03116
G1 X101.234 Y198.386 E0.0186
G1 X101.143 Y198.155 E0.00826
G1 X100.914 Y197.517 E0.02255
G1 X100.89 Y197.443 E0.00259
G1 X100.742 Y196.95 E0.01712
G1 X100.641 Y196.579 E0.01279
G1 X99.937 Y194.154 E0.08399
G1 X99.159 Y191.733 E0.08458
G1 X98.322 Y189.364 E0.08357
G1 X97.44 Y187.073 E0.08165
G1 X96.445 Y184.69 E0.08589
G1 X95.423 Y182.426 E0.08262
G1 X94.314 Y180.144 E0.08439
G1 X93.141 Y177.893 E0.08442
G1 X91.942 Y175.744 E0.08185
G1 X90.63 Y173.544 E0.0852
G1 X89.278 Y171.413 E0.08394
G1 X87.88 Y169.342 E0.08311
G1 X86.408 Y167.288 E0.08405
G1 X84.889 Y165.293 E0.0834
G1 X83.313 Y163.338 E0.08352
G1 X81.683 Y161.428 E0.08352
G1 X79.972 Y159.536 E0.08484
G1 X78.256 Y157.744 E0.08252
G1 X76.448 Y155.959 E0.0845
G1 X74.608 Y154.241 E0.08373
G1 X72.744 Y152.599 E0.08262
G1 X70.772 Y150.958 E0.08533
G1 X68.822 Y149.427 E0.08246
G1 X66.774 Y147.909 E0.08479
G1 X64.748 Y146.494 E0.08219
G1 X62.58 Y145.072 E0.08623
G1 X60.506 Y143.793 E0.08104
G1 X58.29 Y142.511 E0.08515
G1 X56.08 Y141.314 E0.08359
G1 X53.847 Y140.187 E0.08319
G1 X51.53 Y139.096 E0.08518
G1 X49.259 Y138.106 E0.0824
G1 X46.939 Y137.171 E0.08319
G1 X44.532 Y136.279 E0.08538
G1 X42.187 Y135.486 E0.08233
G1 X39.736 Y134.732 E0.08529
G1 X38.049 Y134.257 E0.05829
G1 X37.59 Y134.121 E0.01592
G1 X37.509 Y134.095 E0.00283
G1 X36.867 Y133.866 E0.02267
G1 X36.67 Y133.789 E0.00703
G1 X35.426 Y133.211 E0.04562
G1 X35.181 Y133.078 E0.00927
G1 X34.377 Y132.596 E0.03118
G1 X33.901 Y132.265 E0.01928
G1 X33.684 Y132.105 E0.00897
G1 X32.845 Y131.419 E0.03605
G1 X32.794 Y131.373 E0.00228
G1 X32.333 Y130.933 E0.0212
G1 X32.179 Y130.777 E0.00729
G1 X31.347 Y129.832 E0.04188
G1 X31.206 Y129.652 E0.0076
G1 X30.66 Y128.89 E0.03118
G1 X30.375 Y128.43 E0.018
G1 X30.225 Y128.174 E0.00987
G1 X29.786 Y127.345 E0.0312
G1 X29.543 Y126.797 E0.01994
G1 X29.441 Y126.549 E0.00892
G1 X29.121 Y125.667 E0.03121
G1 X28.985 Y125.196 E0.01631
G1 X28.928 Y124.982 E0.00737
G1 X28.654 Y123.607 E0.04663
G1 X28.611 Y123.285 E0.0108
G1 X28.527 Y122.361 E0.03086
G1 X28.521 Y122.237 E0.00413
G1 X28.509 Y121.836 E0.01334
G1 X28.5 Y121.029 E0.02684
G1 X28.502 Y113.715 E0.24326
G1 X28.512 Y113.04 E0.02245
G1 X28.564 Y112.12 E0.03065
G1 X28.591 Y111.847 E0.00912
G1 X28.777 Y110.647 E0.04039
G1 X28.887 Y110.171 E0.01625
G1 X28.937 Y109.973 E0.00679
G1 X29.205 Y109.074 E0.0312
G1 X29.378 Y108.608 E0.01653
G1 X29.48 Y108.351 E0.0092
G1 X29.863 Y107.495 E0.03119
G1 X30.114 Y107.02 E0.01787
G1 X30.232 Y106.81 E0.00801
G1 X30.669 Y106.097 E0.02781
G1 X30.727 Y106.01 E0.00348
G1 X31.275 Y105.26 E0.03089
G1 X31.404 Y105.098 E0.00689
G1 X32.209 Y104.194 E0.04026
G1 X32.387 Y104.015 E0.0084
G1 X33.076 Y103.378 E0.03121
G1 X33.498 Y103.039 E0.018
G1 X33.716 Y102.872 E0.00913
G1 X34.484 Y102.334 E0.03119
G1 X34.995 Y102.026 E0.01984
G1 X35.234 Y101.891 E0.00913
G1 X36.07 Y101.465 E0.03121
G1 X36.619 Y101.232 E0.01984
G1 X36.853 Y101.14 E0.00836
G1 X37.399 Y100.941 E0.01933
G1 X37.459 Y100.921 E0.0021
G1 X38.02 Y100.751 E0.0195
G1 X38.395 Y100.648 E0.01293
G1 X40.855 Y99.934 E0.0852
G1 X43.257 Y99.163 E0.08391
G1 X45.636 Y98.322 E0.08392
G1 X47.927 Y97.44 E0.08165
G1 X50.296 Y96.451 E0.08538
G1 X52.6 Y95.41 E0.08409
G1 X54.843 Y94.321 E0.08293
G1 X57.107 Y93.141 E0.08491
G1 X59.256 Y91.942 E0.08185
G1 X61.456 Y90.63 E0.0852
G1 X63.587 Y89.278 E0.08394
G1 X65.658 Y87.88 E0.08311
G1 X67.712 Y86.408 E0.08405
G1 X69.707 Y84.889 E0.0834
G1 X71.662 Y83.313 E0.08352
G1 X73.572 Y81.683 E0.08352
G1 X75.464 Y79.972 E0.08484
G1 X77.256 Y78.256 E0.08252
G1 X79.041 Y76.448 E0.0845
G1 X80.759 Y74.608 E0.08373
G1 X82.401 Y72.744 E0.08262
G1 X84.042 Y70.772 E0.08533
G1 X85.573 Y68.822 E0.08246
G1 X87.091 Y66.774 E0.08479
G1 X88.506 Y64.748 E0.08219
G1 X89.928 Y62.58 E0.08623
G1 X91.214 Y60.495 E0.08148
G1 X92.485 Y58.298 E0.08442
G1 X93.685 Y56.083 E0.08379
G1 X94.813 Y53.847 E0.0833
G1 X95.904 Y51.53 E0.08518
G1 X96.894 Y49.259 E0.0824
G1 X97.829 Y46.939 E0.08319
G1 X98.721 Y44.532 E0.08538
G1 X99.514 Y42.187 E0.08233
G1 X100.268 Y39.736 E0.08529
G1 X100.752 Y38.017 E0.0594
G1 X100.908 Y37.498 E0.01802
G1 X100.929 Y37.434 E0.00224
G1 X101.15 Y36.823 E0.02161
G0 F6000 X101.522 Y36.97
G1 F1200 X101.599 Y36.775 E0.00697
G1 X102.167 Y35.566 E0.04443
G1 X102.301 Y35.322 E0.00926
G1 X102.871 Y34.399 E0.03608
G1 X103.2 Y33.943 E0.0187
G1 X103.325 Y33.779 E0.00686
G1 X103.994 Y32.985 E0.03453
G1 X104.324 Y32.643 E0.01581
G1 X104.482 Y32.486 E0.00741
G1 X105.429 Y31.651 E0.04199
G1 X105.607 Y31.512 E0.00751
G1 X106.747 Y30.735 E0.04589
G1 X106.998 Y30.587 E0.00969
G1 X107.811 Y30.154 E0.03064
G1 X108.352 Y29.914 E0.01968
G1 X108.605 Y29.81 E0.0091
G1 X109.907 Y29.371 E0.0457
G1 X110.121 Y29.314 E0.00737
G1 X111.446 Y29.05 E0.04494
G1 X111.768 Y29.007 E0.0108
G1 X112.642 Y28.927 E0.02919
G1 X112.742 Y28.922 E0.00333
G1 X113.126 Y28.91 E0.01278
G1 X113.929 Y28.9 E0.02671
G1 X121.257 Y28.902 E0.24373
G1 X121.943 Y28.912 E0.02282
G1 X122.802 Y28.96 E0.02862
G1 X123.083 Y28.987 E0.00939
G1 X124.237 Y29.162 E0.03882
G1 X124.755 Y29.281 E0.01768
G1 X124.955 Y29.332 E0.00686
G1 X126.217 Y29.739 E0.0441
G1 X126.461 Y29.835 E0.00872
G1 X127.706 Y30.421 E0.04577
G1 X127.925 Y30.542 E0.00832
G1 X128.788 Y31.074 E0.03372
G1 X128.88 Y31.137 E0.00371
G1 X129.461 Y31.565 E0.024
G1 X129.618 Y31.689 E0.00665
G1 X130.543 Y32.512 E0.04118
G1 X130.723 Y32.692 E0.00847
G1 X131.61 Y33.698 E0.04461
G1 X131.778 Y33.915 E0.00913
G1 X132.309 Y34.667 E0.03062
G1 X132.635 Y35.207 E0.02098
G1 X132.77 Y35.447 E0.00916
G1 X133.186 Y36.268 E0.03061
G1 X133.388 Y36.746 E0.01726
G1 X133.475 Y36.966 E0.00787
G1 X133.644 Y37.422 E0.01617
G1 X133.858 Y38.109 E0.02393
G1 X133.952 Y38.45 E0.01176
G1 X134.687 Y40.984 E0.08775
G1 X135.459 Y43.387 E0.08395
G1 X136.299 Y45.765 E0.08388
G1 X137.189 Y48.076 E0.08237
G1 X138.187 Y50.465 E0.08611
G1 X139.216 Y52.745 E0.0832
G1 X140.338 Y55.054 E0.08538
G1 X141.486 Y57.258 E0.08265
G1 X142.725 Y59.479 E0.08459
G1 X144.021 Y61.653 E0.08418
G1 X145.38 Y63.796 E0.0844
G1 X146.795 Y65.892 E0.08411
G1 X148.265 Y67.941 E0.08387
G1 X149.797 Y69.955 E0.08416
G1 X151.387 Y71.927 E0.08425
G1 X153.017 Y73.837 E0.08352
G1 X154.708 Y75.706 E0.08383
G1 X156.492 Y77.569 E0.08579
G1 X158.263 Y79.317 E0.08276
G1 X160.12 Y81.051 E0.0845
G1 X162.019 Y82.725 E0.0842
G1 X163.97 Y84.348 E0.08441
G1 X165.938 Y85.894 E0.08324
G1 X167.982 Y87.408 E0.0846
G1 X170.049 Y88.852 E0.08386
G1 X172.17 Y90.243 E0.08436
G1 X174.315 Y91.567 E0.08384
G1 X176.514 Y92.838 E0.08448
G1 X178.728 Y94.037 E0.08374
G1 X180.981 Y95.175 E0.08395
G1 X183.276 Y96.255 E0.08436
G1 X185.596 Y97.266 E0.08417
G1 X187.952 Y98.216 E0.08449
G1 X190.306 Y99.088 E0.08349
G1 X192.705 Y99.9 E0.08424
G1 X195.137 Y100.648 E0.08463
G1 X196.695 Y101.088 E0.05385
G1 X196.846 Y101.129 E0.0052
G1 X197.288 Y101.26 E0.01533
G1 X197.369 Y101.286 E0.00283
G1 X197.988 Y101.506 E0.02185
G1 X198.185 Y101.583 E0.00703
G1 X199.383 Y102.14 E0.04394
G1 X199.628 Y102.273 E0.00927
G1 X200.417 Y102.747 E0.03061
G1 X200.873 Y103.066 E0.01851
G1 X201.084 Y103.222 E0.00873
G1 X201.842 Y103.838 E0.03249
G1 X201.898 Y103.888 E0.0025
G1 X202.358 Y104.324 E0.02108
G1 X202.511 Y104.478 E0.00722
G1 X203.331 Y105.406 E0.04119
G1 X203.473 Y105.587 E0.00765
G1 X204.009 Y106.336 E0.03063
G1 X204.257 Y106.735 E0.01563
G1 X204.406 Y106.987 E0.00974
G1 X204.84 Y107.799 E0.03062
G1 X205.08 Y108.338 E0.01962
G1 X205.184 Y108.59 E0.00907
G1 X205.498 Y109.456 E0.03064
G1 X205.631 Y109.912 E0.0158
G1 X205.686 Y110.119 E0.00712
G1 X205.943 Y111.405 E0.04362
G1 X205.988 Y111.734 E0.01104
G1 X206.072 Y112.619 E0.02957
G1 X206.077 Y112.715 E0.0032
G1 X206.09 Y113.115 E0.01331
G1 X206.1 Y113.897 E0.02601
G1 X206.098 Y121.257 E0.24479
G1 X206.088 Y121.942 E0.02279
G1 X206.04 Y122.804 E0.02871
G1 X206.013 Y123.084 E0.00936
G1 X205.85 Y124.175 E0.03669
G1 X205.836 Y124.244 E0.00234
G1 X205.725 Y124.731 E0.01661
G1 X205.675 Y124.929 E0.00679
G1 X205.268 Y126.2 E0.04439
G1 X205.174 Y126.44 E0.00857
G1 X204.801 Y127.282 E0.03063
G1 X204.572 Y127.718 E0.01638
G1 X204.446 Y127.945 E0.00864
