;FLAVOR:Marlin
;TIME:20465
;Filament used: 11.2296m
;Layer height: 0.2
;MINX:38.836
;MINY:39.055
;MINZ:0.2
;MAXX:196.165
;MAXY:196.165
;MAXZ:11.4
;Generated with Cura_SteamEngine 4.8.0
M140 S60
M105
M190 S60
M104 S220
M105
M109 S220
M82 ;absolute extrusion mode
; Ender 3 Custom Start G-code
G92 E0 ; Reset Extruder
G28 ; Home all axes
G1 Z2.0 F3000 ; Move Z Axis up little to prevent scratching of Heat Bed
G1 X0.1 Y20 Z0.3 F5000.0 ; Move to start position
G1 X0.1 Y200.0 Z0.3 F1500.0 E15 ; Draw the first line
G1 X0.4 Y200.0 Z0.3 F5000.0 ; Move to side a little
G1 X0.4 Y20 Z0.3 F1500.0 E30 ; Draw the second line
G92 E0 ; Reset Extruder
G1 Z2.0 F3000 ; Move Z Axis up little to prevent scratching of Heat Bed
G1 X5 Y20 Z0.3 F5000.0 ; Move over to prevent blob squish
M83 ;relative extrusion mode
G1 F2700 E-5
;LAYER_COUNT:57
;LAYER:0
M107
;MESH:CE3_gripper_bottom_flex.3mf(2)
G0 F6000 X117.5 Y133.479 Z0.2
;TYPE:WALL-INNER
G1 F2700 E5
G1 F1200 X115.772 Y133.385 E0.05756
G1 X114.064 Y133.106 E0.05756
G1 X112.405 Y132.646 E0.05726
G1 X110.785 Y132 E0.05801
G1 X109.262 Y131.192 E0.05734
G1 X107.832 Y130.223 E0.05745
G1 X106.509 Y129.099 E0.05774
G1 X105.323 Y127.848 E0.05733
G1 X104.272 Y126.464 E0.0578
G1 X103.385 Y124.99 E0.05722
G1 X102.656 Y123.415 E0.05772
G1 X102.101 Y121.768 E0.05781
G1 X101.732 Y120.089 E0.05718
G1 X101.544 Y118.36 E0.05785
G1 X101.544 Y116.64 E0.05721
G1 X101.732 Y114.911 E0.05785
G1 X102.101 Y113.232 E0.05718
G1 X102.656 Y111.585 E0.05781
G1 X103.386 Y110.007 E0.05783
G1 X104.272 Y108.536 E0.05711
G1 X105.323 Y107.152 E0.0578
G1 X106.509 Y105.901 E0.05733
G1 X107.832 Y104.777 E0.05774
G1 X109.262 Y103.808 E0.05745
G1 X110.785 Y103 E0.05734
G1 X112.405 Y102.354 E0.05801
G1 X114.064 Y101.894 E0.05726
G1 X115.772 Y101.615 E0.05756
G1 X117.5 Y101.521 E0.05756
G1 X119.228 Y101.615 E0.05756
G1 X120.936 Y101.894 E0.05756
G1 X122.595 Y102.354 E0.05726
G1 X124.215 Y103 E0.05801
G1 X125.738 Y103.808 E0.05734
G1 X127.168 Y104.777 E0.05745
G1 X128.491 Y105.901 E0.05774
G1 X129.677 Y107.152 E0.05733
G1 X130.728 Y108.536 E0.0578
G1 X131.614 Y110.007 E0.05711
G1 X132.344 Y111.585 E0.05783
G1 X132.899 Y113.232 E0.05781
G1 X133.268 Y114.911 E0.05718
G1 X133.456 Y116.64 E0.05785
G1 X133.456 Y118.36 E0.05721
G1 X133.268 Y120.089 E0.05785
G1 X132.899 Y121.768 E0.05718
G1 X132.344 Y123.415 E0.05781
G1 X131.615 Y124.99 E0.05772
G1 X130.728 Y126.464 E0.05722
G1 X129.677 Y127.848 E0.0578
G1 X128.491 Y129.099 E0.05733
G1 X127.168 Y130.223 E0.05774
G1 X125.738 Y131.192 E0.05745
G1 X124.215 Y132 E0.05734
G1 X122.595 Y132.646 E0.05801
G1 X120.936 Y133.106 E0.05726
G1 X119.228 Y133.385 E0.05756
G1 X117.5 Y133.479 E0.05756
G0 F6000 X117.5 Y133.879
;TYPE:WALL-OUTER
G1 F1200 X115.722 Y133.783 E0.05922
G1 X113.984 Y133.499 E0.05857
G1 X112.27 Y133.023 E0.05917
G1 X110.624 Y132.367 E0.05893
G1 X109.054 Y131.534 E0.05911
G1 X107.586 Y130.539 E0.05898
G1 X106.237 Y129.393 E0.05887
G1 X105.013 Y128.102 E0.05917
G1 X103.942 Y126.691 E0.05892
G1 X103.032 Y125.179 E0.05869
G1 X102.284 Y123.563 E0.05923
G1 X101.714 Y121.872 E0.05935
G1 X101.336 Y120.154 E0.05851
G1 X101.144 Y118.385 E0.05918
G1 X101.144 Y116.615 E0.05887
G1 X101.336 Y114.846 E0.05918
G1 X101.714 Y113.128 E0.05851
G1 X102.284 Y111.437 E0.05935
G1 X103.033 Y109.818 E0.05933
G1 X103.942 Y108.309 E0.05859
G1 X105.013 Y106.898 E0.05892
G1 X106.237 Y105.607 E0.05917
G1 X107.586 Y104.461 E0.05887
G1 X109.054 Y103.466 E0.05898
G1 X110.624 Y102.633 E0.05911
G1 X112.27 Y101.977 E0.05893
G1 X113.984 Y101.501 E0.05917
G1 X115.722 Y101.217 E0.05857
G1 X117.5 Y101.121 E0.05922
G1 X119.278 Y101.217 E0.05922
G1 X121.016 Y101.501 E0.05857
G1 X122.73 Y101.977 E0.05917
G1 X124.376 Y102.633 E0.05893
G1 X125.946 Y103.466 E0.05911
G1 X127.414 Y104.461 E0.05898
G1 X128.763 Y105.607 E0.05887
G1 X129.987 Y106.898 E0.05917
G1 X131.058 Y108.309 E0.05892
G1 X131.967 Y109.818 E0.05859
G1 X132.716 Y111.437 E0.05933
G1 X133.286 Y113.128 E0.05935
G1 X133.664 Y114.846 E0.05851
G1 X133.856 Y116.615 E0.05918
G1 X133.856 Y118.385 E0.05887
G1 X133.664 Y120.154 E0.05918
G1 X133.286 Y121.872 E0.05851
G1 X132.716 Y123.563 E0.05935
G1 X131.968 Y125.179 E0.05923
G1 X131.058 Y126.691 E0.05869
G1 X129.987 Y128.102 E0.05892
G1 X128.763 Y129.393 E0.05917
G1 X127.414 Y130.539 E0.05887
G1 X125.946 Y131.534 E0.05898
G1 X124.376 Y132.367 E0.05911
G1 X122.73 Y133.023 E0.05893
G1 X121.016 Y133.499 E0.05917
G1 X119.278 Y133.783 E0.05857
G1 X117.5 Y133.879 E0.05922
G0 F6000 X117.5 Y133.439
G0 X117.5 Y133.087
;TYPE:SKIN
G1 F1200 X115.81 Y132.996 E0.05629
G1 X114.148 Y132.725 E0.05601
G1 X112.525 Y132.274 E0.05603
G1 X110.957 Y131.649 E0.05614
G1 X109.461 Y130.855 E0.05633
G1 X108.063 Y129.908 E0.05616
G1 X106.784 Y128.822 E0.05581
G1 X105.615 Y127.59 E0.05649
G1 X104.597 Y126.246 E0.05608
G1 X103.732 Y124.81 E0.05576
G1 X103.021 Y123.274 E0.0563
G1 X102.476 Y121.657 E0.05675
G1 X102.117 Y120.026 E0.05555
G1 X101.934 Y118.336 E0.05654
G1 X101.934 Y116.664 E0.05561
G1 X102.117 Y114.974 E0.05654
G1 X102.476 Y113.343 E0.05555
G1 X103.021 Y111.726 E0.05675
G1 X103.734 Y110.184 E0.0565
G1 X104.597 Y108.754 E0.05555
G1 X105.615 Y107.41 E0.05608
G1 X106.786 Y106.176 E0.05658
G1 X108.063 Y105.092 E0.05571
G1 X109.461 Y104.145 E0.05616
G1 X110.957 Y103.351 E0.05633
G1 X112.525 Y102.726 E0.05614
G1 X114.148 Y102.275 E0.05603
G1 X115.81 Y102.004 E0.05601
G1 X117.5 Y101.913 E0.05629
G1 X119.19 Y102.004 E0.05629
G1 X120.852 Y102.275 E0.05601
G1 X122.475 Y102.726 E0.05603
G1 X124.043 Y103.351 E0.05614
G1 X125.539 Y104.145 E0.05633
G1 X126.937 Y105.092 E0.05616
G1 X128.214 Y106.176 E0.05571
G1 X129.385 Y107.41 E0.05658
G1 X130.403 Y108.754 E0.05608
G1 X131.266 Y110.184 E0.05555
G1 X131.979 Y111.726 E0.0565
G1 X132.524 Y113.343 E0.05675
G1 X132.883 Y114.974 E0.05555
G1 X133.066 Y116.664 E0.05654
G1 X133.066 Y118.336 E0.05561
G1 X132.883 Y120.026 E0.05654
G1 X132.524 Y121.657 E0.05555
G1 X131.979 Y123.274 E0.05675
G1 X131.268 Y124.81 E0.0563
G1 X130.403 Y126.246 E0.05576
G1 X129.385 Y127.59 E0.05608
G1 X128.216 Y128.822 E0.05649
G1 X126.937 Y129.908 E0.05581
G1 X125.539 Y130.855 E0.05616
G1 X124.043 Y131.649 E0.05633
G1 X122.475 Y132.274 E0.05614
G1 X120.852 Y132.725 E0.05603
G1 X119.19 Y132.996 E0.05601
G1 X117.5 Y133.087 E0.05629
G0 F6000 X117.485 Y133.366
G0 X115.786 Y133.214
G0 X114.1 Y132.94
G0 X112.464 Y132.485
G0 X110.859 Y131.846
G0 X110.432 Y131.62
G0 X108.295 Y130.402
G0 X108.543 Y130.039
G1 F1200 X104.952 Y126.448 E0.16891
G0 F6000 X104.601 Y126.714
G0 X103.601 Y125.134
G0 X103.977 Y124.908
G1 F1200 X110.06 Y130.99 E0.2861
G0 F6000 X109.853 Y131.38
G0 X111.049 Y131.986
G0 X111.213 Y131.577
G1 F1200 X103.444 Y123.809 E0.36541
G0 F6000 X103.046 Y123.993
G0 X102.627 Y122.983
G0 X103.045 Y122.844
G1 F1200 X112.153 Y131.952 E0.42841
G0 F6000 X113.006 Y132.24
G1 F1200 X102.758 Y121.991 E0.48206
G0 F6000 X102.539 Y121.207
G1 F1200 X113.79 Y132.458 E0.52921
G0 F6000 X114.52 Y132.622
G1 F1200 X102.379 Y120.481 E0.57108
G0 F6000 X102.251 Y119.787
G1 F1200 X115.196 Y132.733 E0.60892
G0 F6000 X115.867 Y132.837
G1 F1200 X102.182 Y119.153 E0.64368
G0 F6000 X102.113 Y118.518
G1 F1200 X116.464 Y132.869 E0.67503
G0 F6000 X117.062 Y132.901
G1 F1200 X102.093 Y117.932 E0.7041
G0 F6000 X102.093 Y117.366
G1 F1200 X117.643 Y132.916 E0.73142
G0 F6000 X118.18 Y132.887
G1 F1200 X102.093 Y116.801 E0.75666
G0 F6000 X102.136 Y116.278
G1 F1200 X118.716 Y132.859 E0.7799
G0 F6000 X119.247 Y132.823
G1 F1200 X102.191 Y115.767 E0.80226
G0 F6000 X102.246 Y115.256
G1 F1200 X119.733 Y132.744 E0.82256
G0 F6000 X120.22 Y132.665
G1 F1200 X102.324 Y114.769 E0.84177
G0 F6000 X102.425 Y114.305
G1 F1200 X120.706 Y132.586 E0.85988
G0 F6000 X121.158 Y132.472
G1 F1200 X102.528 Y113.842 E0.8763
G0 F6000 X102.632 Y113.38
G1 F1200 X121.601 Y132.349 E0.89224
G0 F6000 X122.043 Y132.226
G1 F1200 X102.774 Y112.956 E0.90638
G0 F6000 X102.917 Y112.533
G1 F1200 X122.48 Y132.097 E0.92021
G0 F6000 X122.885 Y131.936
G1 F1200 X103.06 Y112.111 E0.93251
G0 F6000 X103.21 Y111.696
G1 F1200 X123.29 Y131.775 E0.94448
G0 F6000 X123.694 Y131.614
G1 F1200 X103.389 Y111.309 E0.95508
G0 F6000 X103.568 Y110.922
G1 F1200 X124.088 Y131.441 E0.96517
G0 F6000 X124.457 Y131.246
G1 F1200 X103.747 Y110.535 E0.97416
G0 F6000 X103.934 Y110.157
G1 F1200 X124.826 Y131.049 E0.9827
G0 F6000 X125.196 Y130.853
G1 F1200 X104.148 Y109.805 E0.99003
G0 F6000 X104.361 Y109.452
G1 F1200 X125.556 Y130.647 E0.99695
G0 F6000 X125.893 Y130.419
G1 F1200 X104.574 Y109.1 E1.00278
G0 F6000 X104.796 Y108.755
G1 F1200 X126.231 Y130.191 E1.00826
G0 F6000 X126.568 Y129.962
G1 F1200 X105.04 Y108.434 E1.01261
G0 F6000 X105.283 Y108.111
G1 F1200 X126.9 Y129.728 E1.0168
G0 F6000 X127.206 Y129.469
G1 F1200 X105.527 Y107.789 E1.01974
G0 F6000 X105.775 Y107.472
G1 F1200 X127.512 Y129.209 E1.02244
G0 F6000 X127.818 Y128.949
G1 F1200 X106.05 Y107.181 E1.0239
G0 F6000 X106.326 Y106.891
G1 F1200 X128.122 Y128.688 E1.02524
G0 F6000 X128.397 Y128.397
G1 F1200 X106.601 Y106.601 E1.02522
G0 F6000 X106.876 Y106.31
G1 F1200 X128.672 Y128.107 E1.02524
G0 F6000 X128.948 Y127.817
G1 F1200 X107.181 Y106.049 E1.02388
G0 F6000 X107.487 Y105.79
G1 F1200 X129.223 Y127.526 E1.02239
G0 F6000 X129.471 Y127.209
G1 F1200 X107.793 Y105.53 E1.01969
G0 F6000 X108.099 Y105.271
G1 F1200 X129.715 Y126.887 E1.01675
G0 F6000 X129.959 Y126.565
G1 F1200 X108.431 Y105.037 E1.01261
G0 F6000 X108.767 Y104.808
G1 F1200 X130.203 Y126.243 E1.00826
G0 F6000 X130.424 Y125.898
G1 F1200 X109.105 Y104.579 E1.00278
G0 F6000 X109.442 Y104.351
G1 F1200 X130.637 Y125.546 E0.99695
G0 F6000 X130.85 Y125.193
G1 F1200 X109.802 Y104.145 E0.99003
G0 F6000 X110.172 Y103.949
G1 F1200 X131.062 Y124.84 E0.98263
G0 F6000 X131.251 Y124.463
G1 F1200 X110.541 Y103.753 E0.97413
G0 F6000 X110.911 Y103.557
G1 F1200 X131.431 Y124.077 E0.9652
G0 F6000 X131.61 Y123.69
G1 F1200 X111.304 Y103.384 E0.95513
G0 F6000 X111.708 Y103.223
G1 F1200 X131.789 Y123.303 E0.94453
G0 F6000 X131.939 Y122.888
G1 F1200 X112.113 Y103.062 E0.93255
G0 F6000 X112.518 Y102.901
G1 F1200 X132.081 Y122.465 E0.92021
G0 F6000 X132.224 Y122.042
G1 F1200 X112.955 Y102.773 E0.90635
G0 F6000 X113.398 Y102.649
G1 F1200 X132.366 Y121.618 E0.89222
G0 F6000 X132.47 Y121.157
G1 F1200 X113.84 Y102.526 E0.87632
G0 F6000 X114.292 Y102.413
G1 F1200 X132.573 Y120.693 E0.85986
G0 F6000 X132.675 Y120.23
G1 F1200 X114.778 Y102.333 E0.84182
G0 F6000 X115.265 Y102.254
G1 F1200 X132.752 Y119.742 E0.82256
G0 F6000 X132.808 Y119.231
G1 F1200 X115.751 Y102.175 E0.80229
G0 F6000 X116.282 Y102.14
G1 F1200 X132.863 Y118.721 E0.77992
G0 F6000 X132.905 Y118.197
G1 F1200 X116.818 Y102.111 E0.75666
G0 F6000 X117.355 Y102.082
G1 F1200 X132.905 Y117.632 E0.73142
G0 F6000 X132.905 Y117.066
G1 F1200 X117.937 Y102.098 E0.70405
G0 F6000 X118.535 Y102.13
G1 F1200 X132.885 Y116.48 E0.67498
G0 F6000 X132.816 Y115.846
G1 F1200 X119.132 Y102.162 E0.64365
G0 F6000 X119.802 Y102.266
G1 F1200 X132.747 Y115.211 E0.60889
G0 F6000 X132.619 Y114.517
G1 F1200 X120.478 Y102.376 E0.57108
G0 F6000 X121.208 Y102.541
G1 F1200 X132.459 Y113.791 E0.52919
G0 F6000 X132.24 Y113.007
G1 F1200 X121.992 Y102.758 E0.48206
G0 F6000 X122.845 Y103.046
G1 F1200 X131.953 Y112.154 E0.42841
G0 F6000 X132.372 Y112.014
G0 X131.953 Y111.003
G0 X131.552 Y111.188
G1 F1200 X123.786 Y103.421 E0.36531
G0 F6000 X123.949 Y103.014
G0 X125.146 Y103.619
G0 X124.939 Y104.009
G1 F1200 X131.025 Y110.095 E0.28627
G0 F6000 X131.402 Y109.869
G0 X130.397 Y108.284
G0 X130.046 Y108.55
G1 F1200 X126.456 Y104.96 E0.16886
G0 F6000 X126.653 Y104.67
G1 F2700 E-5
;MESH:NONMESH
G0 F300 X126.653 Y104.67 Z0.4
G0 F6000 X126.704 Y104.597
G0 X128.378 Y106.028
G0 X129.544 Y107.26
G0 X130.586 Y108.631
G0 X131.461 Y110.084
G0 X132.187 Y111.652
G0 X132.735 Y113.279
G0 X133.099 Y114.936
G0 X133.285 Y116.652
G0 X133.285 Y118.348
G0 X133.099 Y120.064
G0 X132.735 Y121.721
G0 X132.187 Y123.348
G0 X131.462 Y124.913
G0 X130.586 Y126.369
G0 X129.544 Y127.74
G0 X128.378 Y128.972
G0 X127.066 Y130.085
G0 X125.649 Y131.046
G0 X124.141 Y131.846
G0 X122.536 Y132.485
G0 X121.212 Y132.853
G0 X117.5 Y133.479
;TIME_ELAPSED:119.972474
;LAYER:1
M106 S85
;TYPE:WALL-INNER
;MESH:CE3_gripper_bottom_flex.3mf(2)
G1 F2700 E5
G1 F1200 X115.772 Y133.385 E0.05756
G1 X114.064 Y133.106 E0.05756
G1 X112.405 Y132.646 E0.05726
G1 X110.785 Y132 E0.05801
G1 X109.262 Y131.192 E0.05734
G1 X107.832 Y130.223 E0.05745
G1 X106.509 Y129.099 E0.05774
G1 X105.323 Y127.848 E0.05733
G1 X104.272 Y126.464 E0.0578
G1 X103.385 Y124.99 E0.05722
G1 X102.656 Y123.415 E0.05772
G1 X102.101 Y121.768 E0.05781
G1 X101.732 Y120.089 E0.05718
G1 X101.544 Y118.36 E0.05785
G1 X101.544 Y116.64 E0.05721
G1 X101.732 Y114.911 E0.05785
G1 X102.101 Y113.232 E0.05718
G1 X102.656 Y111.585 E0.05781
G1 X103.386 Y110.007 E0.05783
G1 X104.272 Y108.536 E0.05711
G1 X105.323 Y107.152 E0.0578
G1 X106.509 Y105.901 E0.05733
G1 X107.832 Y104.777 E0.05774
G1 X109.262 Y103.808 E0.05745
G1 X110.785 Y103 E0.05734
G1 X112.405 Y102.354 E0.05801
G1 X114.064 Y101.894 E0.05726
G1 X115.772 Y101.615 E0.05756
G1 X117.5 Y101.521 E0.05756
G1 X119.228 Y101.615 E0.05756
G1 X120.936 Y101.894 E0.05756
G1 X122.595 Y102.354 E0.05726
G1 X124.215 Y103 E0.05801
G1 X125.738 Y103.808 E0.05734
G1 X127.168 Y104.777 E0.05745
G1 X128.491 Y105.901 E0.05774
G1 X129.677 Y107.152 E0.05733
G1 X130.728 Y108.536 E0.0578
G1 X131.614 Y110.007 E0.05711
G1 X132.344 Y111.585 E0.05783
G1 X132.899 Y113.232 E0.05781
G1 X133.268 Y114.911 E0.05718
G1 X133.456 Y116.64 E0.05785
G1 X133.456 Y118.36 E0.05721
G1 X133.268 Y120.089 E0.05785
G1 X132.899 Y121.768 E0.05718
G1 X132.344 Y123.415 E0.05781
G1 X131.615 Y124.99 E0.05772
G1 X130.728 Y126.464 E0.05722
G1 X129.677 Y127.848 E0.0578
G1 X128.491 Y129.099 E0.05733
G1 X127.168 Y130.223 E0.05774
G1 X125.738 Y131.192 E0.05745
G1 X124.215 Y132 E0.05734
G1 X122.595 Y132.646 E0.05801
G1 X120.936 Y133.106 E0.05726
G1 X119.228 Y133.385 E0.05756
G1 X117.5 Y133.479 E0.05756
G0 F7500 X117.5 Y133.879
;TYPE:WALL-OUTER
G1 F1200 X115.722 Y133.783 E0.05922
G1 X113.984 Y133.499 E0.05857
G1 X112.27 Y133.023 E0.05917
G1 X110.624 Y132.367 E0.05893
G1 X109.054 Y131.534 E0.05911
G1 X107.586 Y130.539 E0.05898
G1 X106.237 Y129.393 E0.05887
G1 X105.013 Y128.102 E0.05917
G1 X103.942 Y126.691 E0.05892
G1 X103.032 Y125.179 E0.05869
G1 X102.284 Y123.563 E0.05923
G1 X101.714 Y121.872 E0.05935
G1 X101.336 Y120.154 E0.05851
G1 X101.144 Y118.385 E0.05918
G1 X101.144 Y116.615 E0.05887
G1 X101.336 Y114.846 E0.05918
G1 X101.714 Y113.128 E0.05851
G1 X102.284 Y111.437 E0.05935
G1 X103.033 Y109.818 E0.05933
G1 X103.942 Y108.309 E0.05859
G1 X105.013 Y106.898 E0.05892
G1 X106.237 Y105.607 E0.05917
G1 X107.586 Y104.461 E0.05887
G1 X109.054 Y103.466 E0.05898
G1 X110.624 Y102.633 E0.05911
G1 X112.27 Y101.977 E0.05893
G1 X113.984 Y101.501 E0.05917
G1 X115.722 Y101.217 E0.05857
G1 X117.5 Y101.121 E0.05922
G1 X119.278 Y101.217 E0.05922
G1 X121.016 Y101.501 E0.05857
G1 X122.73 Y101.977 E0.05917
G1 X124.376 Y102.633 E0.05893
G1 X125.946 Y103.466 E0.05911
G1 X127.414 Y104.461 E0.05898
G1 X128.763 Y105.607 E0.05887
G1 X129.987 Y106.898 E0.05917
G1 X131.058 Y108.309 E0.05892
G1 X131.967 Y109.818 E0.05859
G1 X132.716 Y111.437 E0.05933
G1 X133.286 Y113.128 E0.05935
G1 X133.664 Y114.846 E0.05851
G1 X133.856 Y116.615 E0.05918
G1 X133.856 Y118.385 E0.05887
G1 X133.664 Y120.154 E0.05918
G1 X133.286 Y121.872 E0.05851
G1 X132.716 Y123.563 E0.05935
G1 X131.968 Y125.179 E0.05923
G1 X131.058 Y126.691 E0.05869
G1 X129.987 Y128.102 E0.05892
G1 X128.763 Y129.393 E0.05917
G1 X127.414 Y130.539 E0.05887
G1 X125.946 Y131.534 E0.05898
G1 X124.376 Y132.367 E0.05911
G1 X122.73 Y133.023 E0.05893
G1 X121.016 Y133.499 E0.05917
G1 X119.278 Y133.783 E0.05857
G1 X117.5 Y133.879 E0.05922
G0 F7500 X117.5 Y133.439
G0 X117.5 Y133.087
;TYPE:SKIN
G1 F1200 X115.81 Y132.996 E0.05629
G1 X114.148 Y132.725 E0.05601
G1 X112.525 Y132.274 E0.05603
G1 X110.957 Y131.649 E0.05614
G1 X109.461 Y130.855 E0.05633
G1 X108.063 Y129.908 E0.05616
G1 X106.784 Y128.822 E0.05581
G1 X105.615 Y127.59 E0.05649
G1 X104.597 Y126.246 E0.05608
G1 X103.732 Y124.81 E0.05576
G1 X103.021 Y123.274 E0.0563
