;FLAVOR:Marlin
;TIME:6781
;Filament used: 5.26383m
;Layer height: 0.2
;MINX:102.7
;MINY:66.2
;MINZ:0.2
;MAXX:132.3
;MAXY:78.8
;MAXZ:90
;Generated with Cura_SteamEngine 4.7.1
M140 S50
M105
M190 S50
M104 S210
M105
M109 S210
M82 ;absolute extrusion mode
; Ender 3 Custom Start G-code
G92 E0 ; Reset Extruder
G28 ; Home all axes
G1 Z2.0 F3000 ; Move Z Axis up little to prevent scratching of Heat Bed
G1 X0.1 Y20 Z0.3 F5000.0 ; Move to start position
G1 X0.1 Y200.0 Z0.3 F1500.0 E15 ; Draw the first line
G1 X0.4 Y200.0 Z0.3 F5000.0 ; Move to side a little
G1 X0.4 Y20 Z0.3 F1500.0 E30 ; Draw the second line
G92 E0 ; Reset Extruder
G1 Z2.0 F3000 ; Move Z Axis up little to prevent scratching of Heat Bed
G1 X5 Y20 Z0.3 F5000.0 ; Move over to prevent blob squish
G92 E0
G92 E0
G1 F2700 E-5
;LAYER_COUNT:450
;LAYER:0
M107
;MESH:adhesiontest_singlepart.STL
G0 F6000 X131.9 Y78.4 Z0.2
;TYPE:WALL-INNER
G1 F2700 E0
G1 F1200 X103.1 Y78.4 E0.95789
G1 X103.1 Y66.6 E1.35036
G1 X131.9 Y66.6 E2.30825
G1 X131.9 Y78.4 E2.70072
G0 F6000 X132.3 Y78.8
;TYPE:WALL-OUTER
G1 F1200 X102.7 Y78.8 E3.68522
G1 X102.7 Y66.2 E4.1043
G1 X132.3 Y66.2 E5.0888
G1 X132.3 Y78.8 E5.50788
G0 F6000 X132.03 Y78.53
G0 X131.79 Y78.01
G0 X131.51 Y78.01
;TYPE:SKIN
G1 F1200 X103.49 Y78.01 E6.43983
G1 X103.49 Y66.99 E6.80635
G1 X131.51 Y66.99 E7.7383
G1 X131.51 Y78.01 E8.10483
G0 F6000 X131.79 Y78.01
G0 X131.79 Y67.426
G0 X131.349 Y67.426
G1 F1200 X131.072 Y67.149 E8.11786
G0 F6000 X130.506 Y67.149
G1 F1200 X131.349 Y67.992 E8.15751
G0 F6000 X131.349 Y68.558
G1 F1200 X129.94 Y67.149 E8.22379
G0 F6000 X129.375 Y67.149
G1 F1200 X131.349 Y69.123 E8.31664
G0 F6000 X131.349 Y69.689
G1 F1200 X128.809 Y67.149 E8.43611
G0 F6000 X128.243 Y67.149
G1 F1200 X131.349 Y70.255 E8.58221
G0 F6000 X131.349 Y70.82
G1 F1200 X127.678 Y67.149 E8.75488
G0 F6000 X127.112 Y67.149
G1 F1200 X131.349 Y71.386 E8.95418
G0 F6000 X131.349 Y71.952
G1 F1200 X126.546 Y67.149 E9.18009
G0 F6000 X125.98 Y67.149
G1 F1200 X131.349 Y72.518 E9.43264
G0 F6000 X131.349 Y73.083
G1 F1200 X125.415 Y67.149 E9.71175
G0 F6000 X124.849 Y67.149
G1 F1200 X131.349 Y73.649 E10.01749
G0 F6000 X131.349 Y74.215
G1 F1200 X124.283 Y67.149 E10.34986
G0 F6000 X123.718 Y67.149
G1 F1200 X131.349 Y74.78 E10.70879
G0 F6000 X131.349 Y75.346
G1 F1200 X123.152 Y67.149 E11.09436
G0 F6000 X122.586 Y67.149
G1 F1200 X131.349 Y75.912 E11.50654
G0 F6000 X131.349 Y76.477
G1 F1200 X122.021 Y67.149 E11.9453
G0 F6000 X121.455 Y67.149
G1 F1200 X131.349 Y77.043 E12.41068
G0 F6000 X131.349 Y77.609
G1 F1200 X120.889 Y67.149 E12.90269
G0 F6000 X120.324 Y67.149
G1 F1200 X131.024 Y77.849 E13.40599
G0 F6000 X130.458 Y77.849
G1 F1200 X119.758 Y67.149 E13.90928
G0 F6000 X119.192 Y67.149
G1 F1200 X129.892 Y77.849 E14.41258
G0 F6000 X129.327 Y77.849
G1 F1200 X118.627 Y67.149 E14.91587
G0 F6000 X118.061 Y67.149
G1 F1200 X128.761 Y77.849 E15.41917
G0 F6000 X128.195 Y77.849
G1 F1200 X117.495 Y67.149 E15.92246
G0 F6000 X116.93 Y67.149
G1 F1200 X127.629 Y77.849 E16.42573
G0 F6000 X127.064 Y77.849
G1 F1200 X116.364 Y67.149 E16.92903
G0 F6000 X115.798 Y67.149
G1 F1200 X126.498 Y77.849 E17.43232
G0 F6000 X125.932 Y77.849
G1 F1200 X115.232 Y67.149 E17.93562
G0 F6000 X114.667 Y67.149
G1 F1200 X125.367 Y77.849 E18.43891
G0 F6000 X124.801 Y77.849
G1 F1200 X114.101 Y67.149 E18.94221
G0 F6000 X113.535 Y67.149
G1 F1200 X124.235 Y77.849 E19.44551
G0 F6000 X123.67 Y77.849
G1 F1200 X112.97 Y67.149 E19.9488
G0 F6000 X112.404 Y67.149
G1 F1200 X123.104 Y77.849 E20.4521
G0 F6000 X122.538 Y77.849
G1 F1200 X111.838 Y67.149 E20.95539
G0 F6000 X111.273 Y67.149
G1 F1200 X121.973 Y77.849 E21.45869
G0 F6000 X121.407 Y77.849
G1 F1200 X110.707 Y67.149 E21.96198
G0 F6000 X110.141 Y67.149
G1 F1200 X120.841 Y77.849 E22.46528
G0 F6000 X120.276 Y77.849
G1 F1200 X109.576 Y67.149 E22.96857
G0 F6000 X109.01 Y67.149
G1 F1200 X119.71 Y77.849 E23.47187
G0 F6000 X119.144 Y77.849
G1 F1200 X108.444 Y67.149 E23.97516
G0 F6000 X107.879 Y67.149
G1 F1200 X118.578 Y77.849 E24.47843
G0 F6000 X118.013 Y77.849
G1 F1200 X107.313 Y67.149 E24.98173
G0 F6000 X106.747 Y67.149
G1 F1200 X117.447 Y77.849 E25.48502
G0 F6000 X116.881 Y77.849
G1 F1200 X106.181 Y67.149 E25.98832
G0 F6000 X105.616 Y67.149
G1 F1200 X116.316 Y77.849 E26.49161
G0 F6000 X115.75 Y77.849
G1 F1200 X105.05 Y67.149 E26.99491
G0 F6000 X104.484 Y67.149
G1 F1200 X115.184 Y77.849 E27.4982
G0 F6000 X114.619 Y77.849
G1 F1200 X103.919 Y67.149 E28.0015
G0 F6000 X103.649 Y67.445
G1 F1200 X114.053 Y77.849 E28.49087
G0 F6000 X113.487 Y77.849
G1 F1200 X103.649 Y68.01 E28.95364
G0 F6000 X103.649 Y68.576
G1 F1200 X112.922 Y77.849 E29.38982
G0 F6000 X112.356 Y77.849
G1 F1200 X103.649 Y69.142 E29.79937
G0 F6000 X103.649 Y69.708
G1 F1200 X111.79 Y77.849 E30.1823
G0 F6000 X111.225 Y77.849
G1 F1200 X103.649 Y70.273 E30.53865
G0 F6000 X103.649 Y70.839
G1 F1200 X110.659 Y77.849 E30.86838
G0 F6000 X110.093 Y77.849
G1 F1200 X103.649 Y71.405 E31.17148
G0 F6000 X103.649 Y71.97
G1 F1200 X109.528 Y77.849 E31.44801
G0 F6000 X108.962 Y77.849
G1 F1200 X103.649 Y72.536 E31.69792
G0 F6000 X103.649 Y73.102
G1 F1200 X108.396 Y77.849 E31.92121
G0 F6000 X107.83 Y77.849
G1 F1200 X103.649 Y73.667 E32.11789
G0 F6000 X103.649 Y74.233
G1 F1200 X107.265 Y77.849 E32.28798
G0 F6000 X106.699 Y77.849
G1 F1200 X103.649 Y74.799 E32.43144
G0 F6000 X103.649 Y75.364
G1 F1200 X106.133 Y77.849 E32.5483
G0 F6000 X105.568 Y77.849
G1 F1200 X103.649 Y75.93 E32.63857
G0 F6000 X103.649 Y76.496
G1 F1200 X105.002 Y77.849 E32.70221
G0 F6000 X104.436 Y77.849
G1 F1200 X103.649 Y77.061 E32.73925
G0 F6000 X103.649 Y77.627
G1 F1200 X103.871 Y77.849 E32.74969
G0 F6000 X103.871 Y78.2
;MESH:NONMESH
G0 F300 X103.871 Y78.2 Z0.4
G0 F6000 X103.871 Y78.29
G0 X131.9 Y78.4
;TIME_ELAPSED:59.621577
;LAYER:1
M106 S85
;TYPE:WALL-INNER
;MESH:adhesiontest_singlepart.STL
G1 F1350 X103.1 Y78.4 E33.70758
G1 X103.1 Y66.6 E34.10005
G1 X131.9 Y66.6 E35.05794
G1 X131.9 Y78.4 E35.45041
G0 F7500 X132.3 Y78.8
;TYPE:WALL-OUTER
G1 F1350 X102.7 Y78.8 E36.43491
G1 X102.7 Y66.2 E36.85399
G1 X132.3 Y66.2 E37.83849
G1 X132.3 Y78.8 E38.25757
G0 F7500 X132.03 Y78.53
G0 X131.79 Y78.01
G0 X131.51 Y78.01
;TYPE:SKIN
G1 F1350 X103.49 Y78.01 E39.18952
G1 X103.49 Y66.99 E39.55604
G1 X131.51 Y66.99 E40.48799
G1 X131.51 Y78.01 E40.85452
G0 F7500 X130.888 Y77.849
G1 F1350 X131.349 Y77.388 E40.8762
G0 F7500 X131.349 Y76.822
G1 F1350 X130.322 Y77.849 E40.92451
G0 F7500 X129.756 Y77.849
G1 F1350 X131.349 Y76.257 E40.99942
G0 F7500 X131.349 Y75.691
G1 F1350 X129.191 Y77.849 E41.10092
G0 F7500 X128.625 Y77.849
G1 F1350 X131.349 Y75.125 E41.22905
G0 F7500 X131.349 Y74.56
G1 F1350 X128.059 Y77.849 E41.38378
G0 F7500 X127.494 Y77.849
G1 F1350 X131.349 Y73.994 E41.56511
G0 F7500 X131.349 Y73.428
G1 F1350 X126.928 Y77.849 E41.77306
G0 F7500 X126.362 Y77.849
G1 F1350 X131.349 Y72.863 E42.00761
G0 F7500 X131.349 Y72.297
G1 F1350 X125.797 Y77.849 E42.26876
G0 F7500 X125.231 Y77.849
G1 F1350 X131.349 Y71.731 E42.55653
G0 F7500 X131.349 Y71.166
G1 F1350 X124.665 Y77.849 E42.8709
G0 F7500 X124.1 Y77.849
G1 F1350 X131.349 Y70.6 E43.21187
G0 F7500 X131.349 Y70.034
G1 F1350 X123.534 Y77.849 E43.57946
G0 F7500 X122.968 Y77.849
G1 F1350 X131.349 Y69.468 E43.97368
G0 F7500 X131.349 Y68.903
G1 F1350 X122.403 Y77.849 E44.39447
G0 F7500 X121.837 Y77.849
G1 F1350 X131.349 Y68.337 E44.84189
G0 F7500 X131.349 Y67.771
G1 F1350 X121.271 Y77.849 E45.31593
G0 F7500 X120.705 Y77.849
G1 F1350 X131.349 Y67.206 E45.81656
G0 F7500 X130.84 Y67.149
G1 F1350 X120.14 Y77.849 E46.31986
G0 F7500 X119.574 Y77.849
G1 F1350 X130.274 Y67.149 E46.82315
G0 F7500 X129.708 Y67.149
G1 F1350 X119.008 Y77.849 E47.32645
G0 F7500 X118.443 Y77.849
G1 F1350 X129.143 Y67.149 E47.82974
G0 F7500 X128.577 Y67.149
G1 F1350 X117.877 Y77.849 E48.33304
G0 F7500 X117.311 Y77.849
G1 F1350 X128.011 Y67.149 E48.83633
G0 F7500 X127.446 Y67.149
G1 F1350 X116.746 Y77.849 E49.33963
G0 F7500 X116.18 Y77.849
G1 F1350 X126.88 Y67.149 E49.84293
G0 F7500 X126.314 Y67.149
G1 F1350 X115.614 Y77.849 E50.34622
G0 F7500 X115.049 Y77.849
G1 F1350 X125.749 Y67.149 E50.84952
G0 F7500 X125.183 Y67.149
G1 F1350 X114.483 Y77.849 E51.35281
G0 F7500 X113.917 Y77.849
G1 F1350 X124.617 Y67.149 E51.85611
G0 F7500 X124.051 Y67.149
G1 F1350 X113.352 Y77.849 E52.35938
G0 F7500 X112.786 Y77.849
G1 F1350 X123.486 Y67.149 E52.86267
G0 F7500 X122.92 Y67.149
G1 F1350 X112.22 Y77.849 E53.36597
G0 F7500 X111.654 Y77.849
G1 F1350 X122.354 Y67.149 E53.86926
G0 F7500 X121.789 Y67.149
G1 F1350 X111.089 Y77.849 E54.37256
G0 F7500 X110.523 Y77.849
G1 F1350 X121.223 Y67.149 E54.87585
G0 F7500 X120.657 Y67.149
G1 F1350 X109.957 Y77.849 E55.37915
G0 F7500 X109.392 Y77.849
G1 F1350 X120.092 Y67.149 E55.88244
G0 F7500 X119.526 Y67.149
G1 F1350 X108.826 Y77.849 E56.38574
G0 F7500 X108.26 Y77.849
G1 F1350 X118.96 Y67.149 E56.88903
G0 F7500 X118.395 Y67.149
G1 F1350 X107.695 Y77.849 E57.39233
G0 F7500 X107.129 Y77.849
G1 F1350 X117.829 Y67.149 E57.89562
G0 F7500 X117.263 Y67.149
G1 F1350 X106.563 Y77.849 E58.39892
G0 F7500 X105.998 Y77.849
G1 F1350 X116.698 Y67.149 E58.90222
G0 F7500 X116.132 Y67.149
G1 F1350 X105.432 Y77.849 E59.40551
G0 F7500 X104.866 Y77.849
G1 F1350 X115.566 Y67.149 E59.90881
G0 F7500 X115.001 Y67.149
G1 F1350 X104.301 Y77.849 E60.4121
G0 F7500 X103.735 Y77.849
G1 F1350 X114.435 Y67.149 E60.9154
G0 F7500 X113.869 Y67.149
G1 F1350 X103.649 Y77.37 E61.39614
G0 F7500 X103.649 Y76.804
G1 F1350 X113.303 Y67.149 E61.85026
G0 F7500 X112.738 Y67.149
G1 F1350 X103.649 Y76.238 E62.27777
G0 F7500 X103.649 Y75.673
G1 F1350 X112.172 Y67.149 E62.67869
G0 F7500 X111.606 Y67.149
G1 F1350 X103.649 Y75.107 E63.05299
G0 F7500 X103.649 Y74.541
G1 F1350 X111.041 Y67.149 E63.40069
G0 F7500 X110.475 Y67.149
G1 F1350 X103.649 Y73.976 E63.72178
G0 F7500 X103.649 Y73.41
G1 F1350 X109.909 Y67.149 E64.01626
G0 F7500 X109.344 Y67.149
G1 F1350 X103.649 Y72.844 E64.28413
G0 F7500 X103.649 Y72.279
G1 F1350 X108.778 Y67.149 E64.52541
G0 F7500 X108.212 Y67.149
G1 F1350 X103.649 Y71.713 E64.74006
G0 F7500 X103.649 Y71.147
G1 F1350 X107.647 Y67.149 E64.92812
G0 F7500 X107.081 Y67.149
G1 F1350 X103.649 Y70.581 E65.08955
G0 F7500 X103.649 Y70.016
G1 F1350 X106.515 Y67.149 E65.22438
G0 F7500 X105.95 Y67.149
G1 F1350 X103.649 Y69.45 E65.33261
G0 F7500 X103.649 Y68.884
G1 F1350 X105.384 Y67.149 E65.41422
G0 F7500 X104.818 Y67.149
G1 F1350 X103.649 Y68.319 E65.46923
G0 F7500 X103.649 Y67.753
G1 F1350 X104.252 Y67.149 E65.49762
G0 F7500 X104.252 Y66.8
G1 F2700 E60.49762
;MESH:NONMESH
G0 F300 X104.252 Y66.8 Z0.6
G0 F7500 X104.252 Y66.71
G0 X131.718 Y66.782
G0 X131.9 Y78.4
;TIME_ELAPSED:109.870868
;LAYER:2
M106 S170
;TYPE:WALL-INNER
;MESH:adhesiontest_singlepart.STL
G1 F2700 E65.49762
G1 F1500 X103.1 Y78.4 E66.45551
G1 X103.1 Y66.6 E66.84798
G1 X131.9 Y66.6 E67.80587
G1 X131.9 Y78.4 E68.19834
G0 F9000 X132.3 Y78.8
;TYPE:WALL-OUTER
G1 F1500 X102.7 Y78.8 E69.18284
G1 X102.7 Y66.2 E69.60192
G1 X132.3 Y66.2 E70.58642
G1 X132.3 Y78.8 E71.00549
G0 F9000 X132.03 Y78.53
G0 X131.79 Y78.01
G0 X131.51 Y78.01
;TYPE:SKIN
G1 F1500 X103.49 Y78.01 E71.93744
G1 X103.49 Y66.99 E72.30397
G1 X131.51 Y66.99 E73.23592
G1 X131.51 Y78.01 E73.60245
G0 F9000 X131.79 Y78.01
G0 X131.79 Y67.426
G0 X131.349 Y67.426
G1 F1500 X131.072 Y67.149 E73.61548
G0 F9000 X130.506 Y67.149
G1 F1500 X131.349 Y67.992 E73.65513
G0 F9000 X131.349 Y68.558
G1 F1500 X129.94 Y67.149 E73.7214
G0 F9000 X129.375 Y67.149
G1 F1500 X131.349 Y69.123 E73.81425
G0 F9000 X131.349 Y69.689
G1 F1500 X128.809 Y67.149 E73.93373
G0 F9000 X128.243 Y67.149
G1 F1500 X131.349 Y70.255 E74.07982
G0 F9000 X131.349 Y70.82
G1 F1500 X127.678 Y67.149 E74.2525
G0 F9000 X127.112 Y67.149
G1 F1500 X131.349 Y71.386 E74.45179
G0 F9000 X131.349 Y71.952
G1 F1500 X126.546 Y67.149 E74.67771
G0 F9000 X125.98 Y67.149
G1 F1500 X131.349 Y72.518 E74.93025
G0 F9000 X131.349 Y73.083
G1 F1500 X125.415 Y67.149 E75.20937
G0 F9000 X124.849 Y67.149
G1 F1500 X131.349 Y73.649 E75.51511
G0 F9000 X131.349 Y74.215
G1 F1500 X124.283 Y67.149 E75.84747
G0 F9000 X123.718 Y67.149
G1 F1500 X131.349 Y74.78 E76.20641
G0 F9000 X131.349 Y75.346
G1 F1500 X123.152 Y67.149 E76.59197
G0 F9000 X122.586 Y67.149
G1 F1500 X131.349 Y75.912 E77.00416
G0 F9000 X131.349 Y76.477
G1 F1500 X122.021 Y67.149 E77.44292
G0 F9000 X121.455 Y67.149
G1 F1500 X131.349 Y77.043 E77.9083
G0 F9000 X131.349 Y77.609
G1 F1500 X120.889 Y67.149 E78.40031
G0 F9000 X120.324 Y67.149
G1 F1500 X131.024 Y77.849 E78.9036
G0 F9000 X130.458 Y77.849
G1 F1500 X119.758 Y67.149 E79.4069
G0 F9000 X119.192 Y67.149
G1 F1500 X129.892 Y77.849 E79.91019
G0 F9000 X129.327 Y77.849
G1 F1500 X118.627 Y67.149 E80.41349
G0 F9000 X118.061 Y67.149
G1 F1500 X128.761 Y77.849 E80.91678
G0 F9000 X128.195 Y77.849
G1 F1500 X117.495 Y67.149 E81.42008
G0 F9000 X116.93 Y67.149
G1 F1500 X127.629 Y77.849 E81.92335
G0 F9000 X127.064 Y77.849
G1 F1500 X116.364 Y67.149 E82.42665
G0 F9000 X115.798 Y67.149
G1 F1500 X126.498 Y77.849 E82.92994
G0 F9000 X125.932 Y77.849
G1 F1500 X115.232 Y67.149 E83.43324
G0 F9000 X114.667 Y67.149
G1 F1500 X125.367 Y77.849 E83.93653
G0 F9000 X124.801 Y77.849
G1 F1500 X114.101 Y67.149 E84.43983
G0 F9000 X113.535 Y67.149
G1 F1500 X124.235 Y77.849 E84.94312
G0 F9000 X123.67 Y77.849
G1 F1500 X112.97 Y67.149 E85.44642
G0 F9000 X112.404 Y67.149
G1 F1500 X123.104 Y77.849 E85.94971
G0 F9000 X122.538 Y77.849
G1 F1500 X111.838 Y67.149 E86.45301
G0 F9000 X111.273 Y67.149
G1 F1500 X121.973 Y77.849 E86.9563
G0 F9000 X121.407 Y77.849
G1 F1500 X110.707 Y67.149 E87.4596
G0 F9000 X110.141 Y67.149
G1 F1500 X120.841 Y77.849 E87.96289
G0 F9000 X120.276 Y77.849
G1 F1500 X109.576 Y67.149 E88.46619
G0 F9000 X109.01 Y67.149
G1 F1500 X119.71 Y77.849 E88.96948
G0 F9000 X119.144 Y77.849
G1 F1500 X108.444 Y67.149 E89.47278
G0 F9000 X107.879 Y67.149
G1 F1500 X118.578 Y77.849 E89.97605
G0 F9000 X118.013 Y77.849
G1 F1500 X107.313 Y67.149 E90.47935
G0 F9000 X106.747 Y67.149
G1 F1500 X117.447 Y77.849 E90.98264
G0 F9000 X116.881 Y77.849
G1 F1500 X106.181 Y67.149 E91.48594
G0 F9000 X105.616 Y67.149
G1 F1500 X116.316 Y77.849 E91.98923
G0 F9000 X115.75 Y77.849
G1 F1500 X105.05 Y67.149 E92.49253
G0 F9000 X104.484 Y67.149
G1 F1500 X115.184 Y77.849 E92.99582
G0 F9000 X114.619 Y77.849
G1 F1500 X103.919 Y67.149 E93.49912
G0 F9000 X103.649 Y67.445
G1 F1500 X114.053 Y77.849 E93.98849
G0 F9000 X113.487 Y77.849
G1 F1500 X103.649 Y68.01 E94.45126
G0 F9000 X103.649 Y68.576
G1 F1500 X112.922 Y77.849 E94.88744
G0 F9000 X112.356 Y77.849
G1 F1500 X103.649 Y69.142 E95.29699
G0 F9000 X103.649 Y69.708
G1 F1500 X111.79 Y77.849 E95.67991
G0 F9000 X111.225 Y77.849
G1 F1500 X103.649 Y70.273 E96.03627
G0 F9000 X103.649 Y70.839
G1 F1500 X110.659 Y77.849 E96.36599
G0 F9000 X110.093 Y77.849
G1 F1500 X103.649 Y71.405 E96.6691
G0 F9000 X103.649 Y71.97
G1 F1500 X109.528 Y77.849 E96.94563
G0 F9000 X108.962 Y77.849
G1 F1500 X103.649 Y72.536 E97.19554
G0 F9000 X103.649 Y73.102
G1 F1500 X108.396 Y77.849 E97.41882
G0 F9000 X107.83 Y77.849
G1 F1500 X103.649 Y73.667 E97.61551
G0 F9000 X103.649 Y74.233
G1 F1500 X107.265 Y77.849 E97.78559
G0 F9000 X106.699 Y77.849
G1 F1500 X103.649 Y74.799 E97.92905
G0 F9000 X103.649 Y75.364
G1 F1500 X106.133 Y77.849 E98.04592
G0 F9000 X105.568 Y77.849
G1 F1500 X103.649 Y75.93 E98.13618
G0 F9000 X103.649 Y76.496
G1 F1500 X105.002 Y77.849 E98.19982
G0 F9000 X104.436 Y77.849
G1 F1500 X103.649 Y77.061 E98.23686
G0 F9000 X103.649 Y77.627
G1 F1500 X103.871 Y77.849 E98.24731
G0 F9000 X103.871 Y78.2
;MESH:NONMESH
G0 F300 X103.871 Y78.2 Z0.8
G0 F9000 X103.871 Y78.29
G0 X131.9 Y78.4
;TIME_ELAPSED:156.214316
;LAYER:3
M106 S255
;TYPE:WALL-INNER
;MESH:adhesiontest_singlepart.STL
G1 F1500 X103.1 Y78.4 E99.2052
G1 X103.1 Y66.6 E99.59767
G1 X131.9 Y66.6 E100.55556
G1 X131.9 Y78.4 E100.94803
G0 F9000 X132.3 Y78.8
;TYPE:WALL-OUTER
G1 F1500 X102.7 Y78.8 E101.93253
G1 X102.7 Y66.2 E102.35161
G1 X132.3 Y66.2 E103.33611
G1 X132.3 Y78.8 E103.75519
G0 F9000 X132.03 Y78.53
G0 X131.79 Y78.01
G0 X131.51 Y78.01
;TYPE:SKIN
G1 F1500 X103.49 Y78.01 E104.68713
G1 X103.49 Y66.99 E105.05366
G1 X131.51 Y66.99 E105.98561
G1 X131.51 Y78.01 E106.35214
G0 F9000 X130.888 Y77.849
G1 F1500 X131.349 Y77.388 E106.37382
