;FLAVOR:Marlin
;TIME:1031
;Filament used: 0.621844m
;Layer height: 0.2
;MINX:99
;MINY:99
;MINZ:0.2
;MAXX:136
;MAXY:136
;MAXZ:15
;Generated with Cura_SteamEngine 4.7.1
M140 S50
M105
M190 S50
M104 S200
M105
M109 S200
M82 ;absolute extrusion mode
; Ender 3 Custom Start G-code
G92 E0 ; Reset Extruder
G28 ; Home all axes
G1 Z2.0 F3000 ; Move Z Axis up little to prevent scratching of Heat Bed
G1 X0.1 Y20 Z0.3 F5000.0 ; Move to start position
G1 X0.1 Y200.0 Z0.3 F1500.0 E15 ; Draw the first line
G1 X0.4 Y200.0 Z0.3 F5000.0 ; Move to side a little
G1 X0.4 Y20 Z0.3 F1500.0 E30 ; Draw the second line
G92 E0 ; Reset Extruder
G1 Z2.0 F3000 ; Move Z Axis up little to prevent scratching of Heat Bed
G1 X5 Y20 Z0.3 F5000.0 ; Move over to prevent blob squish
M83 ;relative extrusion mode
G1 F2700 E-5
;LAYER_COUNT:75
;LAYER:0
M107
G0 F6000 X102.198 Y102.264 Z0.2
;TYPE:SKIRT
G1 F2700 E5
G1 F1200 X102.886 Y101.627 E0.03119
G1 X103.626 Y101.051 E0.03119
G1 X104.412 Y100.539 E0.0312
G1 X105.239 Y100.097 E0.03119
G1 X106.101 Y99.727 E0.0312
G1 X106.991 Y99.431 E0.0312
G1 X107.903 Y99.213 E0.03119
G1 X108.83 Y99.072 E0.03119
G1 X109.701 Y99.013 E0.02904
G1 X110.022 Y99.004 E0.01068
G1 X110.33 Y99 E0.01024
G1 X124.451 Y99.001 E0.46967
G1 X125.149 Y99.011 E0.02322
G1 X126.085 Y99.065 E0.03118
G1 X127.013 Y99.197 E0.03118
G1 X127.927 Y99.409 E0.03121
G1 X128.819 Y99.698 E0.03119
G1 X129.684 Y100.061 E0.0312
G1 X130.514 Y100.497 E0.03118
G1 X131.305 Y101.002 E0.03121
G1 X132.049 Y101.573 E0.03119
G1 X132.742 Y102.205 E0.03119
G1 X133.379 Y102.893 E0.03119
G1 X133.954 Y103.634 E0.0312
G1 X134.465 Y104.42 E0.03118
G1 X134.907 Y105.248 E0.03122
G1 X135.276 Y106.11 E0.03119
G1 X135.571 Y107 E0.03119
G1 X135.789 Y107.912 E0.03119
G1 X135.929 Y108.84 E0.03121
G1 X135.987 Y109.701 E0.0287
G1 X135.996 Y110.021 E0.01065
G1 X136 Y110.33 E0.01028
G1 X135.999 Y124.4 E0.46797
G1 X135.99 Y125.127 E0.02418
G1 X135.939 Y126.064 E0.03121
G1 X135.807 Y126.992 E0.03118
G1 X135.598 Y127.906 E0.03118
G1 X135.311 Y128.799 E0.0312
G1 X134.949 Y129.665 E0.03122
G1 X134.515 Y130.496 E0.03118
G1 X134.011 Y131.287 E0.0312
G1 X133.442 Y132.032 E0.03118
G1 X132.811 Y132.727 E0.03122
G1 X132.124 Y133.365 E0.03118
G1 X131.385 Y133.942 E0.03118
G1 X130.599 Y134.454 E0.0312
G1 X129.773 Y134.897 E0.03117
G1 X128.911 Y135.269 E0.03123
G1 X128.022 Y135.565 E0.03116
G1 X127.11 Y135.785 E0.0312
G1 X126.183 Y135.926 E0.03119
G1 X125.299 Y135.987 E0.02947
G1 X124.978 Y135.996 E0.01068
G1 X124.67 Y136 E0.01024
G1 X110.565 Y135.999 E0.46913
G1 X109.867 Y135.99 E0.02322
G1 X108.931 Y135.938 E0.03118
G1 X108.002 Y135.806 E0.03121
G1 X107.088 Y135.596 E0.03119
G1 X106.195 Y135.309 E0.0312
G1 X105.33 Y134.946 E0.0312
G1 X104.499 Y134.512 E0.03118
G1 X103.708 Y134.008 E0.0312
G1 X102.963 Y133.438 E0.0312
G1 X102.269 Y132.807 E0.0312
G1 X101.632 Y132.12 E0.03116
G1 X101.055 Y131.38 E0.03121
G1 X100.543 Y130.594 E0.0312
G1 X100.1 Y129.767 E0.0312
G1 X99.729 Y128.906 E0.03118
G1 X99.433 Y128.016 E0.0312
G1 X99.214 Y127.104 E0.0312
G1 X99.073 Y126.177 E0.03119
G1 X99.013 Y125.288 E0.02964
G1 X99.004 Y124.955 E0.01108
G1 X99 Y124.658 E0.00988
G1 X99.001 Y110.525 E0.47007
G1 X99.01 Y109.86 E0.02212
G1 X99.063 Y108.924 E0.03118
G1 X99.195 Y107.995 E0.03121
G1 X99.406 Y107.081 E0.0312
G1 X99.694 Y106.189 E0.03118
G1 X100.057 Y105.324 E0.0312
G1 X100.492 Y104.493 E0.0312
G1 X100.996 Y103.703 E0.03117
G1 X101.566 Y102.958 E0.0312
G1 X102.198 Y102.264 E0.03122
G0 F6000 X102.589 Y102.439
G1 F1200 X103.274 Y101.823 E0.03064
G1 X104.01 Y101.27 E0.03062
G1 X104.791 Y100.782 E0.03063
G1 X105.611 Y100.364 E0.03061
G1 X106.465 Y100.019 E0.03063
G1 X107.345 Y99.749 E0.03062
G1 X108.245 Y99.557 E0.03061
G1 X109.159 Y99.443 E0.03064
G1 X109.712 Y99.413 E0.01842
G1 X110.033 Y99.404 E0.01068
G1 X110.33 Y99.4 E0.00988
G1 X124.293 Y99.4 E0.46441
G1 X125.143 Y99.411 E0.02827
G1 X126.062 Y99.464 E0.03062
G1 X126.973 Y99.597 E0.03062
G1 X127.869 Y99.808 E0.03062
G1 X128.743 Y100.096 E0.03061
G1 X129.59 Y100.459 E0.03065
G1 X130.401 Y100.894 E0.03061
G1 X131.171 Y101.398 E0.03061
G1 X131.895 Y101.967 E0.03063
G1 X132.567 Y102.597 E0.03064
G1 X133.182 Y103.282 E0.03062
G1 X133.735 Y104.018 E0.03062
G1 X134.222 Y104.799 E0.03061
G1 X134.639 Y105.62 E0.03063
G1 X134.984 Y106.474 E0.03063
G1 X135.253 Y107.354 E0.03061
G1 X135.445 Y108.255 E0.03064
G1 X135.558 Y109.168 E0.0306
G1 X135.587 Y109.712 E0.01812
G1 X135.596 Y110.032 E0.01065
G1 X135.6 Y110.33 E0.00991
G1 X135.599 Y124.395 E0.4678
G1 X135.59 Y125.122 E0.02418
G1 X135.539 Y126.041 E0.03061
G1 X135.408 Y126.953 E0.03064
G1 X135.198 Y127.849 E0.03061
G1 X134.912 Y128.724 E0.03062
G1 X134.551 Y129.571 E0.03062
G1 X134.117 Y130.383 E0.03062
G1 X133.615 Y131.155 E0.03063
G1 X133.047 Y131.88 E0.03063
G1 X132.419 Y132.553 E0.03062
G1 X131.735 Y133.169 E0.03062
G1 X131 Y133.723 E0.03061
G1 X130.22 Y134.212 E0.03062
G1 X129.4 Y134.631 E0.03063
G1 X128.547 Y134.977 E0.03062
G1 X127.667 Y135.248 E0.03063
G1 X126.767 Y135.441 E0.03061
G1 X125.853 Y135.556 E0.03064
G1 X125.288 Y135.587 E0.01882
G1 X124.967 Y135.596 E0.01068
G1 X124.67 Y135.6 E0.00988
G1 X110.57 Y135.599 E0.46897
G1 X109.872 Y135.59 E0.02322
G1 X108.953 Y135.538 E0.03061
G1 X108.042 Y135.407 E0.03061
G1 X107.146 Y135.197 E0.03061
G1 X106.271 Y134.91 E0.03063
G1 X105.424 Y134.548 E0.03064
G1 X104.612 Y134.114 E0.03062
G1 X103.841 Y133.612 E0.0306
G1 X103.116 Y133.044 E0.03063
G1 X102.443 Y132.415 E0.03064
G1 X101.828 Y131.731 E0.03059
G1 X101.274 Y130.996 E0.03061
G1 X100.786 Y130.215 E0.03063
G1 X100.367 Y129.395 E0.03063
G1 X100.021 Y128.542 E0.03062
G1 X99.751 Y127.662 E0.03062
G1 X99.558 Y126.761 E0.03065
G1 X99.444 Y125.848 E0.0306
G1 X99.413 Y125.277 E0.01902
G1 X99.404 Y124.944 E0.01108
G1 X99.4 Y124.658 E0.00951
G1 X99.401 Y110.531 E0.46987
G1 X99.41 Y109.866 E0.02212
G1 X99.462 Y108.946 E0.03065
G1 X99.594 Y108.035 E0.03062
G1 X99.805 Y107.139 E0.03062
G1 X100.092 Y106.264 E0.03063
G1 X100.455 Y105.418 E0.03062
G1 X100.889 Y104.606 E0.03062
G1 X101.392 Y103.835 E0.03062
G1 X101.961 Y103.111 E0.03063
G1 X102.589 Y102.439 E0.03059
G0 F6000 X102.981 Y102.617
G1 F1200 X103.662 Y102.024 E0.03003
G1 X104.394 Y101.494 E0.03006
G1 X105.169 Y101.031 E0.03003
G1 X105.982 Y100.638 E0.03003
G1 X106.827 Y100.318 E0.03005
G1 X107.696 Y100.075 E0.03001
G1 X108.584 Y99.909 E0.03005
G1 X109.723 Y99.813 E0.03802
G1 X110.044 Y99.804 E0.01068
G1 X110.33 Y99.8 E0.00951
G1 X124.293 Y99.8 E0.46441
G1 X125.137 Y99.811 E0.02807
G1 X126.039 Y99.864 E0.03005
G1 X126.932 Y99.996 E0.03002
G1 X127.81 Y100.207 E0.03003
G1 X128.666 Y100.495 E0.03004
G1 X129.493 Y100.857 E0.03003
G1 X130.285 Y101.292 E0.03005
G1 X131.036 Y101.794 E0.03004
G1 X131.739 Y102.361 E0.03004
G1 X132.389 Y102.988 E0.03004
G1 X132.981 Y103.67 E0.03004
G1 X133.511 Y104.401 E0.03003
G1 X133.973 Y105.177 E0.03004
G1 X134.366 Y105.99 E0.03003
G1 X134.684 Y106.835 E0.03003
G1 X134.927 Y107.705 E0.03004
G1 X135.092 Y108.593 E0.03004
G1 X135.187 Y109.723 E0.03772
G1 X135.196 Y110.043 E0.01065
G1 X135.2 Y110.33 E0.00955
G1 X135.199 Y124.39 E0.46764
G1 X135.19 Y125.117 E0.02418
G1 X135.139 Y126.019 E0.03005
G1 X135.008 Y126.913 E0.03005
G1 X134.799 Y127.791 E0.03002
G1 X134.513 Y128.648 E0.03005
G1 X134.152 Y129.476 E0.03004
G1 X133.72 Y130.268 E0.03001
G1 X133.219 Y131.02 E0.03005
G1 X132.653 Y131.724 E0.03004
G1 X132.028 Y132.375 E0.03002
G1 X131.347 Y132.969 E0.03006
G1 X130.616 Y133.5 E0.03005
G1 X129.842 Y133.964 E0.03001
G1 X129.029 Y134.358 E0.03005
G1 X128.185 Y134.678 E0.03002
G1 X127.315 Y134.923 E0.03006
G1 X126.428 Y135.089 E0.03001
G1 X125.277 Y135.187 E0.03842
G1 X124.956 Y135.196 E0.01068
G1 X124.67 Y135.2 E0.00951
G1 X110.575 Y135.199 E0.4688
G1 X109.877 Y135.19 E0.02322
G1 X108.976 Y135.139 E0.03002
G1 X108.082 Y135.007 E0.03006
G1 X107.204 Y134.798 E0.03002
G1 X106.347 Y134.511 E0.03006
G1 X105.52 Y134.15 E0.03001
G1 X104.727 Y133.717 E0.03005
G1 X103.976 Y133.216 E0.03003
G1 X103.272 Y132.65 E0.03004
G1 X102.621 Y132.024 E0.03004
G1 X102.028 Y131.343 E0.03003
G1 X101.498 Y130.612 E0.03003
G1 X101.034 Y129.837 E0.03004
G1 X100.64 Y129.024 E0.03005
G1 X100.32 Y128.18 E0.03002
G1 X100.076 Y127.31 E0.03005
G1 X99.91 Y126.422 E0.03005
G1 X99.813 Y125.267 E0.03855
G1 X99.804 Y124.934 E0.01108
G1 X99.8 Y124.658 E0.00918
G1 X99.801 Y110.536 E0.4697
G1 X99.81 Y109.871 E0.02212
G1 X99.862 Y108.969 E0.03005
G1 X99.994 Y108.076 E0.03002
G1 X100.204 Y107.198 E0.03003
G1 X100.491 Y106.341 E0.03006
G1 X100.853 Y105.514 E0.03003
G1 X101.286 Y104.722 E0.03002
G1 X101.788 Y103.971 E0.03004
G1 X102.355 Y103.267 E0.03007
G1 X102.981 Y102.617 E0.03001
G1 F2700 E-5
;MESH:CE3_cube.3mf
G0 F6000 X110.414 Y109.335
G0 X110.414 Y110.414
G0 X124.218 Y110.782
G0 X124.4 Y124.4
;TYPE:WALL-INNER
G1 F2700 E5
G1 F1200 X110.6 Y124.4 E0.45899
G1 X110.6 Y110.6 E0.45899
G1 X124.4 Y110.6 E0.45899
G1 X124.4 Y124.4 E0.45899
G0 F6000 X124.8 Y124.8
;TYPE:WALL-OUTER
G1 F1200 X110.2 Y124.8 E0.4856
G1 X110.2 Y110.2 E0.4856
G1 X124.8 Y110.2 E0.4856
G1 X124.8 Y124.8 E0.4856
G0 F6000 X124.53 Y124.53
G0 X124.29 Y124.01
G0 X124.01 Y124.01
;TYPE:SKIN
G1 F1200 X110.99 Y124.01 E0.43305
G1 X110.99 Y110.99 E0.43305
G1 X124.01 Y110.99 E0.43305
G1 X124.01 Y124.01 E0.43305
G0 F6000 X124.29 Y124.01
G0 X124.29 Y111.404
G0 X123.849 Y111.404
G1 F1200 X123.595 Y111.15 E0.01195
G0 F6000 X123.029 Y111.15
G1 F1200 X123.849 Y111.97 E0.03857
G0 F6000 X123.849 Y112.536
G1 F1200 X122.463 Y111.15 E0.06519
G0 F6000 X121.898 Y111.15
G1 F1200 X123.849 Y113.101 E0.09177
G0 F6000 X123.849 Y113.667
G1 F1200 X121.332 Y111.15 E0.11839
G0 F6000 X120.766 Y111.15
G1 F1200 X123.849 Y114.233 E0.14501
G0 F6000 X123.849 Y114.798
G1 F1200 X120.201 Y111.15 E0.17159
G0 F6000 X119.635 Y111.15
G1 F1200 X123.849 Y115.364 E0.19821
G0 F6000 X123.849 Y115.93
G1 F1200 X119.069 Y111.15 E0.22484
G0 F6000 X118.504 Y111.15
G1 F1200 X123.849 Y116.495 E0.25141
G0 F6000 X123.849 Y117.061
G1 F1200 X117.938 Y111.15 E0.27804
G0 F6000 X117.372 Y111.15
G1 F1200 X123.849 Y117.627 E0.30466
G0 F6000 X123.849 Y118.192
G1 F1200 X116.806 Y111.15 E0.33126
G0 F6000 X116.241 Y111.15
G1 F1200 X123.849 Y118.758 E0.35786
G0 F6000 X123.849 Y119.324
G1 F1200 X115.675 Y111.15 E0.38448
G0 F6000 X115.109 Y111.15
G1 F1200 X123.849 Y119.889 E0.41108
G0 F6000 X123.849 Y120.455
G1 F1200 X114.544 Y111.15 E0.43768
G0 F6000 X113.978 Y111.15
G1 F1200 X123.849 Y121.021 E0.4643
G0 F6000 X123.849 Y121.587
G1 F1200 X113.412 Y111.15 E0.49092
G0 F6000 X112.847 Y111.15
G1 F1200 X123.849 Y122.152 E0.5175
G0 F6000 X123.849 Y122.718
G1 F1200 X112.281 Y111.15 E0.54412
G0 F6000 X111.715 Y111.15
G1 F1200 X123.849 Y123.284 E0.57075
G0 F6000 X123.849 Y123.849
G1 F1200 X111.149 Y111.149 E0.59737
G0 F6000 X111.149 Y111.715
G1 F1200 X123.284 Y123.849 E0.57077
G0 F6000 X122.718 Y123.849
G1 F1200 X111.149 Y112.28 E0.54417
G0 F6000 X111.149 Y112.846
G1 F1200 X122.152 Y123.849 E0.51755
G0 F6000 X121.587 Y123.849
G1 F1200 X111.149 Y113.412 E0.49095
G0 F6000 X111.149 Y113.977
G1 F1200 X121.021 Y123.849 E0.46435
G0 F6000 X120.455 Y123.849
G1 F1200 X111.149 Y114.543 E0.43773
G0 F6000 X111.149 Y115.109
G1 F1200 X119.889 Y123.849 E0.4111
G0 F6000 X119.324 Y123.849
G1 F1200 X111.149 Y115.674 E0.38453
G0 F6000 X111.149 Y116.24
G1 F1200 X118.758 Y123.849 E0.3579
G0 F6000 X118.192 Y123.849
G1 F1200 X111.149 Y116.806 E0.33128
G0 F6000 X111.149 Y117.371
G1 F1200 X117.627 Y123.849 E0.30471
G0 F6000 X117.061 Y123.849
G1 F1200 X111.149 Y117.937 E0.27808
G0 F6000 X111.149 Y118.503
G1 F1200 X116.495 Y123.849 E0.25146
G0 F6000 X115.93 Y123.849
G1 F1200 X111.149 Y119.069 E0.22486
G0 F6000 X111.149 Y119.634
G1 F1200 X115.364 Y123.849 E0.19826
G0 F6000 X114.798 Y123.849
G1 F1200 X111.149 Y120.2 E0.17164
G0 F6000 X111.149 Y120.766
G1 F1200 X114.233 Y123.849 E0.14504
G0 F6000 X113.667 Y123.849
G1 F1200 X111.149 Y121.331 E0.11844
G0 F6000 X111.149 Y121.897
G1 F1200 X113.101 Y123.849 E0.09182
G0 F6000 X112.536 Y123.849
G1 F1200 X111.149 Y122.463 E0.06522
G0 F6000 X111.149 Y123.028
G1 F1200 X111.97 Y123.849 E0.03862
G0 F6000 X111.404 Y123.849
G1 F1200 X111.149 Y123.594 E0.01199
G0 F6000 X110.8 Y123.594
;MESH:NONMESH
G0 F300 X110.8 Y123.594 Z0.4
G0 F6000 X110.71 Y123.594
G0 X110.782 Y124.218
G0 X124.4 Y124.4
;TIME_ELAPSED:57.553485
;LAYER:1
M106 S85
;TYPE:WALL-INNER
;MESH:CE3_cube.3mf
G1 F1350 X110.6 Y124.4 E0.45899
G1 X110.6 Y110.6 E0.45899
G1 X124.4 Y110.6 E0.45899
G1 X124.4 Y124.4 E0.45899
G0 F7500 X124.8 Y124.8
;TYPE:WALL-OUTER
G1 F1350 X110.2 Y124.8 E0.4856
G1 X110.2 Y110.2 E0.4856
G1 X124.8 Y110.2 E0.4856
G1 X124.8 Y124.8 E0.4856
G0 F7500 X124.53 Y124.53
G0 X124.29 Y124.01
G0 X124.01 Y124.01
;TYPE:SKIN
G1 F1350 X110.99 Y124.01 E0.43305
G1 X110.99 Y110.99 E0.43305
G1 X124.01 Y110.99 E0.43305
G1 X124.01 Y124.01 E0.43305
G0 F7500 X123.354 Y123.849
G1 F1350 X123.849 Y123.354 E0.02328
G0 F7500 X123.849 Y122.789
G1 F1350 X122.789 Y123.849 E0.04986
G0 F7500 X122.223 Y123.849
G1 F1350 X123.849 Y122.223 E0.07648
G0 F7500 X123.849 Y121.657
G1 F1350 X121.657 Y123.849 E0.1031
G0 F7500 X121.092 Y123.849
G1 F1350 X123.849 Y121.092 E0.12968
G0 F7500 X123.849 Y120.526
G1 F1350 X120.526 Y123.849 E0.1563
G0 F7500 X119.96 Y123.849
G1 F1350 X123.849 Y119.96 E0.18293
G0 F7500 X123.849 Y119.394
G1 F1350 X119.394 Y123.849 E0.20955
G0 F7500 X118.829 Y123.849
G1 F1350 X123.849 Y118.829 E0.23613
G0 F7500 X123.849 Y118.263
G1 F1350 X118.263 Y123.849 E0.26275
G0 F7500 X117.697 Y123.849
G1 F1350 X123.849 Y117.697 E0.28937
G0 F7500 X123.849 Y117.132
G1 F1350 X117.132 Y123.849 E0.31595
G0 F7500 X116.566 Y123.849
G1 F1350 X123.849 Y116.566 E0.34257
G0 F7500 X123.849 Y116
G1 F1350 X116 Y123.849 E0.36919
G0 F7500 X115.435 Y123.849
G1 F1350 X123.849 Y115.435 E0.39577
G0 F7500 X123.849 Y114.869
G1 F1350 X114.869 Y123.849 E0.42239
G0 F7500 X114.303 Y123.849
G1 F1350 X123.849 Y114.303 E0.44901
G0 F7500 X123.849 Y113.738
G1 F1350 X113.738 Y123.849 E0.47559
G0 F7500 X113.172 Y123.849
G1 F1350 X123.849 Y113.172 E0.50221
G0 F7500 X123.849 Y112.606
G1 F1350 X112.606 Y123.849 E0.52884
G0 F7500 X112.041 Y123.849
G1 F1350 X123.849 Y112.041 E0.55541
G0 F7500 X123.849 Y111.475
G1 F1350 X111.475 Y123.849 E0.58204
G0 F7500 X111.15 Y123.609
G1 F1350 X123.61 Y111.149 E0.58608
G0 F7500 X123.044 Y111.149
G1 F1350 X111.15 Y123.043 E0.55946
G0 F7500 X111.15 Y122.477
G1 F1350 X122.478 Y111.149 E0.53283
G0 F7500 X121.912 Y111.149
G1 F1350 X111.15 Y121.912 E0.50624
G0 F7500 X111.15 Y121.346
G1 F1350 X121.347 Y111.149 E0.47964
G0 F7500 X120.781 Y111.149
G1 F1350 X111.15 Y120.78 E0.45301
G0 F7500 X111.15 Y120.215
G1 F1350 X120.215 Y111.149 E0.42641
G0 F7500 X119.65 Y111.149
G1 F1350 X111.15 Y119.649 E0.39981
G0 F7500 X111.15 Y119.083
G1 F1350 X119.084 Y111.149 E0.37319
G0 F7500 X118.518 Y111.149
G1 F1350 X111.15 Y118.518 E0.34659
G0 F7500 X111.15 Y117.952
G1 F1350 X117.953 Y111.149 E0.31999
G0 F7500 X117.387 Y111.149
G1 F1350 X111.15 Y117.386 E0.29337
G0 F7500 X111.15 Y116.821
G1 F1350 X116.821 Y111.149 E0.26677
G0 F7500 X116.256 Y111.149
G1 F1350 X111.15 Y116.255 E0.24017
G0 F7500 X111.15 Y115.689
G1 F1350 X115.69 Y111.149 E0.21355
G0 F7500 X115.124 Y111.149
G1 F1350 X111.15 Y115.124 E0.18695
G0 F7500 X111.15 Y114.558
G1 F1350 X114.559 Y111.149 E0.16035
G0 F7500 X113.993 Y111.149
G1 F1350 X111.15 Y113.992 E0.13373
G0 F7500 X111.15 Y113.426
G1 F1350 X113.427 Y111.149 E0.1071
G0 F7500 X112.862 Y111.149
G1 F1350 X111.15 Y112.861 E0.08053
G0 F7500 X111.15 Y112.295
G1 F1350 X112.296 Y111.149 E0.0539
G0 F7500 X111.73 Y111.149
G1 F1350 X111.15 Y111.729 E0.02728
G0 F7500 X110.8 Y111.729
;MESH:NONMESH
G0 F300 X110.8 Y111.729 Z0.6
G0 F7500 X110.71 Y111.729
G0 X110.782 Y124.218
G0 X124.4 Y124.4
;TIME_ELAPSED:87.266589
;LAYER:2
M106 S170
;TYPE:WALL-INNER
;MESH:CE3_cube.3mf
G1 F1500 X110.6 Y124.4 E0.45899
G1 X110.6 Y110.6 E0.45899
G1 X124.4 Y110.6 E0.45899
G1 X124.4 Y124.4 E0.45899
G0 F9000 X124.8 Y124.8
;TYPE:WALL-OUTER
G1 F1500 X110.2 Y124.8 E0.4856
G1 X110.2 Y110.2 E0.4856
G1 X124.8 Y110.2 E0.4856
G1 X124.8 Y124.8 E0.4856
G0 F9000 X124.53 Y124.53
G0 X124.29 Y124.01
G0 X124.01 Y124.01
;TYPE:SKIN
G1 F1500 X110.99 Y124.01 E0.43305
G1 X110.99 Y110.99 E0.43305
