;FLAVOR:Marlin
;TIME:450
;Filament used: 0.52851m
;Layer height: 0.4
;MINX:99
;MINY:99
;MINZ:0.2
;MAXX:136
;MAXY:136
;MAXZ:9.8
;Generated with Cura_SteamEngine 4.7.1
M140 S50
M105
M190 S50
M104 S200
M105
M109 S200
M82 ;absolute extrusion mode
; Ender 3 Custom Start G-code
G92 E0 ; Reset Extruder
G28 ; Home all axes
G1 Z2.0 F3000 ; Move Z Axis up little to prevent scratching of Heat Bed
G1 X0.1 Y20 Z0.3 F5000.0 ; Move to start position
G1 X0.1 Y200.0 Z0.3 F1500.0 E15 ; Draw the first line
G1 X0.4 Y200.0 Z0.3 F5000.0 ; Move to side a little
G1 X0.4 Y20 Z0.3 F1500.0 E30 ; Draw the second line
G92 E0 ; Reset Extruder
G1 Z2.0 F3000 ; Move Z Axis up little to prevent scratching of Heat Bed
G1 X5 Y20 Z0.3 F5000.0 ; Move over to prevent blob squish
G92 E0
G92 E0
G1 F2700 E-5
;LAYER_COUNT:25
;LAYER:0
M107
G0 F6000 X102.198 Y102.264 Z0.2
;TYPE:SKIRT
G1 F2700 E0
G1 F1200 X102.886 Y101.627 E0.03119
G1 X103.626 Y101.051 E0.06237
G1 X104.412 Y100.539 E0.09357
G1 X105.239 Y100.097 E0.12476
G1 X106.101 Y99.727 E0.15596
G1 X106.991 Y99.431 E0.18716
G1 X107.903 Y99.213 E0.21835
G1 X108.83 Y99.072 E0.24953
G1 X109.701 Y99.013 E0.27857
G1 X110.022 Y99.004 E0.28925
G1 X110.33 Y99 E0.29949
G1 X124.451 Y99.001 E0.76916
G1 X125.149 Y99.011 E0.79238
G1 X126.085 Y99.065 E0.82356
G1 X127.013 Y99.197 E0.85474
G1 X127.927 Y99.409 E0.88594
G1 X128.819 Y99.698 E0.91713
G1 X129.684 Y100.061 E0.94833
G1 X130.514 Y100.497 E0.97951
G1 X131.305 Y101.002 E1.01073
G1 X132.049 Y101.573 E1.04192
G1 X132.742 Y102.205 E1.07312
G1 X133.379 Y102.893 E1.1043
G1 X133.954 Y103.634 E1.1355
G1 X134.465 Y104.42 E1.16668
G1 X134.907 Y105.248 E1.1979
G1 X135.276 Y106.11 E1.22908
G1 X135.571 Y107 E1.26027
G1 X135.789 Y107.912 E1.29146
G1 X135.929 Y108.84 E1.32267
G1 X135.987 Y109.701 E1.35137
G1 X135.996 Y110.021 E1.36202
G1 X136 Y110.33 E1.3723
G1 X135.999 Y124.4 E1.84027
G1 X135.99 Y125.127 E1.86445
G1 X135.939 Y126.064 E1.89566
G1 X135.807 Y126.992 E1.92684
G1 X135.598 Y127.906 E1.95802
G1 X135.311 Y128.799 E1.98922
G1 X134.949 Y129.665 E2.02044
G1 X134.515 Y130.496 E2.05162
G1 X134.011 Y131.287 E2.08281
G1 X133.442 Y132.032 E2.11399
G1 X132.811 Y132.727 E2.14522
G1 X132.124 Y133.365 E2.1764
G1 X131.385 Y133.942 E2.20758
G1 X130.599 Y134.454 E2.23878
G1 X129.773 Y134.897 E2.26996
G1 X128.911 Y135.269 E2.30118
G1 X128.022 Y135.565 E2.33235
G1 X127.11 Y135.785 E2.36355
G1 X126.183 Y135.926 E2.39474
G1 X125.299 Y135.987 E2.42421
G1 X124.978 Y135.996 E2.43489
G1 X124.67 Y136 E2.44513
G1 X110.565 Y135.999 E2.91427
G1 X109.867 Y135.99 E2.93749
G1 X108.931 Y135.938 E2.96867
G1 X108.002 Y135.806 E2.99988
G1 X107.088 Y135.596 E3.03107
G1 X106.195 Y135.309 E3.06226
G1 X105.33 Y134.946 E3.09347
G1 X104.499 Y134.512 E3.12465
G1 X103.708 Y134.008 E3.15584
G1 X102.963 Y133.438 E3.18704
G1 X102.269 Y132.807 E3.21824
G1 X101.632 Y132.12 E3.2494
G1 X101.055 Y131.38 E3.28061
G1 X100.543 Y130.594 E3.31181
G1 X100.1 Y129.767 E3.34301
G1 X99.729 Y128.906 E3.3742
G1 X99.433 Y128.016 E3.40539
G1 X99.214 Y127.104 E3.43659
G1 X99.073 Y126.177 E3.46777
G1 X99.013 Y125.288 E3.49741
G1 X99.004 Y124.955 E3.50849
G1 X99 Y124.658 E3.51837
G1 X99.001 Y110.525 E3.98843
G1 X99.01 Y109.86 E4.01055
G1 X99.063 Y108.924 E4.04173
G1 X99.195 Y107.995 E4.07294
G1 X99.406 Y107.081 E4.10414
G1 X99.694 Y106.189 E4.13532
G1 X100.057 Y105.324 E4.16652
G1 X100.492 Y104.493 E4.19772
G1 X100.996 Y103.703 E4.22888
G1 X101.566 Y102.958 E4.26008
G1 X102.198 Y102.264 E4.2913
G0 F6000 X102.589 Y102.439
G1 F1200 X103.274 Y101.823 E4.32194
G1 X104.01 Y101.27 E4.35256
G1 X104.791 Y100.782 E4.38319
G1 X105.611 Y100.364 E4.41381
G1 X106.465 Y100.019 E4.44444
G1 X107.345 Y99.749 E4.47506
G1 X108.245 Y99.557 E4.50566
G1 X109.159 Y99.443 E4.5363
G1 X109.712 Y99.413 E4.55472
G1 X110.033 Y99.404 E4.5654
G1 X110.33 Y99.4 E4.57528
G1 X124.293 Y99.4 E5.03969
G1 X125.143 Y99.411 E5.06796
G1 X126.062 Y99.464 E5.09858
G1 X126.973 Y99.597 E5.1292
G1 X127.869 Y99.808 E5.15982
G1 X128.743 Y100.096 E5.19042
G1 X129.59 Y100.459 E5.22107
G1 X130.401 Y100.894 E5.25168
G1 X131.171 Y101.398 E5.28229
G1 X131.895 Y101.967 E5.31292
G1 X132.567 Y102.597 E5.34356
G1 X133.182 Y103.282 E5.37417
G1 X133.735 Y104.018 E5.40479
G1 X134.222 Y104.799 E5.43541
G1 X134.639 Y105.62 E5.46603
G1 X134.984 Y106.474 E5.49667
G1 X135.253 Y107.354 E5.52727
G1 X135.445 Y108.255 E5.55791
G1 X135.558 Y109.168 E5.58851
G1 X135.587 Y109.712 E5.60663
G1 X135.596 Y110.032 E5.61728
G1 X135.6 Y110.33 E5.62719
G1 X135.599 Y124.395 E6.09499
G1 X135.59 Y125.122 E6.11918
G1 X135.539 Y126.041 E6.14979
G1 X135.408 Y126.953 E6.18043
G1 X135.198 Y127.849 E6.21104
G1 X134.912 Y128.724 E6.24166
G1 X134.551 Y129.571 E6.27228
G1 X134.117 Y130.383 E6.30291
G1 X133.615 Y131.155 E6.33353
G1 X133.047 Y131.88 E6.36417
G1 X132.419 Y132.553 E6.39478
G1 X131.735 Y133.169 E6.4254
G1 X131 Y133.723 E6.45601
G1 X130.22 Y134.212 E6.48663
G1 X129.4 Y134.631 E6.51726
G1 X128.547 Y134.977 E6.54787
G1 X127.667 Y135.248 E6.5785
G1 X126.767 Y135.441 E6.60911
G1 X125.853 Y135.556 E6.63975
G1 X125.288 Y135.587 E6.65857
G1 X124.967 Y135.596 E6.66926
G1 X124.67 Y135.6 E6.67913
G1 X110.57 Y135.599 E7.1481
G1 X109.872 Y135.59 E7.17132
G1 X108.953 Y135.538 E7.20193
G1 X108.042 Y135.407 E7.23255
G1 X107.146 Y135.197 E7.26316
G1 X106.271 Y134.91 E7.29378
G1 X105.424 Y134.548 E7.32442
G1 X104.612 Y134.114 E7.35504
G1 X103.841 Y133.612 E7.38564
G1 X103.116 Y133.044 E7.41628
G1 X102.443 Y132.415 E7.44691
G1 X101.828 Y131.731 E7.47751
G1 X101.274 Y130.996 E7.50812
G1 X100.786 Y130.215 E7.53875
G1 X100.367 Y129.395 E7.56938
G1 X100.021 Y128.542 E7.59999
G1 X99.751 Y127.662 E7.63061
G1 X99.558 Y126.761 E7.66126
G1 X99.444 Y125.848 E7.69186
G1 X99.413 Y125.277 E7.71088
G1 X99.404 Y124.944 E7.72196
G1 X99.4 Y124.658 E7.73147
G1 X99.401 Y110.531 E8.20134
G1 X99.41 Y109.866 E8.22346
G1 X99.462 Y108.946 E8.25411
G1 X99.594 Y108.035 E8.28472
G1 X99.805 Y107.139 E8.31534
G1 X100.092 Y106.264 E8.34597
G1 X100.455 Y105.418 E8.37659
G1 X100.889 Y104.606 E8.40721
G1 X101.392 Y103.835 E8.43783
G1 X101.961 Y103.111 E8.46845
G1 X102.589 Y102.439 E8.49904
G0 F6000 X102.981 Y102.617
G1 F1200 X103.662 Y102.024 E8.52908
G1 X104.394 Y101.494 E8.55914
G1 X105.169 Y101.031 E8.58916
G1 X105.982 Y100.638 E8.6192
G1 X106.827 Y100.318 E8.64925
G1 X107.696 Y100.075 E8.67926
G1 X108.584 Y99.909 E8.70931
G1 X109.723 Y99.813 E8.74733
G1 X110.044 Y99.804 E8.75801
G1 X110.33 Y99.8 E8.76752
G1 X124.293 Y99.8 E9.23193
G1 X125.137 Y99.811 E9.26001
G1 X126.039 Y99.864 E9.29006
G1 X126.932 Y99.996 E9.32008
G1 X127.81 Y100.207 E9.35012
G1 X128.666 Y100.495 E9.38015
G1 X129.493 Y100.857 E9.41018
G1 X130.285 Y101.292 E9.44023
G1 X131.036 Y101.794 E9.47028
G1 X131.739 Y102.361 E9.50032
G1 X132.389 Y102.988 E9.53036
G1 X132.981 Y103.67 E9.56039
G1 X133.511 Y104.401 E9.59042
G1 X133.973 Y105.177 E9.62046
G1 X134.366 Y105.99 E9.6505
G1 X134.684 Y106.835 E9.68053
G1 X134.927 Y107.705 E9.71057
G1 X135.092 Y108.593 E9.74061
G1 X135.187 Y109.723 E9.77833
G1 X135.196 Y110.043 E9.78897
G1 X135.2 Y110.33 E9.79852
G1 X135.199 Y124.39 E10.26616
G1 X135.19 Y125.117 E10.29034
G1 X135.139 Y126.019 E10.32039
G1 X135.008 Y126.913 E10.35044
G1 X134.799 Y127.791 E10.38046
G1 X134.513 Y128.648 E10.41051
G1 X134.152 Y129.476 E10.44055
G1 X133.72 Y130.268 E10.47056
G1 X133.219 Y131.02 E10.50061
G1 X132.653 Y131.724 E10.53066
G1 X132.028 Y132.375 E10.56067
G1 X131.347 Y132.969 E10.59073
G1 X130.616 Y133.5 E10.62078
G1 X129.842 Y133.964 E10.65079
G1 X129.029 Y134.358 E10.68084
G1 X128.185 Y134.678 E10.71086
G1 X127.315 Y134.923 E10.74092
G1 X126.428 Y135.089 E10.77094
G1 X125.277 Y135.187 E10.80936
G1 X124.956 Y135.196 E10.82004
G1 X124.67 Y135.2 E10.82955
G1 X110.575 Y135.199 E11.29835
G1 X109.877 Y135.19 E11.32157
G1 X108.976 Y135.139 E11.35159
G1 X108.082 Y135.007 E11.38164
G1 X107.204 Y134.798 E11.41166
G1 X106.347 Y134.511 E11.44172
G1 X105.52 Y134.15 E11.47174
G1 X104.727 Y133.717 E11.50179
G1 X103.976 Y133.216 E11.53181
G1 X103.272 Y132.65 E11.56186
G1 X102.621 Y132.024 E11.5919
G1 X102.028 Y131.343 E11.62193
G1 X101.498 Y130.612 E11.65196
G1 X101.034 Y129.837 E11.682
G1 X100.64 Y129.024 E11.71205
G1 X100.32 Y128.18 E11.74207
G1 X100.076 Y127.31 E11.77213
G1 X99.91 Y126.422 E11.80217
G1 X99.813 Y125.267 E11.84072
G1 X99.804 Y124.934 E11.8518
G1 X99.8 Y124.658 E11.86098
G1 X99.801 Y110.536 E12.33068
G1 X99.81 Y109.871 E12.3528
G1 X99.862 Y108.969 E12.38285
G1 X99.994 Y108.076 E12.41288
G1 X100.204 Y107.198 E12.44291
G1 X100.491 Y106.341 E12.47296
G1 X100.853 Y105.514 E12.50299
G1 X101.286 Y104.722 E12.53301
G1 X101.788 Y103.971 E12.56306
G1 X102.355 Y103.267 E12.59312
G1 X102.981 Y102.617 E12.62314
G1 F2700 E7.62314
;MESH:cube.stl
G0 F6000 X110.414 Y109.335
G0 X110.414 Y110.414
G0 X124.218 Y110.782
G0 X124.4 Y124.4
;TYPE:WALL-INNER
G1 F2700 E12.62314
G1 F1200 X110.6 Y124.4 E13.08213
G1 X110.6 Y110.6 E13.54112
G1 X124.4 Y110.6 E14.00011
G1 X124.4 Y124.4 E14.4591
G0 F6000 X124.8 Y124.8
;TYPE:WALL-OUTER
G1 F1200 X110.2 Y124.8 E14.94469
G1 X110.2 Y110.2 E15.43029
G1 X124.8 Y110.2 E15.91589
G1 X124.8 Y124.8 E16.40149
G0 F6000 X124.53 Y124.53
G0 X124.29 Y124.01
G0 X124.01 Y124.01
;TYPE:SKIN
G1 F1200 X110.99 Y124.01 E16.83454
G1 X110.99 Y110.99 E17.26758
G1 X124.01 Y110.99 E17.70063
G1 X124.01 Y124.01 E18.13368
G0 F6000 X124.29 Y124.01
G0 X124.29 Y111.404
G0 X123.849 Y111.404
G1 F1200 X123.595 Y111.15 E18.14562
G0 F6000 X123.029 Y111.15
G1 F1200 X123.849 Y111.97 E18.18419
G0 F6000 X123.849 Y112.536
G1 F1200 X122.463 Y111.15 E18.24939
G0 F6000 X121.898 Y111.15
G1 F1200 X123.849 Y113.101 E18.34116
G0 F6000 X123.849 Y113.667
G1 F1200 X121.332 Y111.15 E18.45955
G0 F6000 X120.766 Y111.15
G1 F1200 X123.849 Y114.233 E18.60456
G0 F6000 X123.849 Y114.798
G1 F1200 X120.201 Y111.15 E18.77615
G0 F6000 X119.635 Y111.15
G1 F1200 X123.849 Y115.364 E18.97437
G0 F6000 X123.849 Y115.93
G1 F1200 X119.069 Y111.15 E19.1992
G0 F6000 X118.504 Y111.15
G1 F1200 X123.849 Y116.495 E19.45062
G0 F6000 X123.849 Y117.061
G1 F1200 X117.938 Y111.15 E19.72865
G0 F6000 X117.372 Y111.15
G1 F1200 X123.849 Y117.627 E20.03331
G0 F6000 X123.849 Y118.192
G1 F1200 X116.806 Y111.15 E20.36457
G0 F6000 X116.241 Y111.15
G1 F1200 X123.849 Y118.758 E20.72242
G0 F6000 X123.849 Y119.324
G1 F1200 X115.675 Y111.15 E21.1069
G0 F6000 X115.109 Y111.15
G1 F1200 X123.849 Y119.889 E21.51798
G0 F6000 X123.849 Y120.455
G1 F1200 X114.544 Y111.15 E21.95566
G0 F6000 X113.978 Y111.15
G1 F1200 X123.849 Y121.021 E22.41996
G0 F6000 X123.849 Y121.587
G1 F1200 X113.412 Y111.15 E22.91089
G0 F6000 X112.847 Y111.15
G1 F1200 X123.849 Y122.152 E23.42839
G0 F6000 X123.849 Y122.718
G1 F1200 X112.281 Y111.15 E23.97251
G0 F6000 X111.715 Y111.15
G1 F1200 X123.849 Y123.284 E24.54326
G0 F6000 X123.849 Y123.849
G1 F1200 X111.149 Y111.149 E25.14063
G0 F6000 X111.149 Y111.715
G1 F1200 X123.284 Y123.849 E25.7114
G0 F6000 X122.718 Y123.849
G1 F1200 X111.149 Y112.28 E26.25557
G0 F6000 X111.149 Y112.846
G1 F1200 X122.152 Y123.849 E26.77311
G0 F6000 X121.587 Y123.849
G1 F1200 X111.149 Y113.412 E27.26406
G0 F6000 X111.149 Y113.977
G1 F1200 X121.021 Y123.849 E27.72841
G0 F6000 X120.455 Y123.849
G1 F1200 X111.149 Y114.543 E28.16614
G0 F6000 X111.149 Y115.109
G1 F1200 X119.889 Y123.849 E28.57724
G0 F6000 X119.324 Y123.849
G1 F1200 X111.149 Y115.674 E28.96177
G0 F6000 X111.149 Y116.24
G1 F1200 X118.758 Y123.849 E29.31967
G0 F6000 X118.192 Y123.849
G1 F1200 X111.149 Y116.806 E29.65095
G0 F6000 X111.149 Y117.371
G1 F1200 X117.627 Y123.849 E29.95566
G0 F6000 X117.061 Y123.849
G1 F1200 X111.149 Y117.937 E30.23374
G0 F6000 X111.149 Y118.503
G1 F1200 X116.495 Y123.849 E30.4852
G0 F6000 X115.93 Y123.849
G1 F1200 X111.149 Y119.069 E30.71006
G0 F6000 X111.149 Y119.634
G1 F1200 X115.364 Y123.849 E30.90832
G0 F6000 X114.798 Y123.849
G1 F1200 X111.149 Y120.2 E31.07996
G0 F6000 X111.149 Y120.766
G1 F1200 X114.233 Y123.849 E31.225
G0 F6000 X113.667 Y123.849
G1 F1200 X111.149 Y121.331 E31.34344
G0 F6000 X111.149 Y121.897
G1 F1200 X113.101 Y123.849 E31.43525
G0 F6000 X112.536 Y123.849
G1 F1200 X111.149 Y122.463 E31.50047
G0 F6000 X111.149 Y123.028
G1 F1200 X111.97 Y123.849 E31.53909
G0 F6000 X111.404 Y123.849
G1 F1200 X111.149 Y123.594 E31.55108
G0 F6000 X110.8 Y123.594
;MESH:NONMESH
G0 F300 X110.8 Y123.594 Z0.6
G0 F6000 X110.71 Y123.594
G0 X110.782 Y124.218
G0 X124.4 Y124.4
;TIME_ELAPSED:57.593485
;LAYER:1
M106 S85
;TYPE:WALL-INNER
;MESH:cube.stl
G1 F1350 X110.6 Y124.4 E32.46906
G1 X110.6 Y110.6 E33.38704
G1 X124.4 Y110.6 E34.30502
G1 X124.4 Y124.4 E35.223
G0 F7500 X124.8 Y124.8
;TYPE:WALL-OUTER
G1 F1350 X110.2 Y124.8 E36.19419
G1 X110.2 Y110.2 E37.16539
G1 X124.8 Y110.2 E38.13659
G1 X124.8 Y124.8 E39.10778
G0 F7500 X124.53 Y124.53
G0 X124.29 Y124.01
G0 X124.01 Y124.01
;TYPE:SKIN
G1 F1350 X110.99 Y124.01 E39.97388
G1 X110.99 Y110.99 E40.83997
G1 X124.01 Y110.99 E41.70606
G1 X124.01 Y124.01 E42.57216
G0 F7500 X123.354 Y123.849
G1 F1350 X123.849 Y123.354 E42.61872
G0 F7500 X123.849 Y122.789
G1 F1350 X122.789 Y123.849 E42.71844
G0 F7500 X122.223 Y123.849
G1 F1350 X123.849 Y122.223 E42.87141
G0 F7500 X123.849 Y121.657
G1 F1350 X121.657 Y123.849 E43.07762
G0 F7500 X121.092 Y123.849
G1 F1350 X123.849 Y121.092 E43.33698
G0 F7500 X123.849 Y120.526
G1 F1350 X120.526 Y123.849 E43.64959
G0 F7500 X119.96 Y123.849
G1 F1350 X123.849 Y119.96 E44.01544
G0 F7500 X123.849 Y119.394
G1 F1350 X119.394 Y123.849 E44.43454
G0 F7500 X118.829 Y123.849
G1 F1350 X123.849 Y118.829 E44.90679
G0 F7500 X123.849 Y118.263
G1 F1350 X118.263 Y123.849 E45.43229
G0 F7500 X117.697 Y123.849
G1 F1350 X123.849 Y117.697 E46.01103
G0 F7500 X123.849 Y117.132
G1 F1350 X117.132 Y123.849 E46.64292
G0 F7500 X116.566 Y123.849
G1 F1350 X123.849 Y116.566 E47.32806
G0 F7500 X123.849 Y116
G1 F1350 X116 Y123.849 E48.06645
G0 F7500 X115.435 Y123.849
G1 F1350 X123.849 Y115.435 E48.85799
G0 F7500 X123.849 Y114.869
G1 F1350 X114.869 Y123.849 E49.70277
G0 F7500 X114.303 Y123.849
G1 F1350 X123.849 Y114.303 E50.6008
G0 F7500 X123.849 Y113.738
G1 F1350 X113.738 Y123.849 E51.55198
G0 F7500 X113.172 Y123.849
G1 F1350 X123.849 Y113.172 E52.55641
G0 F7500 X123.849 Y112.606
G1 F1350 X112.606 Y123.849 E53.61408
G0 F7500 X112.041 Y123.849
G1 F1350 X123.849 Y112.041 E54.7249
G0 F7500 X123.849 Y111.475
G1 F1350 X111.475 Y123.849 E55.88897
G0 F7500 X111.15 Y123.609
G1 F1350 X123.61 Y111.149 E57.06113
G0 F7500 X123.044 Y111.149
G1 F1350 X111.15 Y123.043 E58.18005
G0 F7500 X111.15 Y122.477
G1 F1350 X122.478 Y111.149 E59.24572
G0 F7500 X121.912 Y111.149
G1 F1350 X111.15 Y121.912 E60.25819
G0 F7500 X111.15 Y121.346
G1 F1350 X121.347 Y111.149 E61.21746
G0 F7500 X120.781 Y111.149
G1 F1350 X111.15 Y120.78 E62.12348
G0 F7500 X111.15 Y120.215
G1 F1350 X120.215 Y111.149 E62.97631
G0 F7500 X119.65 Y111.149
G1 F1350 X111.15 Y119.649 E63.77594
G0 F7500 X111.15 Y119.083
G1 F1350 X119.084 Y111.149 E64.52232
G0 F7500 X118.518 Y111.149
G1 F1350 X111.15 Y118.518 E65.2155
G0 F7500 X111.15 Y117.952
G1 F1350 X117.953 Y111.149 E65.85549
G0 F7500 X117.387 Y111.149
G1 F1350 X111.15 Y117.386 E66.44223
G0 F7500 X111.15 Y116.821
G1 F1350 X116.821 Y111.149 E66.97577
G0 F7500 X116.256 Y111.149
G1 F1350 X111.15 Y116.255 E67.45611
G0 F7500 X111.15 Y115.689
G1 F1350 X115.69 Y111.149 E67.8832
G0 F7500 X115.124 Y111.149
G1 F1350 X111.15 Y115.124 E68.2571
G0 F7500 X111.15 Y114.558
G1 F1350 X114.559 Y111.149 E68.5778
G0 F7500 X113.993 Y111.149
G1 F1350 X111.15 Y113.992 E68.84525
G0 F7500 X111.15 Y113.426
G1 F1350 X113.427 Y111.149 E69.05946
G0 F7500 X112.862 Y111.149
G1 F1350 X111.15 Y112.861 E69.22051
G0 F7500 X111.15 Y112.295
G1 F1350 X112.296 Y111.149 E69.32832
G0 F7500 X111.73 Y111.149
G1 F1350 X111.15 Y111.729 E69.38288
G0 F7500 X110.8 Y111.729
;MESH:NONMESH
G0 F300 X110.8 Y111.729 Z1
G0 F7500 X110.71 Y111.729
G0 X110.782 Y124.218
G0 X124.4 Y124.4
;TIME_ELAPSED:87.346589
;LAYER:2
M106 S170
;TYPE:WALL-INNER
;MESH:cube.stl
G1 F1500 X110.6 Y124.4 E70.30086
G1 X110.6 Y110.6 E71.21884
G1 X124.4 Y110.6 E72.13682
G1 X124.4 Y124.4 E73.0548
G0 F9000 X124.8 Y124.8
;TYPE:WALL-OUTER
G1 F1500 X110.2 Y124.8 E74.026
G1 X110.2 Y110.2 E74.99719
G1 X124.8 Y110.2 E75.96839
