;FLAVOR:Marlin
;TIME:579
;Filament used: 0.238704m
;Layer height: 0.2
;MINX:101.5
;MINY:101.5
;MINZ:0.2
;MAXX:133.5
;MAXY:133.5
;MAXZ:10
;Generated with Cura_SteamEngine 4.7.1
M140 S50
M105
M190 S50
M104 S200
M105
M109 S200
M82 ;absolute extrusion mode
; Ender 3 Custom Start G-code
G92 E0 ; Reset Extruder
G28 ; Home all axes
G1 Z2.0 F3000 ; Move Z Axis up little to prevent scratching of Heat Bed
G1 X0.1 Y20 Z0.3 F5000.0 ; Move to start position
G1 X0.1 Y200.0 Z0.3 F1500.0 E15 ; Draw the first line
G1 X0.4 Y200.0 Z0.3 F5000.0 ; Move to side a little
G1 X0.4 Y20 Z0.3 F1500.0 E30 ; Draw the second line
G92 E0 ; Reset Extruder
G1 Z2.0 F3000 ; Move Z Axis up little to prevent scratching of Heat Bed
G1 X5 Y20 Z0.3 F5000.0 ; Move over to prevent blob squish
M83 ;relative extrusion mode
G1 F2700 E-5
;LAYER_COUNT:50
;LAYER:0
M107
G0 F6000 X104.698 Y104.764 Z0.2
;TYPE:SKIRT
G1 F2700 E5
G1 F1200 X105.386 Y104.127 E0.03119
G1 X106.126 Y103.551 E0.03119
G1 X106.912 Y103.039 E0.0312
G1 X107.739 Y102.597 E0.03119
G1 X108.601 Y102.227 E0.0312
G1 X109.491 Y101.931 E0.0312
G1 X110.403 Y101.713 E0.03119
G1 X111.33 Y101.572 E0.03119
G1 X112.201 Y101.513 E0.02904
G1 X112.522 Y101.504 E0.01068
G1 X112.83 Y101.5 E0.01024
G1 X121.951 Y101.501 E0.30337
G1 X122.649 Y101.511 E0.02322
G1 X123.585 Y101.565 E0.03118
G1 X124.513 Y101.697 E0.03118
G1 X125.427 Y101.909 E0.03121
G1 X126.319 Y102.198 E0.03119
G1 X127.184 Y102.561 E0.0312
G1 X128.014 Y102.997 E0.03118
G1 X128.805 Y103.502 E0.03121
G1 X129.549 Y104.073 E0.03119
G1 X130.242 Y104.705 E0.03119
G1 X130.879 Y105.393 E0.03119
G1 X131.454 Y106.134 E0.0312
G1 X131.965 Y106.92 E0.03118
G1 X132.407 Y107.748 E0.03122
G1 X132.776 Y108.61 E0.03119
G1 X133.071 Y109.5 E0.03119
G1 X133.289 Y110.412 E0.03119
G1 X133.429 Y111.34 E0.03121
G1 X133.487 Y112.201 E0.0287
G1 X133.496 Y112.521 E0.01065
G1 X133.5 Y112.83 E0.01028
G1 X133.499 Y121.9 E0.30167
G1 X133.49 Y122.627 E0.02418
G1 X133.439 Y123.564 E0.03121
G1 X133.307 Y124.492 E0.03118
G1 X133.098 Y125.406 E0.03118
G1 X132.811 Y126.299 E0.0312
G1 X132.449 Y127.165 E0.03122
G1 X132.015 Y127.996 E0.03118
G1 X131.511 Y128.787 E0.0312
G1 X130.942 Y129.532 E0.03118
G1 X130.311 Y130.227 E0.03122
G1 X129.624 Y130.865 E0.03118
G1 X128.885 Y131.442 E0.03118
G1 X128.099 Y131.954 E0.0312
G1 X127.273 Y132.397 E0.03117
G1 X126.411 Y132.769 E0.03123
G1 X125.522 Y133.065 E0.03116
G1 X124.61 Y133.285 E0.0312
G1 X123.683 Y133.426 E0.03119
G1 X122.799 Y133.487 E0.02947
G1 X122.478 Y133.496 E0.01068
G1 X122.17 Y133.5 E0.01024
G1 X113.065 Y133.499 E0.30283
G1 X112.367 Y133.49 E0.02322
G1 X111.431 Y133.438 E0.03118
G1 X110.502 Y133.306 E0.03121
G1 X109.588 Y133.096 E0.03119
G1 X108.695 Y132.809 E0.0312
G1 X107.83 Y132.446 E0.0312
G1 X106.999 Y132.012 E0.03118
G1 X106.208 Y131.508 E0.0312
G1 X105.463 Y130.938 E0.0312
G1 X104.769 Y130.307 E0.0312
G1 X104.132 Y129.62 E0.03116
G1 X103.555 Y128.88 E0.03121
G1 X103.043 Y128.094 E0.0312
G1 X102.6 Y127.267 E0.0312
G1 X102.229 Y126.406 E0.03118
G1 X101.933 Y125.516 E0.0312
G1 X101.714 Y124.604 E0.0312
G1 X101.573 Y123.677 E0.03119
G1 X101.513 Y122.788 E0.02964
G1 X101.504 Y122.455 E0.01108
G1 X101.5 Y122.158 E0.00988
G1 X101.501 Y113.025 E0.30376
G1 X101.51 Y112.36 E0.02212
G1 X101.563 Y111.424 E0.03118
G1 X101.695 Y110.495 E0.03121
G1 X101.906 Y109.581 E0.0312
G1 X102.194 Y108.689 E0.03118
G1 X102.557 Y107.824 E0.0312
G1 X102.992 Y106.993 E0.0312
G1 X103.496 Y106.203 E0.03117
G1 X104.066 Y105.458 E0.0312
G1 X104.698 Y104.764 E0.03122
G0 F6000 X105.089 Y104.939
G1 F1200 X105.774 Y104.323 E0.03064
G1 X106.51 Y103.77 E0.03062
G1 X107.291 Y103.282 E0.03063
G1 X108.111 Y102.864 E0.03061
G1 X108.965 Y102.519 E0.03063
G1 X109.845 Y102.249 E0.03062
G1 X110.745 Y102.057 E0.03061
G1 X111.659 Y101.943 E0.03064
G1 X112.212 Y101.913 E0.01842
G1 X112.533 Y101.904 E0.01068
G1 X112.83 Y101.9 E0.00988
G1 X121.793 Y101.9 E0.29811
G1 X122.643 Y101.911 E0.02827
G1 X123.562 Y101.964 E0.03062
G1 X124.473 Y102.097 E0.03062
G1 X125.369 Y102.308 E0.03062
G1 X126.243 Y102.596 E0.03061
G1 X127.09 Y102.959 E0.03065
G1 X127.901 Y103.394 E0.03061
G1 X128.671 Y103.898 E0.03061
G1 X129.395 Y104.467 E0.03063
G1 X130.067 Y105.097 E0.03064
G1 X130.682 Y105.782 E0.03062
G1 X131.235 Y106.518 E0.03062
G1 X131.722 Y107.299 E0.03061
G1 X132.139 Y108.12 E0.03063
G1 X132.484 Y108.974 E0.03063
G1 X132.753 Y109.854 E0.03061
G1 X132.945 Y110.755 E0.03064
G1 X133.058 Y111.668 E0.0306
G1 X133.087 Y112.212 E0.01812
G1 X133.096 Y112.532 E0.01065
G1 X133.1 Y112.83 E0.00991
G1 X133.099 Y121.895 E0.3015
G1 X133.09 Y122.622 E0.02418
G1 X133.039 Y123.541 E0.03061
G1 X132.908 Y124.453 E0.03064
G1 X132.698 Y125.349 E0.03061
G1 X132.412 Y126.224 E0.03062
G1 X132.051 Y127.071 E0.03062
G1 X131.617 Y127.883 E0.03062
G1 X131.115 Y128.655 E0.03063
G1 X130.547 Y129.38 E0.03063
G1 X129.919 Y130.053 E0.03062
G1 X129.235 Y130.669 E0.03062
G1 X128.5 Y131.223 E0.03061
G1 X127.72 Y131.712 E0.03062
G1 X126.9 Y132.131 E0.03063
G1 X126.047 Y132.477 E0.03062
G1 X125.167 Y132.748 E0.03063
G1 X124.267 Y132.941 E0.03061
G1 X123.353 Y133.056 E0.03064
G1 X122.788 Y133.087 E0.01882
G1 X122.467 Y133.096 E0.01068
G1 X122.17 Y133.1 E0.00988
G1 X113.07 Y133.099 E0.30267
G1 X112.372 Y133.09 E0.02322
G1 X111.453 Y133.038 E0.03061
G1 X110.542 Y132.907 E0.03061
G1 X109.646 Y132.697 E0.03061
G1 X108.771 Y132.41 E0.03063
G1 X107.924 Y132.048 E0.03064
G1 X107.112 Y131.614 E0.03062
G1 X106.341 Y131.112 E0.0306
G1 X105.616 Y130.544 E0.03063
G1 X104.943 Y129.915 E0.03064
G1 X104.328 Y129.231 E0.03059
G1 X103.774 Y128.496 E0.03061
G1 X103.286 Y127.715 E0.03063
G1 X102.867 Y126.895 E0.03063
G1 X102.521 Y126.042 E0.03062
G1 X102.251 Y125.162 E0.03062
G1 X102.058 Y124.261 E0.03065
G1 X101.944 Y123.348 E0.0306
G1 X101.913 Y122.777 E0.01902
G1 X101.904 Y122.444 E0.01108
G1 X101.9 Y122.158 E0.00951
G1 X101.901 Y113.031 E0.30357
G1 X101.91 Y112.366 E0.02212
G1 X101.962 Y111.446 E0.03065
G1 X102.094 Y110.535 E0.03062
G1 X102.305 Y109.639 E0.03062
G1 X102.592 Y108.764 E0.03063
G1 X102.955 Y107.918 E0.03062
G1 X103.389 Y107.106 E0.03062
G1 X103.892 Y106.335 E0.03062
G1 X104.461 Y105.611 E0.03063
G1 X105.089 Y104.939 E0.03059
G0 F6000 X105.481 Y105.117
G1 F1200 X106.162 Y104.524 E0.03003
G1 X106.894 Y103.994 E0.03006
G1 X107.669 Y103.531 E0.03003
G1 X108.482 Y103.138 E0.03003
G1 X109.327 Y102.818 E0.03005
G1 X110.196 Y102.575 E0.03001
G1 X111.084 Y102.409 E0.03005
G1 X112.223 Y102.313 E0.03802
G1 X112.544 Y102.304 E0.01068
G1 X112.83 Y102.3 E0.00951
G1 X121.793 Y102.3 E0.29811
G1 X122.637 Y102.311 E0.02807
G1 X123.539 Y102.364 E0.03005
G1 X124.432 Y102.496 E0.03002
G1 X125.31 Y102.707 E0.03003
G1 X126.166 Y102.995 E0.03004
G1 X126.993 Y103.357 E0.03003
G1 X127.785 Y103.792 E0.03005
G1 X128.536 Y104.294 E0.03004
G1 X129.239 Y104.861 E0.03004
G1 X129.889 Y105.488 E0.03004
G1 X130.481 Y106.17 E0.03004
G1 X131.011 Y106.901 E0.03003
G1 X131.473 Y107.677 E0.03004
G1 X131.866 Y108.49 E0.03003
G1 X132.184 Y109.335 E0.03003
G1 X132.427 Y110.205 E0.03004
G1 X132.592 Y111.093 E0.03004
G1 X132.687 Y112.223 E0.03772
G1 X132.696 Y112.543 E0.01065
G1 X132.7 Y112.83 E0.00955
G1 X132.699 Y121.89 E0.30134
G1 X132.69 Y122.617 E0.02418
G1 X132.639 Y123.519 E0.03005
G1 X132.508 Y124.413 E0.03005
G1 X132.299 Y125.291 E0.03002
G1 X132.013 Y126.148 E0.03005
G1 X131.652 Y126.976 E0.03004
G1 X131.22 Y127.768 E0.03001
G1 X130.719 Y128.52 E0.03005
G1 X130.153 Y129.224 E0.03004
G1 X129.528 Y129.875 E0.03002
G1 X128.847 Y130.469 E0.03006
G1 X128.116 Y131 E0.03005
G1 X127.342 Y131.464 E0.03001
G1 X126.529 Y131.858 E0.03005
G1 X125.685 Y132.178 E0.03002
G1 X124.815 Y132.423 E0.03006
G1 X123.928 Y132.589 E0.03001
G1 X122.777 Y132.687 E0.03842
G1 X122.456 Y132.696 E0.01068
G1 X122.17 Y132.7 E0.00951
G1 X113.075 Y132.699 E0.3025
G1 X112.377 Y132.69 E0.02322
G1 X111.476 Y132.639 E0.03002
G1 X110.582 Y132.507 E0.03006
G1 X109.704 Y132.298 E0.03002
G1 X108.847 Y132.011 E0.03006
G1 X108.02 Y131.65 E0.03001
G1 X107.227 Y131.217 E0.03005
G1 X106.476 Y130.716 E0.03003
G1 X105.772 Y130.15 E0.03004
G1 X105.121 Y129.524 E0.03004
G1 X104.528 Y128.843 E0.03003
G1 X103.998 Y128.112 E0.03003
G1 X103.534 Y127.337 E0.03004
G1 X103.14 Y126.524 E0.03005
G1 X102.82 Y125.68 E0.03002
G1 X102.576 Y124.81 E0.03005
G1 X102.41 Y123.922 E0.03005
G1 X102.313 Y122.767 E0.03855
G1 X102.304 Y122.434 E0.01108
G1 X102.3 Y122.158 E0.00918
G1 X102.301 Y113.036 E0.3034
G1 X102.31 Y112.371 E0.02212
G1 X102.362 Y111.469 E0.03005
G1 X102.494 Y110.576 E0.03002
G1 X102.704 Y109.698 E0.03003
G1 X102.991 Y108.841 E0.03006
G1 X103.353 Y108.014 E0.03003
G1 X103.786 Y107.222 E0.03002
G1 X104.288 Y106.471 E0.03004
G1 X104.855 Y105.767 E0.03007
G1 X105.481 Y105.117 E0.03001
G1 F2700 E-5
;MESH:CE3_cube.3mf
G0 F6000 X112.914 Y111.835
G0 X112.914 Y112.914
G0 X121.718 Y113.282
G0 X121.9 Y121.9
;TYPE:WALL-INNER
G1 F2700 E5
G1 F1200 X113.1 Y121.9 E0.29269
G1 X113.1 Y113.1 E0.29269
G1 X121.9 Y113.1 E0.29269
G1 X121.9 Y121.9 E0.29269
G0 F6000 X122.3 Y122.3
;TYPE:WALL-OUTER
G1 F1200 X112.7 Y122.3 E0.3193
G1 X112.7 Y112.7 E0.3193
G1 X122.3 Y112.7 E0.3193
G1 X122.3 Y122.3 E0.3193
G0 F6000 X122.03 Y122.03
G0 X121.79 Y121.51
G0 X121.51 Y121.51
;TYPE:SKIN
G1 F1200 X113.49 Y121.51 E0.26675
G1 X113.49 Y113.49 E0.26675
G1 X121.51 Y113.49 E0.26675
G1 X121.51 Y121.51 E0.26675
G0 F6000 X121.79 Y121.51
G0 X121.79 Y113.995
G0 X121.349 Y113.995
G1 F1200 X121.004 Y113.65 E0.01623
G0 F6000 X120.438 Y113.65
G1 F1200 X121.349 Y114.561 E0.04285
G0 F6000 X121.349 Y115.126
G1 F1200 X119.872 Y113.65 E0.06945
G0 F6000 X119.307 Y113.65
G1 F1200 X121.349 Y115.692 E0.09605
G0 F6000 X121.349 Y116.258
G1 F1200 X118.741 Y113.65 E0.12267
G0 F6000 X118.175 Y113.65
G1 F1200 X121.349 Y116.823 E0.14927
G0 F6000 X121.349 Y117.389
G1 F1200 X117.61 Y113.65 E0.17587
G0 F6000 X117.044 Y113.65
G1 F1200 X121.349 Y117.955 E0.20249
G0 F6000 X121.349 Y118.52
G1 F1200 X116.478 Y113.65 E0.22909
G0 F6000 X115.913 Y113.65
G1 F1200 X121.349 Y119.086 E0.25569
G0 F6000 X121.349 Y119.652
G1 F1200 X115.347 Y113.65 E0.28232
G0 F6000 X114.781 Y113.65
G1 F1200 X121.349 Y120.218 E0.30894
G0 F6000 X121.349 Y120.783
G1 F1200 X114.216 Y113.65 E0.33551
G0 F6000 X113.649 Y113.649
G1 F1200 X121.349 Y121.349 E0.36218
G0 F6000 X120.783 Y121.349
G1 F1200 X113.649 Y114.215 E0.33556
G0 F6000 X113.649 Y114.781
G1 F1200 X120.218 Y121.349 E0.30896
G0 F6000 X119.652 Y121.349
G1 F1200 X113.649 Y115.346 E0.28236
G0 F6000 X113.649 Y115.912
G1 F1200 X119.086 Y121.349 E0.25574
G0 F6000 X118.52 Y121.349
G1 F1200 X113.649 Y116.478 E0.22912
G0 F6000 X113.649 Y117.043
G1 F1200 X117.955 Y121.349 E0.20254
G0 F6000 X117.389 Y121.349
G1 F1200 X113.649 Y117.609 E0.17592
G0 F6000 X113.649 Y118.175
G1 F1200 X116.823 Y121.349 E0.1493
G0 F6000 X116.258 Y121.349
G1 F1200 X113.649 Y118.74 E0.12272
G0 F6000 X113.649 Y119.306
G1 F1200 X115.692 Y121.349 E0.0961
G0 F6000 X115.126 Y121.349
G1 F1200 X113.649 Y119.872 E0.06947
G0 F6000 X113.649 Y120.437
G1 F1200 X114.561 Y121.349 E0.0429
G0 F6000 X113.995 Y121.349
G1 F1200 X113.649 Y121.003 E0.01627
G0 F6000 X113.3 Y121.003
;MESH:NONMESH
G0 F300 X113.3 Y121.003 Z0.4
G0 F6000 X113.21 Y121.003
G0 X113.282 Y121.718
G0 X121.9 Y121.9
;TIME_ELAPSED:37.273288
;LAYER:1
M106 S85
;TYPE:WALL-INNER
;MESH:CE3_cube.3mf
G1 F1350 X113.1 Y121.9 E0.29269
G1 X113.1 Y113.1 E0.29269
G1 X121.9 Y113.1 E0.29269
G1 X121.9 Y121.9 E0.29269
G0 F7500 X122.3 Y122.3
;TYPE:WALL-OUTER
G1 F1350 X112.7 Y122.3 E0.3193
G1 X112.7 Y112.7 E0.3193
G1 X122.3 Y112.7 E0.3193
G1 X122.3 Y122.3 E0.3193
G0 F7500 X122.03 Y122.03
G0 X121.79 Y121.51
G0 X121.51 Y121.51
;TYPE:SKIN
G1 F1350 X113.49 Y121.51 E0.26675
G1 X113.49 Y113.49 E0.26675
G1 X121.51 Y113.49 E0.26675
G1 X121.51 Y121.51 E0.26675
G0 F7500 X120.763 Y121.349
G1 F1350 X121.349 Y120.763 E0.02756
G0 F7500 X121.349 Y120.198
G1 F1350 X120.198 Y121.349 E0.05414
G0 F7500 X119.632 Y121.349
G1 F1350 X121.349 Y119.632 E0.08076
G0 F7500 X121.349 Y119.066
G1 F1350 X119.066 Y121.349 E0.10739
G0 F7500 X118.501 Y121.349
G1 F1350 X121.349 Y118.501 E0.13396
G0 F7500 X121.349 Y117.935
G1 F1350 X117.935 Y121.349 E0.16058
G0 F7500 X117.369 Y121.349
G1 F1350 X121.349 Y117.369 E0.18721
G0 F7500 X121.349 Y116.804
G1 F1350 X116.804 Y121.349 E0.21378
G0 F7500 X116.238 Y121.349
G1 F1350 X121.349 Y116.238 E0.24041
G0 F7500 X121.349 Y115.672
G1 F1350 X115.672 Y121.349 E0.26703
G0 F7500 X115.107 Y121.349
G1 F1350 X121.349 Y115.107 E0.2936
G0 F7500 X121.349 Y114.541
G1 F1350 X114.541 Y121.349 E0.32023
G0 F7500 X113.975 Y121.349
G1 F1350 X121.349 Y113.975 E0.34685
G0 F7500 X121.109 Y113.649
G1 F1350 X113.65 Y121.109 E0.35087
G0 F7500 X113.65 Y120.543
G1 F1350 X120.544 Y113.649 E0.32427
G0 F7500 X119.978 Y113.649
G1 F1350 X113.65 Y119.977 E0.29765
G0 F7500 X113.65 Y119.411
G1 F1350 X119.412 Y113.649 E0.27103
G0 F7500 X118.846 Y113.649
G1 F1350 X113.65 Y118.846 E0.24443
G0 F7500 X113.65 Y118.28
G1 F1350 X118.281 Y113.649 E0.21783
G0 F7500 X117.715 Y113.649
G1 F1350 X113.65 Y117.714 E0.19121
G0 F7500 X113.65 Y117.149
G1 F1350 X117.149 Y113.649 E0.16461
G0 F7500 X116.584 Y113.649
G1 F1350 X113.65 Y116.583 E0.13801
G0 F7500 X113.65 Y116.017
G1 F1350 X116.018 Y113.649 E0.11138
G0 F7500 X115.452 Y113.649
G1 F1350 X113.65 Y115.452 E0.08478
G0 F7500 X113.65 Y114.886
G1 F1350 X114.887 Y113.649 E0.05818
G0 F7500 X114.321 Y113.649
G1 F1350 X113.65 Y114.32 E0.03156
G0 F7500 X113.65 Y113.755
G1 F1350 X113.755 Y113.649 E0.00496
G0 F7500 X113.755 Y113.3
;MESH:NONMESH
G0 F300 X113.755 Y113.3 Z0.6
G0 F7500 X113.755 Y113.21
G0 X121.718 Y113.282
G0 X121.9 Y121.9
;TIME_ELAPSED:51.568970
;LAYER:2
M106 S170
;TYPE:WALL-INNER
;MESH:CE3_cube.3mf
G1 F1500 X113.1 Y121.9 E0.29269
G1 X113.1 Y113.1 E0.29269
G1 X121.9 Y113.1 E0.29269
G1 X121.9 Y121.9 E0.29269
G0 F9000 X122.3 Y122.3
;TYPE:WALL-OUTER
G1 F1500 X112.7 Y122.3 E0.3193
G1 X112.7 Y112.7 E0.3193
G1 X122.3 Y112.7 E0.3193
G1 X122.3 Y122.3 E0.3193
G0 F9000 X122.03 Y122.03
G0 X121.79 Y121.51
G0 X121.51 Y121.51
;TYPE:SKIN
G1 F1500 X113.49 Y121.51 E0.26675
G1 X113.49 Y113.49 E0.26675
G1 X121.51 Y113.49 E0.26675
G1 X121.51 Y121.51 E0.26675
G0 F9000 X121.79 Y121.51
G0 X121.79 Y113.995
G0 X121.349 Y113.995
G1 F1500 X121.004 Y113.65 E0.01623
G0 F9000 X120.438 Y113.65
G1 F1500 X121.349 Y114.561 E0.04285
G0 F9000 X121.349 Y115.126
G1 F1500 X119.872 Y113.65 E0.06945
G0 F9000 X119.307 Y113.65
G1 F1500 X121.349 Y115.692 E0.09605
G0 F9000 X121.349 Y116.258
G1 F1500 X118.741 Y113.65 E0.12267
G0 F9000 X118.175 Y113.65
G1 F1500 X121.349 Y116.823 E0.14927
G0 F9000 X121.349 Y117.389
G1 F1500 X117.61 Y113.65 E0.17587
G0 F9000 X117.044 Y113.65
G1 F1500 X121.349 Y117.955 E0.20249
G0 F9000 X121.349 Y118.52
G1 F1500 X116.478 Y113.65 E0.22909
G0 F9000 X115.913 Y113.65
G1 F1500 X121.349 Y119.086 E0.25569
G0 F9000 X121.349 Y119.652
G1 F1500 X115.347 Y113.65 E0.28232
G0 F9000 X114.781 Y113.65
G1 F1500 X121.349 Y120.218 E0.30894
G0 F9000 X121.349 Y120.783
G1 F1500 X114.216 Y113.65 E0.33551
G0 F9000 X113.649 Y113.649
G1 F1500 X121.349 Y121.349 E0.36218
G0 F9000 X120.783 Y121.349
G1 F1500 X113.649 Y114.215 E0.33556
G0 F9000 X113.649 Y114.781
G1 F1500 X120.218 Y121.349 E0.30896
G0 F9000 X119.652 Y121.349
G1 F1500 X113.649 Y115.346 E0.28236
G0 F9000 X113.649 Y115.912
G1 F1500 X119.086 Y121.349 E0.25574
G0 F9000 X118.52 Y121.349
G1 F1500 X113.649 Y116.478 E0.22912
G0 F9000 X113.649 Y117.043
G1 F1500 X117.955 Y121.349 E0.20254
G0 F9000 X117.389 Y121.349
G1 F1500 X113.649 Y117.609 E0.17592
G0 F9000 X113.649 Y118.175
G1 F1500 X116.823 Y121.349 E0.1493
G0 F9000 X116.258 Y121.349
G1 F1500 X113.649 Y118.74 E0.12272
G0 F9000 X113.649 Y119.306
G1 F1500 X115.692 Y121.349 E0.0961
G0 F9000 X115.126 Y121.349
G1 F1500 X113.649 Y119.872 E0.06947
G0 F9000 X113.649 Y120.437
G1 F1500 X114.561 Y121.349 E0.0429
G0 F9000 X113.995 Y121.349
G1 F1500 X113.649 Y121.003 E0.01627
G0 F9000 X113.3 Y121.003
;MESH:NONMESH
G0 F300 X113.3 Y121.003 Z0.8
G0 F9000 X113.21 Y121.003
G0 X113.282 Y121.718
G0 X121.9 Y121.9
;TIME_ELAPSED:65.004151
;LAYER:3
M106 S255
;TYPE:WALL-INNER
;MESH:CE3_cube.3mf
G1 F1500 X113.1 Y121.9 E0.29269
G1 X113.1 Y113.1 E0.29269
G1 X121.9 Y113.1 E0.29269
G1 X121.9 Y121.9 E0.29269
