;FLAVOR:Marlin
;TIME:1812
;Filament used: 1.53303m
;Layer height: 0.2
;MINX:89
;MINY:89
;MINZ:0.2
;MAXX:131
;MAXY:131
;MAXZ:20
;Generated with Cura_SteamEngine 4.4.1
M140 S60
M105
M190 S60
M104 S200
M105
M109 S200
M82 ;absolute extrusion mode
M201 X500.00 Y500.00 Z100.00 E5000.00 ;Setup machine max acceleration
M203 X500.00 Y500.00 Z10.00 E50.00 ;Setup machine max feedrate
M204 P500.00 R1000.00 T500.00 ;Setup Print/Retract/Travel acceleration
M205 X8.00 Y8.00 Z0.40 E5.00 ;Setup Jerk
M220 S100 ;Reset Feedrate
M221 S100 ;Reset Flowrate

G28 ;Home

G92 E0 ;Reset Extruder
G1 Z2.0 F3000 ;Move Z Axis up
G1 X10.1 Y20 Z0.28 F5000.0 ;Move to start position
G1 X10.1 Y200.0 Z0.28 F1500.0 E15 ;Draw the first line
G1 X10.4 Y200.0 Z0.28 F5000.0 ;Move to side a little
G1 X10.4 Y20 Z0.28 F1500.0 E30 ;Draw the second line
G92 E0 ;Reset Extruder
G1 Z2.0 F3000 ;Move Z Axis up

G92 E0
G92 E0
G1 F1500 E-6.5
;LAYER_COUNT:100
;LAYER:0
M107
G0 F6000 X92.198 Y92.264 Z0.2
;TYPE:SKIRT
G1 F1500 E0
G1 F1200 X92.886 Y91.627 E0.03274
G1 X93.626 Y91.051 E0.06549
G1 X94.412 Y90.539 E0.09825
G1 X95.239 Y90.097 E0.131
G1 X96.101 Y89.727 E0.16376
G1 X96.991 Y89.431 E0.19652
G1 X97.903 Y89.213 E0.22926
G1 X98.83 Y89.072 E0.26201
G1 X99.701 Y89.013 E0.2925
G1 X100.022 Y89.004 E0.30371
G1 X100.33 Y89 E0.31447
G1 X119.293 Y89 E0.97672
G1 X119.451 Y89.001 E0.98223
G1 X120.149 Y89.011 E1.00661
G1 X121.085 Y89.065 E1.03936
G1 X122.013 Y89.197 E1.07209
G1 X122.927 Y89.409 E1.10486
G1 X123.819 Y89.698 E1.1376
G1 X124.684 Y90.061 E1.17036
G1 X125.514 Y90.497 E1.20311
G1 X126.305 Y91.002 E1.23588
G1 X127.049 Y91.573 E1.26863
G1 X127.742 Y92.205 E1.30139
G1 X128.379 Y92.893 E1.33413
G1 X128.954 Y93.634 E1.36689
G1 X129.465 Y94.42 E1.39963
G1 X129.907 Y95.248 E1.43241
G1 X130.276 Y96.11 E1.46515
G1 X130.571 Y97 E1.4979
G1 X130.789 Y97.912 E1.53064
G1 X130.929 Y98.84 E1.56342
G1 X130.987 Y99.701 E1.59356
G1 X130.996 Y100.021 E1.60474
G1 X131 Y100.33 E1.61553
G1 X131 Y119.264 E2.27676
G1 X130.999 Y119.4 E2.28151
G1 X130.99 Y120.127 E2.3069
G1 X130.939 Y121.064 E2.33968
G1 X130.807 Y121.992 E2.37241
G1 X130.598 Y122.906 E2.40515
G1 X130.311 Y123.799 E2.43791
G1 X129.949 Y124.665 E2.47069
G1 X129.515 Y125.496 E2.50343
G1 X129.011 Y126.287 E2.53619
G1 X128.442 Y127.032 E2.56893
G1 X127.811 Y127.727 E2.60171
G1 X127.124 Y128.365 E2.63445
G1 X126.385 Y128.942 E2.66719
G1 X125.599 Y129.454 E2.69995
G1 X124.773 Y129.897 E2.73269
G1 X123.911 Y130.269 E2.76547
G1 X123.022 Y130.565 E2.7982
G1 X122.11 Y130.785 E2.83096
G1 X121.183 Y130.926 E2.86371
G1 X120.299 Y130.987 E2.89465
G1 X119.978 Y130.996 E2.90587
G1 X119.67 Y131 E2.91662
G1 X100.707 Y131 E3.57887
G1 X100.565 Y130.999 E3.58383
G1 X99.867 Y130.99 E3.60821
G1 X98.931 Y130.938 E3.64095
G1 X98.002 Y130.806 E3.67372
G1 X97.088 Y130.596 E3.70647
G1 X96.195 Y130.309 E3.73923
G1 X95.33 Y129.946 E3.77199
G1 X94.499 Y129.512 E3.80473
G1 X93.708 Y129.008 E3.83748
G1 X92.963 Y128.438 E3.87024
G1 X92.269 Y127.807 E3.903
G1 X91.632 Y127.12 E3.93572
G1 X91.055 Y126.38 E3.96849
G1 X90.543 Y125.594 E4.00125
G1 X90.1 Y124.767 E4.03401
G1 X89.729 Y123.906 E4.06675
G1 X89.433 Y123.016 E4.09951
G1 X89.214 Y122.104 E4.13226
G1 X89.073 Y121.177 E4.16501
G1 X89.013 Y120.288 E4.19613
G1 X89.004 Y119.955 E4.20776
G1 X89 Y119.658 E4.21813
G1 X89 Y100.674 E4.88111
G1 X89.001 Y100.525 E4.88632
G1 X89.01 Y99.86 E4.90954
G1 X89.063 Y98.924 E4.94228
G1 X89.195 Y97.995 E4.97505
G1 X89.406 Y97.081 E5.00781
G1 X89.694 Y96.189 E5.04055
G1 X90.057 Y95.324 E5.07331
G1 X90.492 Y94.493 E5.10607
G1 X90.996 Y93.703 E5.13879
G1 X91.566 Y92.958 E5.17155
G1 X92.198 Y92.264 E5.20433
G0 F6000 X92.589 Y92.439
G1 F1200 X93.274 Y91.823 E5.2365
G1 X94.01 Y91.27 E5.26865
G1 X94.791 Y90.782 E5.30082
G1 X95.611 Y90.364 E5.33296
G1 X96.465 Y90.019 E5.36513
G1 X97.345 Y89.749 E5.39727
G1 X98.245 Y89.557 E5.42941
G1 X99.159 Y89.443 E5.46158
G1 X99.712 Y89.413 E5.48092
G1 X100.033 Y89.404 E5.49213
G1 X100.33 Y89.4 E5.50251
G1 X119.293 Y89.4 E6.16475
G1 X119.445 Y89.401 E6.17006
G1 X120.143 Y89.411 E6.19444
G1 X121.062 Y89.464 E6.22659
G1 X121.973 Y89.597 E6.25874
G1 X122.869 Y89.808 E6.29089
G1 X123.743 Y90.096 E6.32302
G1 X124.59 Y90.459 E6.35521
G1 X125.401 Y90.894 E6.38735
G1 X126.171 Y91.398 E6.41949
G1 X126.895 Y91.967 E6.45164
G1 X127.567 Y92.597 E6.48381
G1 X128.182 Y93.282 E6.51596
G1 X128.735 Y94.018 E6.54811
G1 X129.222 Y94.799 E6.58026
G1 X129.639 Y95.62 E6.61241
G1 X129.984 Y96.474 E6.64458
G1 X130.253 Y97.354 E6.67672
G1 X130.445 Y98.255 E6.70889
G1 X130.558 Y99.168 E6.74102
G1 X130.587 Y99.712 E6.76004
G1 X130.596 Y100.032 E6.77122
G1 X130.6 Y100.33 E6.78163
G1 X130.6 Y119.264 E7.44286
G1 X130.599 Y119.395 E7.44744
G1 X130.59 Y120.122 E7.47283
G1 X130.539 Y121.041 E7.50497
G1 X130.408 Y121.953 E7.53715
G1 X130.198 Y122.849 E7.56929
G1 X129.912 Y123.724 E7.60144
G1 X129.551 Y124.571 E7.63359
G1 X129.117 Y125.383 E7.66575
G1 X128.615 Y126.155 E7.69791
G1 X128.047 Y126.88 E7.73007
G1 X127.419 Y127.553 E7.76222
G1 X126.735 Y128.169 E7.79436
G1 X126 Y128.723 E7.82651
G1 X125.22 Y129.212 E7.85866
G1 X124.4 Y129.631 E7.89082
G1 X123.547 Y129.977 E7.92296
G1 X122.667 Y130.248 E7.95512
G1 X121.767 Y130.441 E7.98727
G1 X120.853 Y130.556 E8.01944
G1 X120.288 Y130.587 E8.0392
G1 X119.967 Y130.596 E8.05041
G1 X119.67 Y130.6 E8.06079
G1 X100.707 Y130.6 E8.72303
G1 X100.57 Y130.599 E8.72782
G1 X99.872 Y130.59 E8.7522
G1 X98.953 Y130.538 E8.78434
G1 X98.042 Y130.407 E8.81648
G1 X97.146 Y130.197 E8.84862
G1 X96.271 Y129.91 E8.88078
G1 X95.424 Y129.548 E8.91295
G1 X94.612 Y129.114 E8.94511
G1 X93.841 Y128.612 E8.97724
G1 X93.116 Y128.044 E9.0094
G1 X92.443 Y127.415 E9.04157
G1 X91.828 Y126.731 E9.07369
G1 X91.274 Y125.996 E9.10584
G1 X90.786 Y125.215 E9.138
G1 X90.367 Y124.395 E9.17016
G1 X90.021 Y123.542 E9.2023
G1 X89.751 Y122.662 E9.23445
G1 X89.558 Y121.761 E9.26663
G1 X89.444 Y120.848 E9.29876
G1 X89.413 Y120.277 E9.31873
G1 X89.404 Y119.944 E9.33037
G1 X89.4 Y119.658 E9.34036
G1 X89.4 Y100.674 E10.00334
G1 X89.401 Y100.531 E10.00833
G1 X89.41 Y99.866 E10.03156
G1 X89.462 Y98.946 E10.06374
G1 X89.594 Y98.035 E10.09588
G1 X89.805 Y97.139 E10.12803
G1 X90.092 Y96.264 E10.16019
G1 X90.455 Y95.418 E10.19234
G1 X90.889 Y94.606 E10.2245
G1 X91.392 Y93.835 E10.25664
G1 X91.961 Y93.111 E10.2888
G1 X92.589 Y92.439 E10.32092
G0 F6000 X92.981 Y92.617
G1 F1200 X93.662 Y92.024 E10.35246
G1 X94.394 Y91.494 E10.38402
G1 X95.169 Y91.031 E10.41555
G1 X95.982 Y90.638 E10.44708
G1 X96.827 Y90.318 E10.47864
G1 X97.696 Y90.075 E10.51015
G1 X98.584 Y89.909 E10.5417
G1 X99.723 Y89.813 E10.58162
G1 X100.044 Y89.804 E10.59283
G1 X100.33 Y89.8 E10.60282
G1 X119.293 Y89.8 E11.26507
G1 X119.439 Y89.801 E11.27017
G1 X120.137 Y89.811 E11.29455
G1 X121.039 Y89.864 E11.3261
G1 X121.932 Y89.996 E11.35763
G1 X122.81 Y90.207 E11.38916
G1 X123.666 Y90.495 E11.4207
G1 X124.493 Y90.857 E11.45223
G1 X125.285 Y91.292 E11.48379
G1 X126.036 Y91.794 E11.51534
G1 X126.739 Y92.361 E11.54688
G1 X127.389 Y92.988 E11.57842
G1 X127.981 Y93.67 E11.60996
G1 X128.511 Y94.401 E11.64149
G1 X128.973 Y95.177 E11.67303
G1 X129.366 Y95.99 E11.70456
G1 X129.684 Y96.835 E11.73609
G1 X129.927 Y97.705 E11.76764
G1 X130.092 Y98.593 E11.79918
G1 X130.187 Y99.723 E11.83879
G1 X130.196 Y100.043 E11.84996
G1 X130.2 Y100.33 E11.85999
G1 X130.2 Y119.264 E12.52122
G1 X130.199 Y119.39 E12.52562
G1 X130.19 Y120.117 E12.55102
G1 X130.139 Y121.019 E12.58257
G1 X130.008 Y121.913 E12.61412
G1 X129.799 Y122.791 E12.64564
G1 X129.513 Y123.648 E12.67719
G1 X129.152 Y124.476 E12.70874
G1 X128.72 Y125.268 E12.74024
G1 X128.219 Y126.02 E12.7718
G1 X127.653 Y126.724 E12.80335
G1 X127.028 Y127.375 E12.83486
G1 X126.347 Y127.969 E12.86642
G1 X125.616 Y128.5 E12.89797
G1 X124.842 Y128.964 E12.92949
G1 X124.029 Y129.358 E12.96104
G1 X123.185 Y129.678 E12.99256
G1 X122.315 Y129.923 E13.02413
G1 X121.428 Y130.089 E13.05564
G1 X120.277 Y130.187 E13.09599
G1 X119.956 Y130.196 E13.1072
G1 X119.67 Y130.2 E13.11719
G1 X100.707 Y130.2 E13.77944
G1 X100.575 Y130.199 E13.78405
G1 X99.877 Y130.19 E13.80843
G1 X98.976 Y130.139 E13.83994
G1 X98.082 Y130.007 E13.8715
G1 X97.204 Y129.798 E13.90302
G1 X96.347 Y129.511 E13.93458
G1 X95.52 Y129.15 E13.9661
G1 X94.727 Y128.717 E13.99765
G1 X93.976 Y128.216 E14.02918
G1 X93.272 Y127.65 E14.06072
G1 X92.621 Y127.024 E14.09226
G1 X92.028 Y126.343 E14.1238
G1 X91.498 Y125.612 E14.15533
G1 X91.034 Y124.837 E14.18688
G1 X90.64 Y124.024 E14.21843
G1 X90.32 Y123.18 E14.24995
G1 X90.076 Y122.31 E14.28151
G1 X89.91 Y121.422 E14.31306
G1 X89.813 Y120.267 E14.35353
G1 X89.804 Y119.934 E14.36517
G1 X89.8 Y119.658 E14.37481
G1 X89.8 Y100.674 E15.03779
G1 X89.801 Y100.536 E15.04261
G1 X89.81 Y99.871 E15.06583
G1 X89.862 Y98.969 E15.09739
G1 X89.994 Y98.076 E15.12891
G1 X90.204 Y97.198 E15.16044
G1 X90.491 Y96.341 E15.192
G1 X90.853 Y95.514 E15.22353
G1 X91.286 Y94.722 E15.25505
G1 X91.788 Y93.971 E15.2866
G1 X92.355 Y93.267 E15.31817
G1 X92.981 Y92.617 E15.34968
G1 F1500 E8.84968
;MESH:20mm_cube.stl
G0 F6000 X100.414 Y99.335
G0 X100.414 Y100.414
G0 X101 Y119
;TYPE:WALL-INNER
G1 F1500 E15.34968
G1 F1200 X101 Y101 E15.9783
G1 X119 Y101 E16.60692
G1 X119 Y119 E17.23553
G1 X101 Y119 E17.86415
G0 F6000 X100.6 Y119.4
G1 F1200 X100.6 Y100.6 E18.52071
G1 X119.4 Y100.6 E19.17726
G1 X119.4 Y119.4 E19.83382
G1 X100.6 Y119.4 E20.49037
G0 F6000 X100.2 Y119.8
;TYPE:WALL-OUTER
G1 F1200 X100.2 Y100.2 E21.17486
G1 X119.8 Y100.2 E21.85936
G1 X119.8 Y119.8 E22.54385
G1 X100.2 Y119.8 E23.22835
G0 F6000 X100.47 Y119.53
G0 X101.11 Y118.61
G0 X101.39 Y118.61
;TYPE:SKIN
G1 F1200 X101.39 Y101.39 E23.82972
G1 X118.61 Y101.39 E24.4311
G1 X118.61 Y118.61 E25.03247
G1 X101.39 Y118.61 E25.63385
G0 F6000 X102.044 Y118.449
G1 F1200 X101.549 Y117.954 E25.6583
G0 F6000 X101.549 Y117.388
G1 F1200 X102.61 Y118.449 E25.7107
G0 F6000 X103.176 Y118.449
G1 F1200 X101.549 Y116.823 E25.79103
G0 F6000 X101.549 Y116.257
G1 F1200 X103.741 Y118.449 E25.89929
G0 F6000 X104.307 Y118.449
G1 F1200 X101.549 Y115.691 E26.03551
G0 F6000 X101.549 Y115.126
G1 F1200 X104.873 Y118.449 E26.19965
G0 F6000 X105.438 Y118.449
G1 F1200 X101.549 Y114.56 E26.39172
G0 F6000 X101.549 Y113.994
G1 F1200 X106.004 Y118.449 E26.61175
G0 F6000 X106.57 Y118.449
G1 F1200 X101.549 Y113.429 E26.85971
G0 F6000 X101.549 Y112.863
G1 F1200 X107.135 Y118.449 E27.13559
G0 F6000 X107.701 Y118.449
G1 F1200 X101.549 Y112.297 E27.43943
G0 F6000 X101.549 Y111.732
G1 F1200 X108.267 Y118.449 E27.7712
G0 F6000 X108.832 Y118.449
G1 F1200 X101.549 Y111.166 E28.1309
G0 F6000 X101.549 Y110.6
G1 F1200 X109.398 Y118.449 E28.51855
G0 F6000 X109.964 Y118.449
G1 F1200 X101.549 Y110.035 E28.93413
G0 F6000 X101.549 Y109.469
G1 F1200 X110.529 Y118.449 E29.37764
G0 F6000 X111.095 Y118.449
G1 F1200 X101.549 Y108.903 E29.84911
G0 F6000 X101.549 Y108.337
G1 F1200 X111.661 Y118.449 E30.34853
G0 F6000 X112.227 Y118.449
G1 F1200 X101.549 Y107.772 E30.87588
G0 F6000 X101.549 Y107.206
G1 F1200 X112.792 Y118.449 E31.43116
G0 F6000 X113.358 Y118.449
G1 F1200 X101.549 Y106.64 E32.01439
G0 F6000 X101.549 Y106.075
G1 F1200 X113.924 Y118.449 E32.62555
G0 F6000 X114.489 Y118.449
G1 F1200 X101.549 Y105.509 E33.26464
G0 F6000 X101.549 Y104.943
G1 F1200 X115.055 Y118.449 E33.93168
G0 F6000 X115.621 Y118.449
G1 F1200 X101.549 Y104.378 E34.62666
G0 F6000 X101.549 Y103.812
G1 F1200 X116.186 Y118.449 E35.34956
G0 F6000 X116.752 Y118.449
G1 F1200 X101.549 Y103.246 E36.10042
G0 F6000 X101.549 Y102.681
G1 F1200 X117.318 Y118.449 E36.87921
G0 F6000 X117.883 Y118.449
G1 F1200 X101.549 Y102.115 E37.68592
G0 F6000 X101.549 Y101.549
G1 F1200 X118.449 Y118.449 E38.52059
G0 F6000 X118.449 Y117.883
G1 F1200 X102.115 Y101.549 E39.32731
G0 F6000 X102.681 Y101.549
G1 F1200 X118.449 Y117.318 E40.1061
G0 F6000 X118.449 Y116.752
G1 F1200 X103.246 Y101.549 E40.85696
G0 F6000 X103.812 Y101.549
G1 F1200 X118.449 Y116.186 E41.57986
G0 F6000 X118.449 Y115.621
G1 F1200 X104.378 Y101.549 E42.27483
G0 F6000 X104.943 Y101.549
G1 F1200 X118.449 Y115.055 E42.94188
G0 F6000 X118.449 Y114.489
G1 F1200 X105.509 Y101.549 E43.58097
G0 F6000 X106.075 Y101.549
G1 F1200 X118.449 Y113.924 E44.19213
G0 F6000 X118.449 Y113.358
G1 F1200 X106.64 Y101.549 E44.77536
G0 F6000 X107.206 Y101.549
G1 F1200 X118.449 Y112.792 E45.33064
G0 F6000 X118.449 Y112.227
G1 F1200 X107.772 Y101.549 E45.85799
G0 F6000 X108.337 Y101.549
G1 F1200 X118.449 Y111.661 E46.35741
G0 F6000 X118.449 Y111.095
G1 F1200 X108.903 Y101.549 E46.82887
G0 F6000 X109.469 Y101.549
G1 F1200 X118.449 Y110.529 E47.27238
G0 F6000 X118.449 Y109.964
G1 F1200 X110.035 Y101.549 E47.68797
G0 F6000 X110.6 Y101.549
G1 F1200 X118.449 Y109.398 E48.07562
G0 F6000 X118.449 Y108.832
G1 F1200 X111.166 Y101.549 E48.43532
G0 F6000 X111.732 Y101.549
G1 F1200 X118.449 Y108.267 E48.76709
G0 F6000 X118.449 Y107.701
G1 F1200 X112.297 Y101.549 E49.07093
G0 F6000 X112.863 Y101.549
G1 F1200 X118.449 Y107.135 E49.34681
G0 F6000 X118.449 Y106.57
G1 F1200 X113.429 Y101.549 E49.59477
G0 F6000 X113.994 Y101.549
G1 F1200 X118.449 Y106.004 E49.8148
G0 F6000 X118.449 Y105.438
G1 F1200 X114.56 Y101.549 E50.00687
G0 F6000 X115.126 Y101.549
G1 F1200 X118.449 Y104.873 E50.17101
G0 F6000 X118.449 Y104.307
G1 F1200 X115.691 Y101.549 E50.30723
G0 F6000 X116.257 Y101.549
G1 F1200 X118.449 Y103.741 E50.41549
G0 F6000 X118.449 Y103.176
G1 F1200 X116.823 Y101.549 E50.49582
G0 F6000 X117.388 Y101.549
G1 F1200 X118.449 Y102.61 E50.54822
G0 F6000 X118.449 Y102.044
G1 F1200 X117.954 Y101.549 E50.57267
G0 F6000 X117.954 Y100.81
G1 F1500 E44.07267
;MESH:NONMESH
G0 F300 X117.954 Y100.81 Z0.4
G0 F6000 X101.182 Y101.182
G0 X101 Y119
;TIME_ELAPSED:83.842988
;LAYER:1
M140 S60
M106 S85
;TYPE:WALL-INNER
;MESH:20mm_cube.stl
G1 F1500 E50.57267
G1 F1350 X101 Y101 E51.20128
G1 X119 Y101 E51.8299
G1 X119 Y119 E52.45852
G1 X101 Y119 E53.08713
G0 F7500 X100.6 Y119.4
G1 F1350 X100.6 Y100.6 E53.74369
G1 X119.4 Y100.6 E54.40024
G1 X119.4 Y119.4 E55.0568
G1 X100.6 Y119.4 E55.71335
G0 F7500 X100.2 Y119.8
;TYPE:WALL-OUTER
G1 F1350 X100.2 Y100.2 E56.39785
G1 X119.8 Y100.2 E57.08234
G1 X119.8 Y119.8 E57.76683
G1 X100.2 Y119.8 E58.45133
G0 F7500 X100.47 Y119.53
G0 X101.11 Y118.61
G0 X101.39 Y118.61
;TYPE:SKIN
G1 F1350 X101.39 Y101.39 E59.0527
G1 X118.61 Y101.39 E59.65408
G1 X118.61 Y118.61 E60.25546
G1 X101.39 Y118.61 E60.85683
G0 F7500 X101.11 Y118.61
G0 X101.11 Y102.097
G0 X101.549 Y102.097
G1 F1350 X102.097 Y101.549 E60.8839
G0 F7500 X102.662 Y101.549
G1 F1350 X101.549 Y102.662 E60.93887
G0 F7500 X101.549 Y103.228
G1 F1350 X103.228 Y101.549 E61.02179
G0 F7500 X103.794 Y101.549
G1 F1350 X101.549 Y103.794 E61.13267
G0 F7500 X101.549 Y104.359
G1 F1350 X104.359 Y101.549 E61.27145
G0 F7500 X104.925 Y101.549
G1 F1350 X101.549 Y104.925 E61.43819
G0 F7500 X101.549 Y105.491
G1 F1350 X105.491 Y101.549 E61.63288
G0 F7500 X106.056 Y101.549
G1 F1350 X101.549 Y106.056 E61.85547
G0 F7500 X101.549 Y106.622
G1 F1350 X106.622 Y101.549 E62.10602
G0 F7500 X107.188 Y101.549
G1 F1350 X101.549 Y107.188 E62.38453
G0 F7500 X101.549 Y107.753
G1 F1350 X107.753 Y101.549 E62.69094
G0 F7500 X108.319 Y101.549
G1 F1350 X101.549 Y108.319 E63.0253
G0 F7500 X101.549 Y108.885
G1 F1350 X108.885 Y101.549 E63.38761
G0 F7500 X109.45 Y101.549
G1 F1350 X101.549 Y109.45 E63.77783
G0 F7500 X101.549 Y110.016
G1 F1350 X110.016 Y101.549 E64.19601
G0 F7500 X110.582 Y101.549
G1 F1350 X101.549 Y110.582 E64.64214
G0 F7500 X101.549 Y111.147
G1 F1350 X111.147 Y101.549 E65.11617
G0 F7500 X111.713 Y101.549
G1 F1350 X101.549 Y111.713 E65.61816
G0 F7500 X101.549 Y112.279
G1 F1350 X112.279 Y101.549 E66.1481
G0 F7500 X112.845 Y101.549
G1 F1350 X101.549 Y112.845 E66.706
G0 F7500 X101.549 Y113.41
G1 F1350 X113.41 Y101.549 E67.2918
G0 F7500 X113.976 Y101.549
G1 F1350 X101.549 Y113.976 E67.90555
G0 F7500 X101.549 Y114.542
G1 F1350 X114.542 Y101.549 E68.54726
G0 F7500 X115.107 Y101.549
G1 F1350 X101.549 Y115.107 E69.21687
G0 F7500 X101.549 Y115.673
G1 F1350 X115.673 Y101.549 E69.91444
G0 F7500 X116.239 Y101.549
G1 F1350 X101.549 Y116.239 E70.63996
G0 F7500 X101.549 Y116.804
G1 F1350 X116.804 Y101.549 E71.39339
G0 F7500 X117.37 Y101.549
G1 F1350 X101.549 Y117.37 E72.17477
G0 F7500 X101.549 Y117.936
G1 F1350 X117.936 Y101.549 E72.9841
G0 F7500 X118.449 Y101.602
G1 F1350 X101.602 Y118.449 E73.81615
G0 F7500 X102.167 Y118.449
G1 F1350 X118.449 Y102.167 E74.6203
G0 F7500 X118.449 Y102.733
G1 F1350 X102.733 Y118.449 E75.3965
G0 F7500 X103.299 Y118.449
G1 F1350 X118.449 Y103.299 E76.14474
G0 F7500 X118.449 Y103.864
G1 F1350 X103.864 Y118.449 E76.86507
G0 F7500 X104.43 Y118.449
G1 F1350 X118.449 Y104.43 E77.55745
G0 F7500 X118.449 Y104.996
G1 F1350 X104.996 Y118.449 E78.22188
G0 F7500 X105.561 Y118.449
G1 F1350 X118.449 Y105.561 E78.8584
G0 F7500 X118.449 Y106.127
G1 F1350 X106.127 Y118.449 E79.46697
G0 F7500 X106.693 Y118.449
G1 F1350 X118.449 Y106.693 E80.04759
G0 F7500 X118.449 Y107.258
G1 F1350 X107.258 Y118.449 E80.60029
G0 F7500 X107.824 Y118.449
G1 F1350 X118.449 Y107.824 E81.12505
G0 F7500 X118.449 Y108.39
G1 F1350 X108.39 Y118.449 E81.62185
G0 F7500 X108.955 Y118.449
G1 F1350 X118.449 Y108.955 E82.09075
G0 F7500 X118.449 Y109.521
G1 F1350 X109.521 Y118.449 E82.53169
G0 F7500 X110.087 Y118.449
G1 F1350 X118.449 Y110.087 E82.94468
G0 F7500 X118.449 Y110.653
G1 F1350 X110.653 Y118.449 E83.32972
G0 F7500 X111.218 Y118.449
G1 F1350 X118.449 Y111.218 E83.68685
G0 F7500 X118.449 Y111.784
G1 F1350 X111.784 Y118.449 E84.01602
G0 F7500 X112.35 Y118.449
G1 F1350 X118.449 Y112.35 E84.31725
G0 F7500 X118.449 Y112.915
G1 F1350 X112.915 Y118.449 E84.59056
G0 F7500 X113.481 Y118.449
G1 F1350 X118.449 Y113.481 E84.83593
G0 F7500 X118.449 Y114.047
G1 F1350 X114.047 Y118.449 E85.05334
G0 F7500 X114.612 Y118.449
G1 F1350 X118.449 Y114.612 E85.24284
G0 F7500 X118.449 Y115.178
G1 F1350 X115.178 Y118.449 E85.40439
G0 F7500 X115.744 Y118.449
G1 F1350 X118.449 Y115.744 E85.53799
G0 F7500 X118.449 Y116.309
G1 F1350 X116.309 Y118.449 E85.64368
G0 F7500 X116.875 Y118.449
G1 F1350 X118.449 Y116.875 E85.72142
G0 F7500 X118.449 Y117.441
G1 F1350 X117.441 Y118.449 E85.7712
G0 F7500 X118.006 Y118.449
G1 F1350 X118.449 Y118.006 E85.79308
G0 F7500 X119.19 Y118.006
;MESH:NONMESH
G0 F300 X119.19 Y118.006 Z0.6
G0 F7500 X118.818 Y118.818
G0 X101 Y119
;TIME_ELAPSED:134.864101
;LAYER:2
M106 S170
;TYPE:WALL-INNER
;MESH:20mm_cube.stl
G1 F1500 X101 Y101 E86.4217
G1 X119 Y101 E87.05031
G1 X119 Y119 E87.67893
G1 X101 Y119 E88.30755
G0 F9000 X100.6 Y119.4
G1 F1500 X100.6 Y100.6 E88.9641
G1 X119.4 Y100.6 E89.62066
G1 X119.4 Y119.4 E90.27721
G1 X100.6 Y119.4 E90.93377
G0 F9000 X100.2 Y119.8
;TYPE:WALL-OUTER
G1 F1500 X100.2 Y100.2 E91.61826
G1 X119.8 Y100.2 E92.30275
G1 X119.8 Y119.8 E92.98725
G1 X100.2 Y119.8 E93.67174
G0 F9000 X100.47 Y119.53
G0 X101.11 Y118.61
G0 X101.39 Y118.61
;TYPE:SKIN
G1 F1500 X101.39 Y101.39 E94.27312
G1 X118.61 Y101.39 E94.87449
G1 X118.61 Y118.61 E95.47587
G1 X101.39 Y118.61 E96.07725
G0 F9000 X102.044 Y118.449
G1 F1500 X101.549 Y117.954 E96.10169
G0 F9000 X101.549 Y117.388
G1 F1500 X102.61 Y118.449 E96.1541
G0 F9000 X103.176 Y118.449
G1 F1500 X101.549 Y116.823 E96.23443
G0 F9000 X101.549 Y116.257
G1 F1500 X103.741 Y118.449 E96.34269
G0 F9000 X104.307 Y118.449
G1 F1500 X101.549 Y115.691 E96.4789
G0 F9000 X101.549 Y115.126
G1 F1500 X104.873 Y118.449 E96.64305
G0 F9000 X105.438 Y118.449
G1 F1500 X101.549 Y114.56 E96.83512
G0 F9000 X101.549 Y113.994
G1 F1500 X106.004 Y118.449 E97.05515
G0 F9000 X106.57 Y118.449
G1 F1500 X101.549 Y113.429 E97.3031
G0 F9000 X101.549 Y112.863
G1 F1500 X107.135 Y118.449 E97.57899
G0 F9000 X107.701 Y118.449
G1 F1500 X101.549 Y112.297 E97.88283
G0 F9000 X101.549 Y111.732
G1 F1500 X108.267 Y118.449 E98.2146
G0 F9000 X108.832 Y118.449
G1 F1500 X101.549 Y111.166 E98.57429
G0 F9000 X101.549 Y110.6
G1 F1500 X109.398 Y118.449 E98.96195
G0 F9000 X109.964 Y118.449
G1 F1500 X101.549 Y110.035 E99.37753
G0 F9000 X101.549 Y109.469
G1 F1500 X110.529 Y118.449 E99.82104
G0 F9000 X111.095 Y118.449
G1 F1500 X101.549 Y108.903 E100.29251
G0 F9000 X101.549 Y108.337
G1 F1500 X111.661 Y118.449 E100.79193
G0 F9000 X112.227 Y118.449
G1 F1500 X101.549 Y107.772 E101.31927
G0 F9000 X101.549 Y107.206
G1 F1500 X112.792 Y118.449 E101.87455
G0 F9000 X113.358 Y118.449
G1 F1500 X101.549 Y106.64 E102.45778
G0 F9000 X101.549 Y106.075
G1 F1500 X113.924 Y118.449 E103.06895
G0 F9000 X114.489 Y118.449
G1 F1500 X101.549 Y105.509 E103.70804
G0 F9000 X101.549 Y104.943
G1 F1500 X115.055 Y118.449 E104.37508
G0 F9000 X115.621 Y118.449
G1 F1500 X101.549 Y104.378 E105.07006
G0 F9000 X101.549 Y103.812
G1 F1500 X116.186 Y118.449 E105.79296
G0 F9000 X116.752 Y118.449
G1 F1500 X101.549 Y103.246 E106.54382
G0 F9000 X101.549 Y102.681
G1 F1500 X117.318 Y118.449 E107.3226
G0 F9000 X117.883 Y118.449
G1 F1500 X101.549 Y102.115 E108.12932
G0 F9000 X101.549 Y101.549
G1 F1500 X118.449 Y118.449 E108.96399
G0 F9000 X118.449 Y117.883
G1 F1500 X102.115 Y101.549 E109.77071
G0 F9000 X102.681 Y101.549
G1 F1500 X118.449 Y117.318 E110.54949
G0 F9000 X118.449 Y116.752
G1 F1500 X103.246 Y101.549 E111.30035
G0 F9000 X103.812 Y101.549
G1 F1500 X118.449 Y116.186 E112.02325
G0 F9000 X118.449 Y115.621
G1 F1500 X104.378 Y101.549 E112.71823
G0 F9000 X104.943 Y101.549
G1 F1500 X118.449 Y115.055 E113.38527
G0 F9000 X118.449 Y114.489
G1 F1500 X105.509 Y101.549 E114.02436
G0 F9000 X106.075 Y101.549
G1 F1500 X118.449 Y113.924 E114.63553
G0 F9000 X118.449 Y113.358
G1 F1500 X106.64 Y101.549 E115.21876
G0 F9000 X107.206 Y101.549
G1 F1500 X118.449 Y112.792 E115.77404
G0 F9000 X118.449 Y112.227
G1 F1500 X107.772 Y101.549 E116.30139
G0 F9000 X108.337 Y101.549
G1 F1500 X118.449 Y111.661 E116.8008
G0 F9000 X118.449 Y111.095
G1 F1500 X108.903 Y101.549 E117.27227
G0 F9000 X109.469 Y101.549
G1 F1500 X118.449 Y110.529 E117.71578
G0 F9000 X118.449 Y109.964
G1 F1500 X110.035 Y101.549 E118.13136
G0 F9000 X110.6 Y101.549
G1 F1500 X118.449 Y109.398 E118.51902
G0 F9000 X118.449 Y108.832
G1 F1500 X111.166 Y101.549 E118.87871
G0 F9000 X111.732 Y101.549
G1 F1500 X118.449 Y108.267 E119.21048
G0 F9000 X118.449 Y107.701
G1 F1500 X112.297 Y101.549 E119.51432
G0 F9000 X112.863 Y101.549
G1 F1500 X118.449 Y107.135 E119.79021
G0 F9000 X118.449 Y106.57
G1 F1500 X113.429 Y101.549 E120.03817
G0 F9000 X113.994 Y101.549
G1 F1500 X118.449 Y106.004 E120.25819
G0 F9000 X118.449 Y105.438
G1 F1500 X114.56 Y101.549 E120.45027
G0 F9000 X115.126 Y101.549
G1 F1500 X118.449 Y104.873 E120.61441
G0 F9000 X118.449 Y104.307
G1 F1500 X115.691 Y101.549 E120.75062
G0 F9000 X116.257 Y101.549
G1 F1500 X118.449 Y103.741 E120.85888
G0 F9000 X118.449 Y103.176
G1 F1500 X116.823 Y101.549 E120.93921
G0 F9000 X117.388 Y101.549
G1 F1500 X118.449 Y102.61 E120.99162
G0 F9000 X118.449 Y102.044
G1 F1500 X117.954 Y101.549 E121.01606
G0 F9000 X117.954 Y100.81
G1 F1500 E114.51606
;MESH:NONMESH
G0 F300 X117.954 Y100.81 Z0.8
G0 F9000 X101.182 Y101.182
G0 X101 Y119
;TIME_ELAPSED:181.639654
;LAYER:3
M106 S255
;TYPE:WALL-INNER
;MESH:20mm_cube.stl
G1 F1500 E121.01606
G1 X101 Y101 E121.64468
G1 X119 Y101 E122.2733
G1 X119 Y119 E122.90191
G1 X101 Y119 E123.53053
G0 F9000 X100.6 Y119.4
G1 F1500 X100.6 Y100.6 E124.18708
G1 X119.4 Y100.6 E124.84364
G1 X119.4 Y119.4 E125.50019
G1 X100.6 Y119.4 E126.15675
G0 F9000 X100.2 Y119.8
;TYPE:WALL-OUTER
G1 F1500 X100.2 Y100.2 E126.84124
G1 X119.8 Y100.2 E127.52574
G1 X119.8 Y119.8 E128.21023
G1 X100.2 Y119.8 E128.89472
G0 F9000 X100.47 Y119.53
G0 X101.11 Y118.61
G0 X101.39 Y118.61
;TYPE:SKIN
G1 F1500 X101.39 Y101.39 E129.4961
G1 X118.61 Y101.39 E130.09748
G1 X118.61 Y118.61 E130.69885
G1 X101.39 Y118.61 E131.30023
G0 F9000 X101.11 Y118.61
G0 X101.11 Y102.097
G0 X101.549 Y102.097
G1 F1500 X102.097 Y101.549 E131.32729
G0 F9000 X102.662 Y101.549
G1 F1500 X101.549 Y102.662 E131.38226
G0 F9000 X101.549 Y103.228
G1 F1500 X103.228 Y101.549 E131.46519
G0 F9000 X103.794 Y101.549
G1 F1500 X101.549 Y103.794 E131.57607
G0 F9000 X101.549 Y104.359
G1 F1500 X104.359 Y101.549 E131.71485
G0 F9000 X104.925 Y101.549
G1 F1500 X101.549 Y104.925 E131.88159
G0 F9000 X101.549 Y105.491
G1 F1500 X105.491 Y101.549 E132.07628
G0 F9000 X106.056 Y101.549
G1 F1500 X101.549 Y106.056 E132.29887
G0 F9000 X101.549 Y106.622
G1 F1500 X106.622 Y101.549 E132.54942
G0 F9000 X107.188 Y101.549
G1 F1500 X101.549 Y107.188 E132.82792
G0 F9000 X101.549 Y107.753
G1 F1500 X107.753 Y101.549 E133.13433
G0 F9000 X108.319 Y101.549
G1 F1500 X101.549 Y108.319 E133.46869
G0 F9000 X101.549 Y108.885
G1 F1500 X108.885 Y101.549 E133.83101
G0 F9000 X109.45 Y101.549
G1 F1500 X101.549 Y109.45 E134.22123
G0 F9000 X101.549 Y110.016
G1 F1500 X110.016 Y101.549 E134.63941
G0 F9000 X110.582 Y101.549
G1 F1500 X101.549 Y110.582 E135.08553
G0 F9000 X101.549 Y111.147
G1 F1500 X111.147 Y101.549 E135.55957
G0 F9000 X111.713 Y101.549
G1 F1500 X101.549 Y111.713 E136.06156
G0 F9000 X101.549 Y112.279
G1 F1500 X112.279 Y101.549 E136.5915
G0 F9000 X112.845 Y101.549
G1 F1500 X101.549 Y112.845 E137.14939
G0 F9000 X101.549 Y113.41
G1 F1500 X113.41 Y101.549 E137.73519
G0 F9000 X113.976 Y101.549
G1 F1500 X101.549 Y113.976 E138.34895
G0 F9000 X101.549 Y114.542
G1 F1500 X114.542 Y101.549 E138.99066
G0 F9000 X115.107 Y101.549
G1 F1500 X101.549 Y115.107 E139.66027
G0 F9000 X101.549 Y115.673
G1 F1500 X115.673 Y101.549 E140.35784
G0 F9000 X116.239 Y101.549
G1 F1500 X101.549 Y116.239 E141.08336
G0 F9000 X101.549 Y116.804
G1 F1500 X116.804 Y101.549 E141.83678
G0 F9000 X117.37 Y101.549
G1 F1500 X101.549 Y117.37 E142.61816
G0 F9000 X101.549 Y117.936
G1 F1500 X117.936 Y101.549 E143.4275
G0 F9000 X118.449 Y101.602
G1 F1500 X101.602 Y118.449 E144.25955
G0 F9000 X102.167 Y118.449
G1 F1500 X118.449 Y102.167 E145.0637
G0 F9000 X118.449 Y102.733
G1 F1500 X102.733 Y118.449 E145.83989
G0 F9000 X103.299 Y118.449
G1 F1500 X118.449 Y103.299 E146.58813
G0 F9000 X118.449 Y103.864
G1 F1500 X103.864 Y118.449 E147.30847
G0 F9000 X104.43 Y118.449
G1 F1500 X118.449 Y104.43 E148.00085
G0 F9000 X118.449 Y104.996
G1 F1500 X104.996 Y118.449 E148.66528
G0 F9000 X105.561 Y118.449
G1 F1500 X118.449 Y105.561 E149.3018
G0 F9000 X118.449 Y106.127
G1 F1500 X106.127 Y118.449 E149.91037
G0 F9000 X106.693 Y118.449
G1 F1500 X118.449 Y106.693 E150.49098
G0 F9000 X118.449 Y107.258
G1 F1500 X107.258 Y118.449 E151.04369
G0 F9000 X107.824 Y118.449
G1 F1500 X118.449 Y107.824 E151.56845
G0 F9000 X118.449 Y108.39
G1 F1500 X108.39 Y118.449 E152.06525
G0 F9000 X108.955 Y118.449
G1 F1500 X118.449 Y108.955 E152.53415
G0 F9000 X118.449 Y109.521
G1 F1500 X109.521 Y118.449 E152.97509
G0 F9000 X110.087 Y118.449
G1 F1500 X118.449 Y110.087 E153.38808
G0 F9000 X118.449 Y110.653
G1 F1500 X110.653 Y118.449 E153.77311
G0 F9000 X111.218 Y118.449
G1 F1500 X118.449 Y111.218 E154.13024
G0 F9000 X118.449 Y111.784
G1 F1500 X111.784 Y118.449 E154.45942
G0 F9000 X112.35 Y118.449
G1 F1500 X118.449 Y112.35 E154.76064
G0 F9000 X118.449 Y112.915
G1 F1500 X112.915 Y118.449 E155.03396
G0 F9000 X113.481 Y118.449
G1 F1500 X118.449 Y113.481 E155.27932
G0 F9000 X118.449 Y114.047
G1 F1500 X114.047 Y118.449 E155.49673
G0 F9000 X114.612 Y118.449
G1 F1500 X118.449 Y114.612 E155.68624
G0 F9000 X118.449 Y115.178
G1 F1500 X115.178 Y118.449 E155.84779
G0 F9000 X115.744 Y118.449
G1 F1500 X118.449 Y115.744 E155.98138
G0 F9000 X118.449 Y116.309
G1 F1500 X116.309 Y118.449 E156.08708
G0 F9000 X116.875 Y118.449
G1 F1500 X118.449 Y116.875 E156.16481
G0 F9000 X118.449 Y117.441
G1 F1500 X117.441 Y118.449 E156.2146
G0 F9000 X118.006 Y118.449
G1 F1500 X118.449 Y118.006 E156.23648
G0 F9000 X119.19 Y118.006
;MESH:NONMESH
G0 F300 X119.19 Y118.006 Z1
G0 F9000 X118.818 Y118.818
G0 X101 Y119
;TIME_ELAPSED:228.545736
;LAYER:4
;TYPE:WALL-INNER
;MESH:20mm_cube.stl
G1 F1500 X101 Y101 E156.86509
G1 X119 Y101 E157.49371
G1 X119 Y119 E158.12233
G1 X101 Y119 E158.75094
G0 F9000 X100.6 Y119.4
G1 F1500 X100.6 Y100.6 E159.4075
G1 X119.4 Y100.6 E160.06405
G1 X119.4 Y119.4 E160.72061
G1 X100.6 Y119.4 E161.37716
G0 F9000 X100.2 Y119.8
;TYPE:WALL-OUTER
G1 F1500 X100.2 Y100.2 E162.06166
G1 X119.8 Y100.2 E162.74615
G1 X119.8 Y119.8 E163.43064
G1 X100.2 Y119.8 E164.11514
G0 F9000 X100.47 Y119.53
G0 X102.621 Y118.919
;TYPE:FILL
G1 F3000 X118.919 Y114.552 E164.70439
G0 F9000 X118.919 Y117.919
G1 F3000 X102.08 Y101.08 E165.53605
G0 F9000 X105.445 Y101.079
G1 F3000 X101.079 Y117.373 E166.12516
G0 F9000 X101.079 Y117.05
G1 F3000 X102.948 Y118.919 E166.21747
G0 F9000 X106.877 Y118.919
G1 F3000 X111.657 Y101.079 E166.86248
G0 F9000 X110.565 Y101.08
G1 F3000 X118.919 Y109.434 E167.27507
G0 F9000 X118.918 Y108.341
G1 F3000 X101.08 Y113.121 E167.92001
G0 F9000 X101.079 Y108.564
G1 F3000 X111.433 Y118.919 E168.4314
G0 F9000 X113.088 Y118.919
G1 F3000 X117.869 Y101.078 E169.07645
G0 F9000 X118.919 Y102.129
G1 F3000 X101.08 Y106.909 E169.72142
;MESH:NONMESH
G0 F300 X101.08 Y106.909 Z1.2
G0 F9000 X101 Y119
;TIME_ELAPSED:243.430284
;LAYER:5
;TYPE:WALL-INNER
;MESH:20mm_cube.stl
G1 F1500 X101 Y101 E170.35004
G1 X119 Y101 E170.97865
G1 X119 Y119 E171.60727
G1 X101 Y119 E172.23589
G0 F9000 X100.6 Y119.4
G1 F1500 X100.6 Y100.6 E172.89244
G1 X119.4 Y100.6 E173.549
G1 X119.4 Y119.4 E174.20555
G1 X100.6 Y119.4 E174.86211
G0 F9000 X100.2 Y119.8
;TYPE:WALL-OUTER
G1 F1500 X100.2 Y100.2 E175.5466
G1 X119.8 Y100.2 E176.2311
G1 X119.8 Y119.8 E176.91559
G1 X100.2 Y119.8 E177.60008
G0 F9000 X100.47 Y119.53
G0 X103.147 Y118.919
;TYPE:FILL
G1 F3000 X101.079 Y116.85 E177.70224
G0 F9000 X101.079 Y116.828
G1 F3000 X105.299 Y101.078 E178.27168
G0 F9000 X102.279 Y101.08
G1 F3000 X118.919 Y117.72 E179.09351
G0 F9000 X118.919 Y114.698
G1 F3000 X103.165 Y118.919 E179.6631
G0 F9000 X106.73 Y118.92
G1 F3000 X111.511 Y101.079 E180.30815
G0 F9000 X110.764 Y101.08
G1 F3000 X118.919 Y109.235 E180.71091
G0 F9000 X118.918 Y108.487
G1 F3000 X101.079 Y113.267 E181.35588
G0 F9000 X101.079 Y108.365
G1 F3000 X111.633 Y118.919 E181.87713
G0 F9000 X112.942 Y118.919
G1 F3000 X117.723 Y101.079 E182.52215
G0 F9000 X118.918 Y102.275
G1 F3000 X101.08 Y107.055 E183.16708
;MESH:NONMESH
G0 F300 X101.08 Y107.055 Z1.4
G0 F9000 X101 Y119
;TIME_ELAPSED:258.242289
;LAYER:6
;TYPE:WALL-INNER
;MESH:20mm_cube.stl
G1 F1500 X101 Y101 E183.7957
G1 X119 Y101 E184.42432
G1 X119 Y119 E185.05293
G1 X101 Y119 E185.68155
G0 F9000 X100.6 Y119.4
G1 F1500 X100.6 Y100.6 E186.3381
G1 X119.4 Y100.6 E186.99466
G1 X119.4 Y119.4 E187.65122
G1 X100.6 Y119.4 E188.30777
G0 F9000 X100.2 Y119.8
;TYPE:WALL-OUTER
G1 F1500 X100.2 Y100.2 E188.99226
G1 X119.8 Y100.2 E189.67676
G1 X119.8 Y119.8 E190.36125
G1 X100.2 Y119.8 E191.04574
G0 F9000 X100.47 Y119.53
G0 X103.347 Y118.919
;TYPE:FILL
G1 F3000 X101.079 Y116.651 E191.15776
G0 F9000 X101.079 Y116.283
G1 F3000 X105.153 Y101.079 E191.70746
G0 F9000 X102.478 Y101.08
G1 F3000 X118.919 Y117.521 E192.51946
G0 F9000 X118.919 Y114.844
G1 F3000 X103.71 Y118.919 E193.06934
G0 F9000 X106.584 Y118.92
G1 F3000 X111.365 Y101.079 E193.71439
G0 F9000 X110.964 Y101.08
G1 F3000 X118.919 Y109.035 E194.10728
G0 F9000 X118.919 Y108.632
G1 F3000 X101.08 Y113.412 E194.75225
G0 F9000 X101.079 Y108.166
G1 F3000 X111.832 Y118.919 E195.28333
G0 F9000 X112.796 Y118.92
G1 F3000 X117.577 Y101.079 E195.92837
G0 F9000 X118.918 Y102.421
G1 F3000 X101.079 Y107.201 E196.57335
;MESH:NONMESH
G0 F300 X101.079 Y107.201 Z1.6
G0 F9000 X101 Y119
;TIME_ELAPSED:272.982089
;LAYER:7
;TYPE:WALL-INNER
;MESH:20mm_cube.stl
G1 F1500 X101 Y101 E197.20196
G1 X119 Y101 E197.83058
G1 X119 Y119 E198.4592
G1 X101 Y119 E199.08781
G0 F9000 X100.6 Y119.4
G1 F1500 X100.6 Y100.6 E199.74437
G1 X119.4 Y100.6 E200.40092
G1 X119.4 Y119.4 E201.05748
G1 X100.6 Y119.4 E201.71403
G0 F9000 X100.2 Y119.8
;TYPE:WALL-OUTER
G1 F1500 X100.2 Y100.2 E202.39853
G1 X119.8 Y100.2 E203.08302
G1 X119.8 Y119.8 E203.76751
G1 X100.2 Y119.8 E204.45201
G0 F9000 X100.47 Y119.53
G0 X103.548 Y118.919
;TYPE:FILL
G1 F3000 X101.079 Y116.45 E204.57395
G0 F9000 X101.079 Y115.734
G1 F3000 X105.006 Y101.078 E205.10384
G0 F9000 X102.679 Y101.08
G1 F3000 X118.919 Y117.32 E205.90591
G0 F9000 X118.919 Y118.703
G1 F3000 X118.861 Y118.92 E205.91375
G0 F9000 X118.919 Y114.991
G1 F3000 X104.259 Y118.919 E206.44379
G0 F9000 X106.437 Y118.92
G1 F3000 X111.218 Y101.079 E207.08883
G0 F9000 X111.164 Y101.08
G1 F3000 X118.919 Y108.835 E207.47184
G0 F9000 X118.919 Y108.779
G1 F3000 X101.08 Y113.559 E208.11682
G0 F9000 X101.079 Y107.965
G1 F3000 X112.033 Y118.919 E208.65782
G0 F9000 X112.649 Y118.919
G1 F3000 X117.43 Y101.079 E209.30283
G0 F9000 X118.918 Y102.568
G1 F3000 X101.08 Y107.348 E209.94777
G0 F9000 X101.08 Y101.136
G1 F3000 X101.292 Y101.079 E209.95544
;MESH:NONMESH
G0 F300 X101.292 Y101.079 Z1.8
G0 F9000 X101 Y119
;TIME_ELAPSED:288.052237
;LAYER:8
;TYPE:WALL-INNER
;MESH:20mm_cube.stl
G1 F1500 X101 Y101 E210.58406
G1 X119 Y101 E211.21267
G1 X119 Y119 E211.84129
G1 X101 Y119 E212.46991
G0 F9000 X100.6 Y119.4
G1 F1500 X100.6 Y100.6 E213.12646
G1 X119.4 Y100.6 E213.78302
G1 X119.4 Y119.4 E214.43957
G1 X100.6 Y119.4 E215.09613
G0 F9000 X100.2 Y119.8
;TYPE:WALL-OUTER
G1 F1500 X100.2 Y100.2 E215.78062
G1 X119.8 Y100.2 E216.46511
G1 X119.8 Y119.8 E217.14961
G1 X100.2 Y119.8 E217.8341
G0 F9000 X100.47 Y119.53
G0 X103.747 Y118.919
;TYPE:FILL
G1 F3000 X101.079 Y116.251 E217.96587
G0 F9000 X101.079 Y115.19
G1 F3000 X104.86 Y101.079 E218.47605
G0 F9000 X102.879 Y101.08
G1 F3000 X118.919 Y117.12 E219.26825
G0 F9000 X118.919 Y118.158
G1 F3000 X118.715 Y118.919 E219.29576
G0 F9000 X118.918 Y115.137
G1 F3000 X104.803 Y118.919 E219.80609
G0 F9000 X106.292 Y118.919
G1 F3000 X111.072 Y101.078 E220.45113
G0 F9000 X111.364 Y101.08
G1 F3000 X118.919 Y108.635 E220.82426
G0 F9000 X118.919 Y108.926
G1 F3000 X101.08 Y113.705 E221.46923
G0 F9000 X101.079 Y107.765
G1 F3000 X112.232 Y118.919 E222.02008
G0 F9000 X112.503 Y118.92
G1 F3000 X117.284 Y101.079 E222.66513
G0 F9000 X118.918 Y102.714
G1 F3000 X101.079 Y107.494 E223.3101
G0 F9000 X101.08 Y101.282
G1 F3000 X101.837 Y101.079 E223.33747
;MESH:NONMESH
G0 F300 X101.837 Y101.079 Z2
G0 F9000 X101 Y119
;TIME_ELAPSED:303.157045
;LAYER:9
;TYPE:WALL-INNER
;MESH:20mm_cube.stl
G1 F1500 X101 Y101 E223.96609
G1 X119 Y101 E224.59471
G1 X119 Y119 E225.22332
G1 X101 Y119 E225.85194
G0 F9000 X100.6 Y119.4
G1 F1500 X100.6 Y100.6 E226.50849
G1 X119.4 Y100.6 E227.16505
G1 X119.4 Y119.4 E227.8216
G1 X100.6 Y119.4 E228.47816
G0 F9000 X100.2 Y119.8
;TYPE:WALL-OUTER
G1 F1500 X100.2 Y100.2 E229.16265
G1 X119.8 Y100.2 E229.84715
G1 X119.8 Y119.8 E230.53164
G1 X100.2 Y119.8 E231.21613
G0 F9000 X100.47 Y119.53
G0 X103.948 Y118.919
;TYPE:FILL
G1 F3000 X101.079 Y116.05 E231.35783
G0 F9000 X101.079 Y114.641
G1 F3000 X104.713 Y101.079 E231.84817
G0 F9000 X103.079 Y101.08
G1 F3000 X118.919 Y116.92 E232.63048
G0 F9000 X118.919 Y117.61
G1 F3000 X118.568 Y118.919 E232.67781
G0 F9000 X118.918 Y115.284
G1 F3000 X105.352 Y118.919 E233.16829
G0 F9000 X106.144 Y118.92
G1 F3000 X110.925 Y101.078 E233.81338
G0 F9000 X111.565 Y101.08
G1 F3000 X118.919 Y108.434 E234.17658
G0 F9000 X118.919 Y109.073
G1 F3000 X101.08 Y113.852 E234.82154
G0 F9000 X101.079 Y107.641
G1 F3000 X118.918 Y102.861 E235.46651
G0 F9000 X117.137 Y101.079
G1 F3000 X112.356 Y118.92 E236.11156
G0 F9000 X112.433 Y118.919
G1 F3000 X101.079 Y107.565 E236.67232
G0 F9000 X101.08 Y101.429
G1 F3000 X102.386 Y101.079 E236.71954
;MESH:NONMESH
G0 F300 X102.386 Y101.079 Z2.2
G0 F9000 X101 Y119
;TIME_ELAPSED:318.276461
;LAYER:10
;TYPE:WALL-INNER
;MESH:20mm_cube.stl
G1 F1500 X101 Y101 E237.34816
G1 X119 Y101 E237.97677
G1 X119 Y119 E238.60539
G1 X101 Y119 E239.23401
G0 F9000 X100.6 Y119.4
G1 F1500 X100.6 Y100.6 E239.89056
G1 X119.4 Y100.6 E240.54712
G1 X119.4 Y119.4 E241.20367
G1 X100.6 Y119.4 E241.86023
G0 F9000 X100.2 Y119.8
;TYPE:WALL-OUTER
G1 F1500 X100.2 Y100.2 E242.54472
G1 X119.8 Y100.2 E243.22922
G1 X119.8 Y119.8 E243.91371
G1 X100.2 Y119.8 E244.5982
G0 F9000 X100.47 Y119.53
G0 X104.147 Y118.919
;TYPE:FILL
G1 F3000 X101.079 Y115.85 E244.74975
G0 F9000 X101.079 Y114.097
G1 F3000 X104.567 Y101.079 E245.22042
G0 F9000 X103.279 Y101.08
G1 F3000 X118.919 Y116.72 E245.99286
G0 F9000 X118.919 Y117.065
G1 F3000 X118.422 Y118.92 E246.05993
G0 F9000 X118.918 Y115.43
G1 F3000 X105.898 Y118.919 E246.53067
G0 F9000 X105.999 Y118.919
G1 F3000 X110.779 Y101.079 E247.17567
G0 F9000 X111.764 Y101.08
G1 F3000 X118.919 Y108.235 E247.52905
G0 F9000 X118.919 Y109.219
G1 F3000 X101.08 Y113.998 E248.17401
G0 F9000 X101.08 Y107.787
G1 F3000 X118.919 Y103.007 E248.81898
G0 F9000 X116.991 Y101.079
G1 F3000 X112.21 Y118.92 E249.46403
G0 F9000 X112.632 Y118.919
G1 F3000 X101.079 Y107.365 E250.03464
G0 F9000 X101.079 Y101.575
G1 F3000 X102.93 Y101.079 E250.10157
;MESH:NONMESH
G0 F300 X102.93 Y101.079 Z2.4
G0 F9000 X101 Y119
;TIME_ELAPSED:333.408380
;LAYER:11
;TYPE:WALL-INNER
;MESH:20mm_cube.stl
G1 F1500 X101 Y101 E250.73018
G1 X119 Y101 E251.3588
G1 X119 Y119 E251.98742
G1 X101 Y119 E252.61603
G0 F9000 X100.6 Y119.4
G1 F1500 X100.6 Y100.6 E253.27259
G1 X119.4 Y100.6 E253.92914
G1 X119.4 Y119.4 E254.5857
G1 X100.6 Y119.4 E255.24225
G0 F9000 X100.2 Y119.8
;TYPE:WALL-OUTER
G1 F1500 X100.2 Y100.2 E255.92675
G1 X119.8 Y100.2 E256.61124
G1 X119.8 Y119.8 E257.29573
G1 X100.2 Y119.8 E257.98023
G0 F9000 X100.47 Y119.53
G0 X104.348 Y118.919
;TYPE:FILL
G1 F3000 X101.079 Y115.65 E258.14168
G0 F9000 X101.08 Y114.145
G1 F3000 X118.919 Y109.366 E258.78664
G0 F9000 X118.919 Y108.034
G1 F3000 X111.965 Y101.08 E259.13009
G0 F9000 X110.632 Y101.078
G1 F3000 X105.852 Y118.919 E259.77513
G0 F9000 X106.446 Y118.919
G1 F3000 X118.918 Y115.577 E260.22606
G0 F9000 X118.275 Y118.92
G1 F3000 X118.919 Y116.516 E260.31297
G0 F9000 X118.919 Y116.519
G1 F3000 X103.48 Y101.08 E261.07549
G0 F9000 X103.479 Y101.079
G1 F3000 X101.079 Y101.722 E261.16226
G0 F9000 X104.42 Y101.079
G1 F3000 X101.079 Y113.548 E261.61308
G0 F9000 X101.08 Y107.934
G1 F3000 X118.919 Y103.154 E262.25805
G0 F9000 X116.844 Y101.079
G1 F3000 X112.063 Y118.92 E262.90309
G0 F9000 X112.833 Y118.919
G1 F3000 X101.079 Y107.164 E263.48363
;MESH:NONMESH
G0 F300 X101.079 Y107.164 Z2.6
G0 F9000 X101 Y119
;TIME_ELAPSED:348.433766
;LAYER:12
;TYPE:WALL-INNER
;MESH:20mm_cube.stl
G1 F1500 X101 Y101 E264.11225
G1 X119 Y101 E264.74087
G1 X119 Y119 E265.36948
G1 X101 Y119 E265.9981
G0 F9000 X100.6 Y119.4
G1 F1500 X100.6 Y100.6 E266.65466
G1 X119.4 Y100.6 E267.31121
G1 X119.4 Y119.4 E267.96777
G1 X100.6 Y119.4 E268.62432
G0 F9000 X100.2 Y119.8
;TYPE:WALL-OUTER
G1 F1500 X100.2 Y100.2 E269.30881
G1 X119.8 Y100.2 E269.99331
G1 X119.8 Y119.8 E270.6778
G1 X100.2 Y119.8 E271.3623
G0 F9000 X100.47 Y119.53
G0 X104.547 Y118.919
;TYPE:FILL
G1 F3000 X101.079 Y115.45 E271.5336
G0 F9000 X101.08 Y114.291
G1 F3000 X118.918 Y109.512 E272.17853
G0 F9000 X118.919 Y107.835
G1 F3000 X112.164 Y101.08 E272.51215
G0 F9000 X110.486 Y101.079
G1 F3000 X105.706 Y118.919 E273.15716
G0 F9000 X106.991 Y118.919
G1 F3000 X118.919 Y115.723 E273.58841
G0 F9000 X118.919 Y115.972
G1 F3000 X118.129 Y118.92 E273.695
G0 F9000 X118.919 Y116.32
G1 F3000 X103.679 Y101.08 E274.44768
G0 F9000 X104.024 Y101.079
G1 F3000 X101.079 Y101.868 E274.55416
G0 F9000 X104.274 Y101.079
G1 F3000 X101.079 Y113.002 E274.98524
G0 F9000 X101.08 Y108.08
G1 F3000 X118.919 Y103.3 E275.63021
G0 F9000 X116.698 Y101.078
G1 F3000 X111.917 Y118.92 E276.27529
G0 F9000 X113.033 Y118.919
G1 F3000 X101.079 Y106.965 E276.86568
;MESH:NONMESH
G0 F300 X101.079 Y106.965 Z2.8
G0 F9000 X101 Y119
;TIME_ELAPSED:363.544100
;LAYER:13
;TYPE:WALL-INNER
;MESH:20mm_cube.stl
G1 F1500 X101 Y101 E277.4943
G1 X119 Y101 E278.12292
G1 X119 Y119 E278.75153
G1 X101 Y119 E279.38015
G0 F9000 X100.6 Y119.4
G1 F1500 X100.6 Y100.6 E280.03671
G1 X119.4 Y100.6 E280.69326
G1 X119.4 Y119.4 E281.34982
G1 X100.6 Y119.4 E282.00637
G0 F9000 X100.2 Y119.8
;TYPE:WALL-OUTER
G1 F1500 X100.2 Y100.2 E282.69086
G1 X119.8 Y100.2 E283.37536
G1 X119.8 Y119.8 E284.05985
G1 X100.2 Y119.8 E284.74435
G0 F9000 X100.47 Y119.53
G0 X104.747 Y118.919
;TYPE:FILL
G1 F3000 X101.079 Y115.251 E284.9255
G0 F9000 X101.079 Y114.437
G1 F3000 X118.918 Y109.658 E285.57047
G0 F9000 X118.919 Y107.635
G1 F3000 X112.364 Y101.08 E285.89421
G0 F9000 X110.34 Y101.079
G1 F3000 X105.56 Y118.92 E286.53925
G0 F9000 X107.535 Y118.919
G1 F3000 X118.919 Y115.869 E286.95083
G0 F9000 X118.919 Y116.121
G1 F3000 X103.878 Y101.08 E287.69369
G0 F9000 X104.129 Y101.078
G1 F3000 X101.079 Y112.458 E288.10514
G0 F9000 X101.08 Y108.226
G1 F3000 X118.918 Y103.446 E288.75008
G0 F9000 X116.552 Y101.079
G1 F3000 X111.771 Y118.919 E289.39509
G0 F9000 X113.232 Y118.919
G1 F3000 X101.079 Y106.766 E289.99532
G0 F9000 X101.08 Y102.014
G1 F3000 X104.569 Y101.079 E290.12146
G0 F9000 X118.919 Y115.427
G1 F3000 X117.983 Y118.92 E290.24775
;MESH:NONMESH
G0 F300 X117.983 Y118.92 Z3
G0 F9000 X101 Y119
;TIME_ELAPSED:379.011018
;LAYER:14
;TYPE:WALL-INNER
;MESH:20mm_cube.stl
G1 F1500 X101 Y101 E290.87637
G1 X119 Y101 E291.50499
G1 X119 Y119 E292.1336
G1 X101 Y119 E292.76222
G0 F9000 X100.6 Y119.4
G1 F1500 X100.6 Y100.6 E293.41877
G1 X119.4 Y100.6 E294.07533
G1 X119.4 Y119.4 E294.73188
G1 X100.6 Y119.4 E295.38844
G0 F9000 X100.2 Y119.8
;TYPE:WALL-OUTER
G1 F1500 X100.2 Y100.2 E296.07293
G1 X119.8 Y100.2 E296.75743
G1 X119.8 Y119.8 E297.44192
G1 X100.2 Y119.8 E298.12641
G0 F9000 X100.47 Y119.53
G0 X104.948 Y118.919
;TYPE:FILL
G1 F3000 X101.079 Y115.05 E298.3175
G0 F9000 X101.079 Y114.584
G1 F3000 X118.918 Y109.805 E298.96246
G0 F9000 X118.919 Y107.434
G1 F3000 X112.565 Y101.08 E299.27628
G0 F9000 X110.193 Y101.079
G1 F3000 X105.413 Y118.92 E299.92132
G0 F9000 X108.084 Y118.919
G1 F3000 X118.919 Y116.016 E300.31305
G0 F9000 X118.919 Y115.92
G1 F3000 X104.079 Y101.08 E301.04598
G0 F9000 X103.982 Y101.078
G1 F3000 X101.079 Y111.909 E301.43759
G0 F9000 X101.08 Y108.373
G1 F3000 X118.919 Y103.593 E302.08256
G0 F9000 X116.405 Y101.079
G1 F3000 X111.624 Y118.919 E302.72757
G0 F9000 X113.433 Y118.919
G1 F3000 X101.079 Y106.565 E303.33772
G0 F9000 X101.08 Y102.161
G1 F3000 X105.118 Y101.079 E303.48372
G0 F9000 X118.919 Y114.878
G1 F3000 X117.836 Y118.92 E303.62985
;MESH:NONMESH
G0 F300 X117.836 Y118.92 Z3.2
G0 F9000 X101 Y119
;TIME_ELAPSED:394.451570
;LAYER:15
;TYPE:WALL-INNER
;MESH:20mm_cube.stl
G1 F1500 X101 Y101 E304.25847
G1 X119 Y101 E304.88709
G1 X119 Y119 E305.5157
G1 X101 Y119 E306.14432
G0 F9000 X100.6 Y119.4
G1 F1500 X100.6 Y100.6 E306.80088
G1 X119.4 Y100.6 E307.45743
G1 X119.4 Y119.4 E308.11399
G1 X100.6 Y119.4 E308.77054
G0 F9000 X100.2 Y119.8
;TYPE:WALL-OUTER
G1 F1500 X100.2 Y100.2 E309.45503
G1 X119.8 Y100.2 E310.13953
G1 X119.8 Y119.8 E310.82402
G1 X100.2 Y119.8 E311.50852
G0 F9000 X100.47 Y119.53
G0 X105.147 Y118.919
;TYPE:FILL
G1 F3000 X101.079 Y114.851 E311.70943
G0 F9000 X101.08 Y114.73
G1 F3000 X118.919 Y109.95 E312.3544
G0 F9000 X118.919 Y107.235
G1 F3000 X112.764 Y101.08 E312.65839
G0 F9000 X110.047 Y101.079
G1 F3000 X105.267 Y118.92 E313.30343
G0 F9000 X108.629 Y118.919
G1 F3000 X118.919 Y116.162 E313.67546
G0 F9000 X118.919 Y115.72
G1 F3000 X104.279 Y101.08 E314.39851
G0 F9000 X103.835 Y101.078
G1 F3000 X101.079 Y111.365 E314.77044
G0 F9000 X101.08 Y108.519
G1 F3000 X118.918 Y103.739 E315.41537
G0 F9000 X116.259 Y101.079
G1 F3000 X111.478 Y118.919 E316.06039
G0 F9000 X113.632 Y118.919
G1 F3000 X101.079 Y106.365 E316.68039
G0 F9000 X101.08 Y102.307
G1 F3000 X105.662 Y101.079 E316.84606
G0 F9000 X118.919 Y114.333
G1 F3000 X117.69 Y118.92 E317.0119
;MESH:NONMESH
G0 F300 X117.69 Y118.92 Z3.4
G0 F9000 X101 Y119
;TIME_ELAPSED:409.939765
;LAYER:16
;TYPE:WALL-INNER
;MESH:20mm_cube.stl
G1 F1500 X101 Y101 E317.64051
G1 X119 Y101 E318.26913
G1 X119 Y119 E318.89775
G1 X101 Y119 E319.52636
G0 F9000 X100.6 Y119.4
G1 F1500 X100.6 Y100.6 E320.18292
G1 X119.4 Y100.6 E320.83947
G1 X119.4 Y119.4 E321.49603
G1 X100.6 Y119.4 E322.15258
G0 F9000 X100.2 Y119.8
;TYPE:WALL-OUTER
G1 F1500 X100.2 Y100.2 E322.83708
G1 X119.8 Y100.2 E323.52157
G1 X119.8 Y119.8 E324.20607
G1 X100.2 Y119.8 E324.89056
G0 F9000 X100.47 Y119.53
G0 X105.12 Y118.92
;TYPE:FILL
G1 F3000 X109.9 Y101.079 E325.5356
G0 F9000 X112.965 Y101.08
G1 F3000 X118.919 Y107.034 E325.82966
G0 F9000 X118.919 Y110.097
G1 F3000 X101.08 Y114.877 E326.47463
G0 F9000 X101.079 Y114.65
G1 F3000 X105.348 Y118.919 E326.68547
G0 F9000 X109.177 Y118.919
G1 F3000 X118.919 Y116.309 E327.03769
G0 F9000 X118.919 Y115.52
G1 F3000 X104.479 Y101.08 E327.75086
G0 F9000 X103.688 Y101.078
G1 F3000 X101.079 Y110.816 E328.10294
G0 F9000 X101.08 Y108.666
G1 F3000 X118.918 Y103.886 E328.74788
G0 F9000 X116.112 Y101.079
G1 F3000 X111.331 Y118.919 E329.39289
G0 F9000 X113.833 Y118.919
G1 F3000 X101.079 Y106.165 E330.0228
G0 F9000 X101.08 Y102.454
G1 F3000 X106.211 Y101.079 E330.20831
G0 F9000 X118.919 Y113.784
G1 F3000 X117.543 Y118.92 E330.394
;MESH:NONMESH
G0 F300 X117.543 Y118.92 Z3.6
G0 F9000 X101 Y119
;TIME_ELAPSED:425.471789
;LAYER:17
;TYPE:WALL-INNER
;MESH:20mm_cube.stl
G1 F1500 X101 Y101 E331.02262
G1 X119 Y101 E331.65123
G1 X119 Y119 E332.27985
G1 X101 Y119 E332.90847
G0 F9000 X100.6 Y119.4
G1 F1500 X100.6 Y100.6 E333.56502
G1 X119.4 Y100.6 E334.22158
G1 X119.4 Y119.4 E334.87813
G1 X100.6 Y119.4 E335.53469
G0 F9000 X100.2 Y119.8
;TYPE:WALL-OUTER
G1 F1500 X100.2 Y100.2 E336.21918
G1 X119.8 Y100.2 E336.90367
G1 X119.8 Y119.8 E337.58817
G1 X100.2 Y119.8 E338.27266
G0 F9000 X100.47 Y119.53
G0 X104.974 Y118.92
;TYPE:FILL
G1 F3000 X109.754 Y101.078 E338.91773
G0 F9000 X106.755 Y101.079
G1 F3000 X101.08 Y102.6 E339.12292
G0 F9000 X103.542 Y101.079
G1 F3000 X101.079 Y110.271 E339.45525
G0 F9000 X101.079 Y108.812
G1 F3000 X118.918 Y104.032 E340.10023
G0 F9000 X118.919 Y106.835
G1 F3000 X113.164 Y101.08 E340.38446
G0 F9000 X115.966 Y101.079
G1 F3000 X111.185 Y118.92 E341.02951
G0 F9000 X109.723 Y118.919
G1 F3000 X118.919 Y116.455 E341.36199
G0 F9000 X118.919 Y115.32
G1 F3000 X104.679 Y101.08 E342.06528
G0 F9000 X101.079 Y105.965
G1 F3000 X114.032 Y118.919 E342.70504
G0 F9000 X117.397 Y118.919
G1 F3000 X118.919 Y113.24 E342.91037
G0 F9000 X118.919 Y110.243
G1 F3000 X101.08 Y115.023 E343.55534
G0 F9000 X101.079 Y114.45
G1 F3000 X105.547 Y118.919 E343.77603
;MESH:NONMESH
G0 F300 X105.547 Y118.919 Z3.8
G0 F9000 X101 Y119
;TIME_ELAPSED:440.698348
;LAYER:18
;TYPE:WALL-INNER
;MESH:20mm_cube.stl
G1 F1500 X101 Y101 E344.40465
G1 X119 Y101 E345.03327
G1 X119 Y119 E345.66188
G1 X101 Y119 E346.2905
G0 F9000 X100.6 Y119.4
G1 F1500 X100.6 Y100.6 E346.94706
G1 X119.4 Y100.6 E347.60361
G1 X119.4 Y119.4 E348.26017
G1 X100.6 Y119.4 E348.91672
G0 F9000 X100.2 Y119.8
;TYPE:WALL-OUTER
G1 F1500 X100.2 Y100.2 E349.60121
G1 X119.8 Y100.2 E350.28571
G1 X119.8 Y119.8 E350.9702
G1 X100.2 Y119.8 E351.6547
G0 F9000 X100.47 Y119.53
G0 X104.827 Y118.92
;TYPE:FILL
G1 F3000 X109.607 Y101.079 E352.29973
G0 F9000 X107.304 Y101.079
G1 F3000 X101.08 Y102.747 E352.52477
G0 F9000 X103.395 Y101.079
G1 F3000 X101.079 Y109.723 E352.83729
G0 F9000 X101.079 Y108.959
G1 F3000 X118.918 Y104.179 E353.48226
G0 F9000 X118.919 Y106.634
G1 F3000 X113.365 Y101.08 E353.75657
G0 F9000 X115.819 Y101.079
G1 F3000 X111.038 Y118.92 E354.40161
G0 F9000 X110.272 Y118.919
G1 F3000 X118.919 Y116.602 E354.71425
G0 F9000 X118.919 Y115.119
G1 F3000 X104.88 Y101.08 E355.40762
G0 F9000 X101.079 Y105.764
G1 F3000 X114.233 Y118.919 E356.0573
G0 F9000 X117.25 Y118.919
G1 F3000 X118.919 Y112.691 E356.28248
G0 F9000 X118.919 Y110.39
G1 F3000 X101.08 Y115.17 E356.92745
G0 F9000 X101.079 Y114.25
G1 F3000 X105.748 Y118.919 E357.15804
;MESH:NONMESH
G0 F300 X105.748 Y118.919 Z4
G0 F9000 X101 Y119
;TIME_ELAPSED:455.832128
;LAYER:19
;TYPE:WALL-INNER
;MESH:20mm_cube.stl
G1 F1500 X101 Y101 E357.78666
G1 X119 Y101 E358.41528
G1 X119 Y119 E359.04389
G1 X101 Y119 E359.67251
G0 F9000 X100.6 Y119.4
G1 F1500 X100.6 Y100.6 E360.32907
G1 X119.4 Y100.6 E360.98562
G1 X119.4 Y119.4 E361.64218
G1 X100.6 Y119.4 E362.29873
G0 F9000 X100.2 Y119.8
;TYPE:WALL-OUTER
G1 F1500 X100.2 Y100.2 E362.98322
G1 X119.8 Y100.2 E363.66772
G1 X119.8 Y119.8 E364.35221
G1 X100.2 Y119.8 E365.0367
G0 F9000 X100.47 Y119.53
G0 X104.681 Y118.919
;TYPE:FILL
G1 F3000 X109.461 Y101.078 E365.68174
G0 F9000 X107.849 Y101.079
G1 F3000 X101.08 Y102.893 E365.92648
G0 F9000 X101.079 Y105.565
G1 F3000 X114.433 Y118.919 E366.58602
G0 F9000 X117.104 Y118.919
G1 F3000 X118.919 Y112.146 E366.8309
G0 F9000 X118.919 Y110.536
G1 F3000 X101.08 Y115.316 E367.47587
G0 F9000 X101.079 Y114.05
G1 F3000 X105.947 Y118.919 E367.71632
G0 F9000 X110.816 Y118.919
G1 F3000 X118.918 Y116.748 E368.00925
G0 F9000 X118.919 Y114.92
G1 F3000 X105.079 Y101.08 E368.69279
G0 F9000 X103.249 Y101.079
G1 F3000 X101.079 Y109.177 E368.98557
G0 F9000 X101.079 Y109.105
G1 F3000 X118.919 Y104.325 E369.63058
G0 F9000 X118.919 Y106.435
G1 F3000 X113.564 Y101.08 E369.89506
G0 F9000 X115.673 Y101.079
G1 F3000 X110.892 Y118.92 E370.5401
;MESH:NONMESH
G0 F300 X110.892 Y118.92 Z4.2
G0 F9000 X101 Y119
;TIME_ELAPSED:470.928843
;LAYER:20
;TYPE:WALL-INNER
;MESH:20mm_cube.stl
G1 F1500 X101 Y101 E371.16872
G1 X119 Y101 E371.79734
G1 X119 Y119 E372.42595
G1 X101 Y119 E373.05457
G0 F9000 X100.6 Y119.4
G1 F1500 X100.6 Y100.6 E373.71112
G1 X119.4 Y100.6 E374.36768
G1 X119.4 Y119.4 E375.02423
G1 X100.6 Y119.4 E375.68079
G0 F9000 X100.2 Y119.8
;TYPE:WALL-OUTER
G1 F1500 X100.2 Y100.2 E376.36528
G1 X119.8 Y100.2 E377.04978
G1 X119.8 Y119.8 E377.73427
G1 X100.2 Y119.8 E378.41876
G0 F9000 X100.47 Y119.53
G0 X104.535 Y118.919
;TYPE:FILL
G1 F3000 X109.315 Y101.079 E379.06377
G0 F9000 X108.394 Y101.079
G1 F3000 X101.079 Y103.039 E379.32824
G0 F9000 X101.079 Y105.365
G1 F3000 X114.632 Y118.919 E379.99763
G0 F9000 X116.958 Y118.92
G1 F3000 X118.919 Y111.602 E380.26222
G0 F9000 X118.918 Y110.682
G1 F3000 X101.08 Y115.462 E380.90716
G0 F9000 X101.079 Y113.851
G1 F3000 X106.147 Y118.919 E381.15746
G0 F9000 X110.746 Y118.92
G1 F3000 X115.527 Y101.079 E381.80251
G0 F9000 X113.764 Y101.08
G1 F3000 X118.919 Y106.235 E382.05711
G0 F9000 X118.919 Y104.471
G1 F3000 X101.08 Y109.251 E382.70208
G0 F9000 X101.079 Y108.632
G1 F3000 X103.103 Y101.079 E382.97516
G0 F9000 X105.279 Y101.08
G1 F3000 X118.919 Y114.721 E383.64885
G0 F9000 X118.919 Y116.894
G1 F3000 X111.361 Y118.919 E383.9221
;MESH:NONMESH
G0 F300 X111.361 Y118.919 Z4.4
G0 F9000 X101 Y119
;TIME_ELAPSED:486.001489
;LAYER:21
;TYPE:WALL-INNER
;MESH:20mm_cube.stl
G1 F1500 X101 Y101 E384.55072
G1 X119 Y101 E385.17934
G1 X119 Y119 E385.80795
G1 X101 Y119 E386.43657
G0 F9000 X100.6 Y119.4
G1 F1500 X100.6 Y100.6 E387.09313
G1 X119.4 Y100.6 E387.74968
G1 X119.4 Y119.4 E388.40624
G1 X100.6 Y119.4 E389.06279
G0 F9000 X100.2 Y119.8
;TYPE:WALL-OUTER
G1 F1500 X100.2 Y100.2 E389.74728
G1 X119.8 Y100.2 E390.43178
G1 X119.8 Y119.8 E391.11627
G1 X100.2 Y119.8 E391.80076
G0 F9000 X100.47 Y119.53
G0 X104.388 Y118.919
;TYPE:FILL
G1 F3000 X109.168 Y101.079 E392.44577
G0 F9000 X108.943 Y101.079
G1 F3000 X101.079 Y103.186 E392.73009
G0 F9000 X101.079 Y105.165
G1 F3000 X114.833 Y118.919 E393.40939
G0 F9000 X116.811 Y118.92
G1 F3000 X118.919 Y111.053 E393.69382
G0 F9000 X118.918 Y110.829
G1 F3000 X101.08 Y115.609 E394.33876
G0 F9000 X101.079 Y113.65
G1 F3000 X106.348 Y118.919 E394.59898
G0 F9000 X110.599 Y118.92
G1 F3000 X115.38 Y101.079 E395.24403
G0 F9000 X113.965 Y101.08
G1 F3000 X118.919 Y106.034 E395.4887
G0 F9000 X118.919 Y104.618
G1 F3000 X101.08 Y109.398 E396.13368
G0 F9000 X101.079 Y108.084
G1 F3000 X102.956 Y101.079 E396.38694
G0 F9000 X105.479 Y101.08
G1 F3000 X118.919 Y114.52 E397.05073
G0 F9000 X118.919 Y117.041
G1 F3000 X111.909 Y118.919 E397.30417
;MESH:NONMESH
G0 F300 X111.909 Y118.919 Z4.6
G0 F9000 X101 Y119
;TIME_ELAPSED:501.012810
;LAYER:22
;TYPE:WALL-INNER
;MESH:20mm_cube.stl
G1 F1500 X101 Y101 E397.93279
G1 X119 Y101 E398.56141
G1 X119 Y119 E399.19002
G1 X101 Y119 E399.81864
G0 F9000 X100.6 Y119.4
G1 F1500 X100.6 Y100.6 E400.47519
G1 X119.4 Y100.6 E401.13175
G1 X119.4 Y119.4 E401.7883
G1 X100.6 Y119.4 E402.44486
G0 F9000 X100.2 Y119.8
;TYPE:WALL-OUTER
G1 F1500 X100.2 Y100.2 E403.12935
G1 X119.8 Y100.2 E403.81385
G1 X119.8 Y119.8 E404.49834
G1 X100.2 Y119.8 E405.18283
G0 F9000 X100.47 Y119.53
G0 X104.242 Y118.919
;TYPE:FILL
G1 F3000 X109.022 Y101.079 E405.82784
G0 F9000 X109.488 Y101.079
G1 F3000 X101.079 Y103.332 E406.13186
G0 F9000 X101.079 Y104.965
G1 F3000 X115.032 Y118.919 E406.82101
G0 F9000 X116.665 Y118.92
G1 F3000 X118.919 Y110.508 E407.12515
G0 F9000 X118.918 Y110.975
G1 F3000 X101.08 Y115.755 E407.77009
G0 F9000 X101.079 Y113.451
G1 F3000 X106.547 Y118.919 E408.04014
G0 F9000 X110.453 Y118.919
G1 F3000 X115.234 Y101.079 E408.68516
G0 F9000 X114.164 Y101.08
G1 F3000 X118.919 Y105.835 E408.92
G0 F9000 X118.919 Y104.764
G1 F3000 X101.08 Y109.544 E409.56497
G0 F9000 X101.079 Y107.539
G1 F3000 X102.81 Y101.079 E409.79853
G0 F9000 X105.679 Y101.08
G1 F3000 X118.919 Y114.32 E410.45244
G0 F9000 X118.919 Y117.187
G1 F3000 X112.454 Y118.919 E410.68618
;MESH:NONMESH
G0 F300 X112.454 Y118.919 Z4.8
G0 F9000 X101 Y119
;TIME_ELAPSED:516.073117
;LAYER:23
;TYPE:WALL-INNER
;MESH:20mm_cube.stl
G1 F1500 X101 Y101 E411.3148
G1 X119 Y101 E411.94341
G1 X119 Y119 E412.57203
G1 X101 Y119 E413.20065
G0 F9000 X100.6 Y119.4
G1 F1500 X100.6 Y100.6 E413.8572
G1 X119.4 Y100.6 E414.51376
G1 X119.4 Y119.4 E415.17031
G1 X100.6 Y119.4 E415.82687
G0 F9000 X100.2 Y119.8
;TYPE:WALL-OUTER
G1 F1500 X100.2 Y100.2 E416.51136
G1 X119.8 Y100.2 E417.19586
G1 X119.8 Y119.8 E417.88035
G1 X100.2 Y119.8 E418.56484
G0 F9000 X100.47 Y119.53
G0 X104.095 Y118.919
;TYPE:FILL
G1 F3000 X108.875 Y101.079 E419.20985
G0 F9000 X110.036 Y101.079
G1 F3000 X101.079 Y103.479 E419.53369
G0 F9000 X101.079 Y104.764
G1 F3000 X115.233 Y118.919 E420.23276
G0 F9000 X116.518 Y118.92
G1 F3000 X118.919 Y109.959 E420.55675
G0 F9000 X118.918 Y111.122
G1 F3000 X101.08 Y115.902 E421.20168
G0 F9000 X101.079 Y113.25
G1 F3000 X106.748 Y118.919 E421.48167
G0 F9000 X110.306 Y118.919
G1 F3000 X115.087 Y101.078 E422.12672
G0 F9000 X114.365 Y101.08
G1 F3000 X118.919 Y105.634 E422.35163
G0 F9000 X118.919 Y104.911
G1 F3000 X101.08 Y109.691 E422.99661
G0 F9000 X101.079 Y106.991
G1 F3000 X102.663 Y101.079 E423.21035
G0 F9000 X105.88 Y101.08
G1 F3000 X118.919 Y114.119 E423.85433
G0 F9000 X118.919 Y117.334
G1 F3000 X113.003 Y118.919 E424.06823
;MESH:NONMESH
G0 F300 X113.003 Y118.919 Z5
G0 F9000 X101 Y119
;TIME_ELAPSED:531.186714
;LAYER:24
;TYPE:WALL-INNER
;MESH:20mm_cube.stl
G1 F1500 X101 Y101 E424.69684
G1 X119 Y101 E425.32546
G1 X119 Y119 E425.95407
G1 X101 Y119 E426.58269
G0 F9000 X100.6 Y119.4
G1 F1500 X100.6 Y100.6 E427.23925
G1 X119.4 Y100.6 E427.8958
G1 X119.4 Y119.4 E428.55236
G1 X100.6 Y119.4 E429.20891
G0 F9000 X100.2 Y119.8
;TYPE:WALL-OUTER
G1 F1500 X100.2 Y100.2 E429.89341
G1 X119.8 Y100.2 E430.5779
G1 X119.8 Y119.8 E431.26239
G1 X100.2 Y119.8 E431.94689
G0 F9000 X100.47 Y119.53
G0 X103.949 Y118.92
;TYPE:FILL
G1 F3000 X108.729 Y101.079 E432.59192
G0 F9000 X110.581 Y101.079
G1 F3000 X101.08 Y103.625 E432.93544
G0 F9000 X101.079 Y104.565
G1 F3000 X115.433 Y118.919 E433.64436
G0 F9000 X116.372 Y118.92
G1 F3000 X118.919 Y109.414 E433.98805
G0 F9000 X118.919 Y111.268
G1 F3000 X101.079 Y116.048 E434.63306
G0 F9000 X101.079 Y113.05
G1 F3000 X106.947 Y118.919 E434.92289
G0 F9000 X110.16 Y118.919
G1 F3000 X114.941 Y101.079 E435.56791
G0 F9000 X114.564 Y101.08
G1 F3000 X118.919 Y105.435 E435.783
G0 F9000 X118.918 Y105.057
G1 F3000 X101.08 Y109.837 E436.42793
G0 F9000 X101.079 Y106.446
G1 F3000 X102.518 Y101.078 E436.62202
G0 F9000 X106.079 Y101.08
G1 F3000 X118.919 Y113.92 E437.25617
G0 F9000 X118.919 Y117.48
G1 F3000 X113.548 Y118.919 E437.45036
;MESH:NONMESH
G0 F300 X113.548 Y118.919 Z5.2
G0 F9000 X101 Y119
;TIME_ELAPSED:546.320738
;LAYER:25
;TYPE:WALL-INNER
;MESH:20mm_cube.stl
G1 F1500 X101 Y101 E438.07898
G1 X119 Y101 E438.70759
G1 X119 Y119 E439.33621
G1 X101 Y119 E439.96483
G0 F9000 X100.6 Y119.4
G1 F1500 X100.6 Y100.6 E440.62138
G1 X119.4 Y100.6 E441.27794
G1 X119.4 Y119.4 E441.93449
G1 X100.6 Y119.4 E442.59105
G0 F9000 X100.2 Y119.8
;TYPE:WALL-OUTER
G1 F1500 X100.2 Y100.2 E443.27554
G1 X119.8 Y100.2 E443.96003
G1 X119.8 Y119.8 E444.64453
G1 X100.2 Y119.8 E445.32902
G0 F9000 X100.47 Y119.53
G0 X103.803 Y118.92
;TYPE:FILL
G1 F3000 X108.583 Y101.079 E445.97406
G0 F9000 X106.278 Y101.08
G1 F3000 X118.919 Y113.721 E446.59838
G0 F9000 X118.919 Y111.414
G1 F3000 X101.08 Y116.194 E447.24336
G0 F9000 X101.079 Y112.851
G1 F3000 X107.147 Y118.919 E447.54305
G0 F9000 X110.014 Y118.92
G1 F3000 X114.795 Y101.079 E448.18809
G0 F9000 X114.764 Y101.08
G1 F3000 X118.919 Y105.235 E448.3933
G0 F9000 X118.918 Y105.203
G1 F3000 X101.079 Y109.983 E449.03828
G0 F9000 X101.08 Y105.9
G1 F3000 X102.372 Y101.079 E449.21258
G0 F9000 X101.08 Y103.771
G1 F3000 X111.125 Y101.079 E449.57576
G0 F9000 X101.079 Y104.366
G1 F3000 X115.632 Y118.919 E450.29452
G0 F9000 X116.226 Y118.919
G1 F3000 X118.919 Y108.87 E450.65784
G0 F9000 X118.919 Y117.626
G1 F3000 X114.093 Y118.919 E450.83233
;MESH:NONMESH
G0 F300 X114.093 Y118.919 Z5.4
G0 F9000 X101 Y119
;TIME_ELAPSED:561.760836
;LAYER:26
;TYPE:WALL-INNER
;MESH:20mm_cube.stl
G1 F1500 X101 Y101 E451.46094
G1 X119 Y101 E452.08956
G1 X119 Y119 E452.71818
G1 X101 Y119 E453.34679
G0 F9000 X100.6 Y119.4
G1 F1500 X100.6 Y100.6 E454.00335
G1 X119.4 Y100.6 E454.6599
G1 X119.4 Y119.4 E455.31646
G1 X100.6 Y119.4 E455.97301
G0 F9000 X100.2 Y119.8
;TYPE:WALL-OUTER
G1 F1500 X100.2 Y100.2 E456.65751
G1 X119.8 Y100.2 E457.342
G1 X119.8 Y119.8 E458.02649
G1 X100.2 Y119.8 E458.71099
G0 F9000 X100.47 Y119.53
G0 X103.656 Y118.92
;TYPE:FILL
G1 F3000 X108.436 Y101.079 E459.35603
G0 F9000 X106.479 Y101.08
G1 F3000 X118.919 Y113.52 E459.97042
G0 F9000 X118.919 Y111.561
G1 F3000 X101.08 Y116.341 E460.61539
G0 F9000 X101.079 Y112.65
G1 F3000 X107.348 Y118.919 E460.92501
G0 F9000 X109.867 Y118.92
G1 F3000 X114.648 Y101.079 E461.57006
G0 F9000 X114.964 Y101.08
G1 F3000 X118.919 Y105.035 E461.76539
G0 F9000 X118.918 Y105.35
G1 F3000 X101.08 Y110.13 E462.41033
G0 F9000 X101.08 Y105.352
G1 F3000 X102.225 Y101.078 E462.56486
G0 F9000 X101.08 Y103.918
G1 F3000 X111.674 Y101.079 E462.94789
G0 F9000 X118.919 Y108.321
G1 F3000 X116.079 Y118.919 E463.33106
G0 F9000 X115.833 Y118.919
G1 F3000 X101.079 Y104.165 E464.05974
G0 F9000 X114.641 Y118.919
G1 F3000 X118.919 Y117.773 E464.21441
;MESH:NONMESH
G0 F300 X118.919 Y117.773 Z5.6
G0 F9000 X101 Y119
;TIME_ELAPSED:577.367440
;LAYER:27
;TYPE:WALL-INNER
;MESH:20mm_cube.stl
G1 F1500 X101 Y101 E464.84303
G1 X119 Y101 E465.47164
G1 X119 Y119 E466.10026
G1 X101 Y119 E466.72888
G0 F9000 X100.6 Y119.4
G1 F1500 X100.6 Y100.6 E467.38543
G1 X119.4 Y100.6 E468.04199
G1 X119.4 Y119.4 E468.69854
G1 X100.6 Y119.4 E469.3551
G0 F9000 X100.2 Y119.8
;TYPE:WALL-OUTER
G1 F1500 X100.2 Y100.2 E470.03959
G1 X119.8 Y100.2 E470.72408
G1 X119.8 Y119.8 E471.40858
G1 X100.2 Y119.8 E472.09307
G0 F9000 X100.47 Y119.53
G0 X103.51 Y118.919
;TYPE:FILL
G1 F3000 X108.29 Y101.078 E472.73811
G0 F9000 X106.679 Y101.08
G1 F3000 X118.919 Y113.32 E473.34263
G0 F9000 X118.919 Y111.707
G1 F3000 X101.08 Y116.487 E473.9876
G0 F9000 X101.079 Y112.451
G1 F3000 X107.547 Y118.919 E474.30705
G0 F9000 X109.721 Y118.92
G1 F3000 X114.502 Y101.079 E474.9521
G0 F9000 X115.164 Y101.08
G1 F3000 X118.919 Y104.835 E475.13755
G0 F9000 X118.919 Y105.496
G1 F3000 X101.079 Y110.276 E475.78256
G0 F9000 X101.079 Y104.807
G1 F3000 X102.079 Y101.079 E475.91735
G0 F9000 X101.079 Y103.965
G1 F3000 X116.032 Y118.919 E476.65589
G0 F9000 X115.933 Y118.919
G1 F3000 X118.919 Y107.777 E477.05873
G0 F9000 X112.22 Y101.079
G1 F3000 X101.08 Y104.064 E477.4615
G0 F9000 X115.186 Y118.919
G1 F3000 X118.918 Y117.919 E477.59643
;MESH:NONMESH
G0 F300 X118.918 Y117.919 Z5.8
G0 F9000 X101 Y119
;TIME_ELAPSED:592.978587
;LAYER:28
;TYPE:WALL-INNER
;MESH:20mm_cube.stl
G1 F1500 X101 Y101 E478.22505
G1 X119 Y101 E478.85366
G1 X119 Y119 E479.48228
G1 X101 Y119 E480.1109
G0 F9000 X100.6 Y119.4
G1 F1500 X100.6 Y100.6 E480.76745
G1 X119.4 Y100.6 E481.42401
G1 X119.4 Y119.4 E482.08056
G1 X100.6 Y119.4 E482.73712
G0 F9000 X100.2 Y119.8
;TYPE:WALL-OUTER
G1 F1500 X100.2 Y100.2 E483.42161
G1 X119.8 Y100.2 E484.1061
G1 X119.8 Y119.8 E484.7906
G1 X100.2 Y119.8 E485.47509
G0 F9000 X100.47 Y119.53
G0 X103.363 Y118.919
;TYPE:FILL
G1 F3000 X108.143 Y101.078 E486.12013
G0 F9000 X106.879 Y101.08
G1 F3000 X118.919 Y113.12 E486.71477
G0 F9000 X118.919 Y111.854
G1 F3000 X101.08 Y116.634 E487.35974
G0 F9000 X101.079 Y112.25
G1 F3000 X107.748 Y118.919 E487.68912
G0 F9000 X109.574 Y118.92
G1 F3000 X114.355 Y101.079 E488.33416
G0 F9000 X115.365 Y101.08
G1 F3000 X118.919 Y104.634 E488.50969
G0 F9000 X118.918 Y105.643
G1 F3000 X101.079 Y110.423 E489.15466
G0 F9000 X101.08 Y104.258
G1 F3000 X101.932 Y101.079 E489.2696
G0 F9000 X101.079 Y103.765
G1 F3000 X116.233 Y118.919 E490.01804
G0 F9000 X115.786 Y118.919
G1 F3000 X118.919 Y107.228 E490.44073
G0 F9000 X112.768 Y101.079
G1 F3000 X101.08 Y104.211 E490.86331
G0 F9000 X115.735 Y118.919
G1 F3000 X118.918 Y118.066 E490.9784
;MESH:NONMESH
G0 F300 X118.918 Y118.066 Z6
G0 F9000 X101 Y119
;TIME_ELAPSED:608.610282
;LAYER:29
;TYPE:WALL-INNER
;MESH:20mm_cube.stl
G1 F1500 X101 Y101 E491.60701
G1 X119 Y101 E492.23563
G1 X119 Y119 E492.86425
G1 X101 Y119 E493.49286
G0 F9000 X100.6 Y119.4
G1 F1500 X100.6 Y100.6 E494.14942
G1 X119.4 Y100.6 E494.80597
G1 X119.4 Y119.4 E495.46253
G1 X100.6 Y119.4 E496.11908
G0 F9000 X100.2 Y119.8
;TYPE:WALL-OUTER
G1 F1500 X100.2 Y100.2 E496.80358
G1 X119.8 Y100.2 E497.48807
G1 X119.8 Y119.8 E498.17256
G1 X100.2 Y119.8 E498.85706
G0 F9000 X100.47 Y119.53
G0 X103.217 Y118.919
;TYPE:FILL
G1 F3000 X107.997 Y101.079 E499.50206
G0 F9000 X107.079 Y101.08
G1 F3000 X118.919 Y112.92 E500.08683
G0 F9000 X118.919 Y112
G1 F3000 X101.08 Y116.78 E500.7318
G0 F9000 X101.079 Y112.05
G1 F3000 X107.947 Y118.919 E501.07102
G0 F9000 X109.428 Y118.92
G1 F3000 X114.209 Y101.079 E501.71607
G0 F9000 X113.313 Y101.079
G1 F3000 X101.079 Y104.357 E502.15839
G0 F9000 X101.079 Y103.714
G1 F3000 X101.786 Y101.079 E502.25367
G0 F9000 X101.079 Y103.565
G1 F3000 X116.432 Y118.919 E503.01196
G0 F9000 X116.279 Y118.919
G1 F3000 X118.918 Y118.212 E503.10737
G0 F9000 X115.64 Y118.92
G1 F3000 X118.919 Y106.682 E503.54984
G0 F9000 X118.919 Y105.789
G1 F3000 X101.08 Y110.568 E504.1948
G0 F9000 X115.564 Y101.08
G1 F3000 X118.919 Y104.435 E504.3605
;MESH:NONMESH
G0 F300 X118.919 Y104.435 Z6.2
G0 F9000 X101 Y119
;TIME_ELAPSED:623.950977
;LAYER:30
;TYPE:WALL-INNER
;MESH:20mm_cube.stl
G1 F1500 X101 Y101 E504.98912
G1 X119 Y101 E505.61773
G1 X119 Y119 E506.24635
G1 X101 Y119 E506.87497
G0 F9000 X100.6 Y119.4
G1 F1500 X100.6 Y100.6 E507.53152
G1 X119.4 Y100.6 E508.18808
G1 X119.4 Y119.4 E508.84463
G1 X100.6 Y119.4 E509.50119
G0 F9000 X100.2 Y119.8
;TYPE:WALL-OUTER
G1 F1500 X100.2 Y100.2 E510.18568
G1 X119.8 Y100.2 E510.87017
G1 X119.8 Y119.8 E511.55467
G1 X100.2 Y119.8 E512.23916
G0 F9000 X100.47 Y119.53
G0 X103.07 Y118.919
;TYPE:FILL
G1 F3000 X107.85 Y101.079 E512.88416
G0 F9000 X107.28 Y101.08
G1 F3000 X118.919 Y112.719 E513.459
G0 F9000 X118.919 Y112.147
G1 F3000 X101.08 Y116.927 E514.10397
G0 F9000 X101.079 Y111.85
G1 F3000 X108.148 Y118.919 E514.4531
G0 F9000 X109.281 Y118.92
G1 F3000 X114.062 Y101.079 E515.09815
G0 F9000 X113.862 Y101.079
G1 F3000 X101.079 Y104.504 E515.56032
G0 F9000 X101.079 Y103.364
G1 F3000 X116.633 Y118.919 E516.32854
G0 F9000 X116.828 Y118.919
G1 F3000 X118.918 Y118.359 E516.4041
G0 F9000 X115.493 Y118.92
G1 F3000 X118.919 Y106.134 E516.86638
G0 F9000 X118.919 Y105.936
G1 F3000 X101.08 Y110.715 E517.51134
G0 F9000 X101.079 Y103.165
G1 F3000 X101.639 Y101.079 E517.58677
G0 F9000 X115.765 Y101.08
G1 F3000 X118.919 Y104.234 E517.74254
;MESH:NONMESH
G0 F300 X118.919 Y104.234 Z6.4
G0 F9000 X101 Y119
;TIME_ELAPSED:639.227386
;LAYER:31
;TYPE:WALL-INNER
;MESH:20mm_cube.stl
G1 F1500 X101 Y101 E518.37116
G1 X119 Y101 E518.99978
G1 X119 Y119 E519.62839
G1 X101 Y119 E520.25701
G0 F9000 X100.6 Y119.4
G1 F1500 X100.6 Y100.6 E520.91356
G1 X119.4 Y100.6 E521.57012
G1 X119.4 Y119.4 E522.22667
G1 X100.6 Y119.4 E522.88323
G0 F9000 X100.2 Y119.8
;TYPE:WALL-OUTER
G1 F1500 X100.2 Y100.2 E523.56772
G1 X119.8 Y100.2 E524.25222
G1 X119.8 Y119.8 E524.93671
G1 X100.2 Y119.8 E525.6212
G0 F9000 X100.47 Y119.53
G0 X102.924 Y118.919
;TYPE:FILL
G1 F3000 X107.704 Y101.079 E526.26621
G0 F9000 X107.479 Y101.08
G1 F3000 X118.919 Y112.52 E526.83122
G0 F9000 X118.918 Y112.293
G1 F3000 X101.08 Y117.073 E527.47615
G0 F9000 X101.079 Y111.65
G1 F3000 X108.347 Y118.919 E527.83514
G0 F9000 X109.136 Y118.919
G1 F3000 X113.916 Y101.078 E528.48017
G0 F9000 X114.406 Y101.079
G1 F3000 X101.079 Y104.65 E528.96201
G0 F9000 X101.079 Y103.165
G1 F3000 X116.833 Y118.919 E529.74008
G0 F9000 X117.374 Y118.919
G1 F3000 X118.919 Y118.505 E529.79594
G0 F9000 X115.347 Y118.92
G1 F3000 X118.919 Y105.589 E530.27793
G0 F9000 X118.919 Y106.082
G1 F3000 X101.08 Y110.861 E530.92289
G0 F9000 X101.079 Y102.621
G1 F3000 X101.492 Y101.079 E530.97864
G0 F9000 X115.964 Y101.08
G1 F3000 X118.919 Y104.035 E531.12458
;MESH:NONMESH
G0 F300 X118.919 Y104.035 Z6.6
G0 F9000 X101 Y119
;TIME_ELAPSED:654.541686
;LAYER:32
;TYPE:WALL-INNER
;MESH:20mm_cube.stl
G1 F1500 X101 Y101 E531.7532
G1 X119 Y101 E532.38182
G1 X119 Y119 E533.01043
G1 X101 Y119 E533.63905
G0 F9000 X100.6 Y119.4
G1 F1500 X100.6 Y100.6 E534.2956
G1 X119.4 Y100.6 E534.95216
G1 X119.4 Y119.4 E535.60871
G1 X100.6 Y119.4 E536.26527
G0 F9000 X100.2 Y119.8
;TYPE:WALL-OUTER
G1 F1500 X100.2 Y100.2 E536.94976
G1 X119.8 Y100.2 E537.63426
G1 X119.8 Y119.8 E538.31875
G1 X100.2 Y119.8 E539.00324
G0 F9000 X100.47 Y119.53
G0 X102.778 Y118.92
;TYPE:FILL
G1 F3000 X107.558 Y101.079 E539.64828
G0 F9000 X107.678 Y101.08
G1 F3000 X118.919 Y112.321 E540.20346
G0 F9000 X118.918 Y112.439
G1 F3000 X101.079 Y117.219 E540.84843
G0 F9000 X101.079 Y111.451
G1 F3000 X108.547 Y118.919 E541.21727
G0 F9000 X108.99 Y118.919
G1 F3000 X113.77 Y101.079 E541.86227
G0 F9000 X114.951 Y101.079
G1 F3000 X101.08 Y104.796 E542.36378
G0 F9000 X101.079 Y102.966
G1 F3000 X117.032 Y118.919 E543.15168
G0 F9000 X117.918 Y118.919
G1 F3000 X118.919 Y118.651 E543.18787
G0 F9000 X115.201 Y118.92
G1 F3000 X118.919 Y105.044 E543.68956
G0 F9000 X118.918 Y106.228
G1 F3000 X101.08 Y111.008 E544.3345
G0 F9000 X101.08 Y102.075
G1 F3000 X101.347 Y101.078 E544.37054
G0 F9000 X116.164 Y101.08
G1 F3000 X118.919 Y103.835 E544.50661
;MESH:NONMESH
G0 F300 X118.919 Y103.835 Z6.8
G0 F9000 X101 Y119
;TIME_ELAPSED:669.897329
;LAYER:33
;TYPE:WALL-INNER
;MESH:20mm_cube.stl
G1 F1500 X101 Y101 E545.13523
G1 X119 Y101 E545.76384
G1 X119 Y119 E546.39246
G1 X101 Y119 E547.02107
G0 F9000 X100.6 Y119.4
G1 F1500 X100.6 Y100.6 E547.67763
G1 X119.4 Y100.6 E548.33418
G1 X119.4 Y119.4 E548.99074
G1 X100.6 Y119.4 E549.6473
G0 F9000 X100.2 Y119.8
;TYPE:WALL-OUTER
G1 F1500 X100.2 Y100.2 E550.33179
G1 X119.8 Y100.2 E551.01628
G1 X119.8 Y119.8 E551.70078
G1 X100.2 Y119.8 E552.38527
G0 F9000 X100.47 Y119.53
G0 X102.631 Y118.92
;TYPE:FILL
G1 F3000 X107.411 Y101.079 E553.03031
G0 F9000 X107.879 Y101.08
G1 F3000 X118.919 Y112.12 E553.57556
G0 F9000 X118.918 Y112.586
G1 F3000 X101.079 Y117.366 E554.22053
G0 F9000 X101.079 Y111.25
G1 F3000 X108.748 Y118.919 E554.59929
G0 F9000 X108.843 Y118.919
G1 F3000 X113.623 Y101.079 E555.2443
G0 F9000 X115.499 Y101.079
G1 F3000 X101.08 Y104.943 E555.76562
G0 F9000 X101.079 Y102.765
G1 F3000 X117.233 Y118.919 E556.56345
G0 F9000 X118.467 Y118.919
G1 F3000 X118.919 Y118.798 E556.57979
G0 F9000 X115.054 Y118.92
G1 F3000 X118.919 Y104.496 E557.10129
G0 F9000 X118.919 Y103.634
G1 F3000 X116.365 Y101.08 E557.22743
G0 F9000 X118.918 Y106.375
G1 F3000 X101.08 Y111.155 E557.87237
G0 F9000 X101.08 Y101.526
G1 F3000 X101.2 Y101.078 E557.88857
;MESH:NONMESH
G0 F300 X101.2 Y101.078 Z7
G0 F9000 X101 Y119
;TIME_ELAPSED:685.102156
;LAYER:34
;TYPE:WALL-INNER
;MESH:20mm_cube.stl
G1 F1500 X101 Y101 E558.51718
G1 X119 Y101 E559.1458
G1 X119 Y119 E559.77442
G1 X101 Y119 E560.40303
G0 F9000 X100.6 Y119.4
G1 F1500 X100.6 Y100.6 E561.05959
G1 X119.4 Y100.6 E561.71614
G1 X119.4 Y119.4 E562.3727
G1 X100.6 Y119.4 E563.02925
G0 F9000 X100.2 Y119.8
;TYPE:WALL-OUTER
G1 F1500 X100.2 Y100.2 E563.71375
G1 X119.8 Y100.2 E564.39824
G1 X119.8 Y119.8 E565.08273
G1 X100.2 Y119.8 E565.76723
G0 F9000 X100.47 Y119.53
G0 X102.485 Y118.92
;TYPE:FILL
G1 F3000 X107.265 Y101.079 E566.41227
G0 F9000 X108.079 Y101.08
G1 F3000 X118.919 Y111.92 E566.94764
G0 F9000 X118.919 Y112.732
G1 F3000 X101.08 Y117.512 E567.59261
G0 F9000 X101.08 Y111.301
G1 F3000 X118.918 Y106.521 E568.23755
G0 F9000 X118.919 Y103.951
G1 F3000 X114.908 Y118.919 E568.77872
G0 F9000 X117.432 Y118.919
G1 F3000 X101.079 Y102.565 E569.5864
G0 F9000 X101.08 Y105.089
G1 F3000 X116.045 Y101.079 E570.12746
G0 F9000 X116.564 Y101.08
G1 F3000 X118.919 Y103.435 E570.24377
G0 F9000 X113.477 Y101.079
G1 F3000 X108.697 Y118.919 E570.88878
G0 F9000 X108.947 Y118.919
G1 F3000 X101.079 Y111.051 E571.27737
;MESH:NONMESH
G0 F300 X101.079 Y111.051 Z7.2
G0 F9000 X101 Y119
;TIME_ELAPSED:699.837061
;LAYER:35
;TYPE:WALL-INNER
;MESH:20mm_cube.stl
G1 F1500 X101 Y101 E571.90599
G1 X119 Y101 E572.5346
G1 X119 Y119 E573.16322
G1 X101 Y119 E573.79184
G0 F9000 X100.6 Y119.4
G1 F1500 X100.6 Y100.6 E574.44839
G1 X119.4 Y100.6 E575.10495
G1 X119.4 Y119.4 E575.7615
G1 X100.6 Y119.4 E576.41806
G0 F9000 X100.2 Y119.8
;TYPE:WALL-OUTER
G1 F1500 X100.2 Y100.2 E577.10255
G1 X119.8 Y100.2 E577.78704
G1 X119.8 Y119.8 E578.47154
G1 X100.2 Y119.8 E579.15603
G0 F9000 X100.47 Y119.53
G0 X102.338 Y118.92
;TYPE:FILL
G1 F3000 X107.118 Y101.079 E579.80107
G0 F9000 X108.279 Y101.08
G1 F3000 X118.919 Y111.72 E580.32657
G0 F9000 X118.919 Y112.879
G1 F3000 X101.08 Y117.659 E580.97154
G0 F9000 X101.08 Y111.448
G1 F3000 X118.918 Y106.668 E581.61647
G0 F9000 X118.919 Y103.402
G1 F3000 X114.761 Y118.92 E582.17753
G0 F9000 X117.633 Y118.919
G1 F3000 X101.079 Y102.365 E582.99511
G0 F9000 X101.08 Y105.236
G1 F3000 X116.594 Y101.079 E583.55602
G0 F9000 X116.765 Y101.08
G1 F3000 X118.919 Y103.234 E583.66241
G0 F9000 X113.33 Y101.079
G1 F3000 X108.55 Y118.919 E584.30741
G0 F9000 X109.148 Y118.919
G1 F3000 X101.079 Y110.85 E584.70593
;MESH:NONMESH
G0 F300 X101.079 Y110.85 Z7.4
G0 F9000 X101 Y119
;TIME_ELAPSED:714.661058
;LAYER:36
;TYPE:WALL-INNER
;MESH:20mm_cube.stl
G1 F1500 X101 Y101 E585.33454
G1 X119 Y101 E585.96316
G1 X119 Y119 E586.59178
G1 X101 Y119 E587.22039
G0 F9000 X100.6 Y119.4
G1 F1500 X100.6 Y100.6 E587.87695
G1 X119.4 Y100.6 E588.5335
G1 X119.4 Y119.4 E589.19006
G1 X100.6 Y119.4 E589.84661
G0 F9000 X100.2 Y119.8
;TYPE:WALL-OUTER
G1 F1500 X100.2 Y100.2 E590.53111
G1 X119.8 Y100.2 E591.2156
G1 X119.8 Y119.8 E591.9001
G1 X100.2 Y119.8 E592.58459
G0 F9000 X100.47 Y119.53
G0 X102.192 Y118.919
;TYPE:FILL
G1 F3000 X106.972 Y101.078 E593.22963
G0 F9000 X108.479 Y101.08
G1 F3000 X118.919 Y111.52 E593.74525
G0 F9000 X118.919 Y113.025
G1 F3000 X101.08 Y117.805 E594.39022
G0 F9000 X101.079 Y111.594
G1 F3000 X118.918 Y106.814 E595.03519
G0 F9000 X118.919 Y103.035
G1 F3000 X116.964 Y101.08 E595.13174
G0 F9000 X117.138 Y101.079
G1 F3000 X101.08 Y105.382 E595.71233
G0 F9000 X101.079 Y102.165
G1 F3000 X117.832 Y118.919 E596.53976
G0 F9000 X114.615 Y118.919
G1 F3000 X118.919 Y102.857 E597.12049
G0 F9000 X113.184 Y101.079
G1 F3000 X108.403 Y118.92 E597.76553
G0 F9000 X109.347 Y118.919
G1 F3000 X101.079 Y110.65 E598.1739
;MESH:NONMESH
G0 F300 X101.079 Y110.65 Z7.6
G0 F9000 X101 Y119
;TIME_ELAPSED:729.580350
;LAYER:37
;TYPE:WALL-INNER
;MESH:20mm_cube.stl
G1 F1500 X101 Y101 E598.80252
G1 X119 Y101 E599.43114
G1 X119 Y119 E600.05975
G1 X101 Y119 E600.68837
G0 F9000 X100.6 Y119.4
G1 F1500 X100.6 Y100.6 E601.34493
G1 X119.4 Y100.6 E602.00148
G1 X119.4 Y119.4 E602.65804
G1 X100.6 Y119.4 E603.31459
G0 F9000 X100.2 Y119.8
;TYPE:WALL-OUTER
G1 F1500 X100.2 Y100.2 E603.99908
G1 X119.8 Y100.2 E604.68358
G1 X119.8 Y119.8 E605.36807
G1 X100.2 Y119.8 E606.05256
G0 F9000 X100.47 Y119.53
G0 X102.045 Y118.92
;TYPE:FILL
G1 F3000 X106.825 Y101.078 E606.69764
G0 F9000 X108.68 Y101.08
G1 F3000 X118.919 Y111.319 E607.20333
G0 F9000 X118.919 Y113.172
G1 F3000 X101.08 Y117.952 E607.8483
G0 F9000 X101.079 Y111.741
G1 F3000 X118.918 Y106.961 E608.49327
G0 F9000 X118.919 Y102.834
G1 F3000 X117.165 Y101.08 E608.5799
G0 F9000 X117.687 Y101.079
G1 F3000 X101.08 Y105.529 E609.18033
G0 F9000 X101.079 Y101.964
G1 F3000 X118.033 Y118.919 E610.01769
G0 F9000 X114.468 Y118.919
G1 F3000 X118.919 Y102.308 E610.61826
G0 F9000 X113.037 Y101.079
G1 F3000 X108.256 Y118.92 E611.26331
G0 F9000 X109.548 Y118.919
G1 F3000 X101.079 Y110.45 E611.68159
;MESH:NONMESH
G0 F300 X101.079 Y110.45 Z7.8
G0 F9000 X101 Y119
;TIME_ELAPSED:744.606113
;LAYER:38
;TYPE:WALL-INNER
;MESH:20mm_cube.stl
G1 F1500 X101 Y101 E612.3102
G1 X119 Y101 E612.93882
G1 X119 Y119 E613.56743
G1 X101 Y119 E614.19605
G0 F9000 X100.6 Y119.4
G1 F1500 X100.6 Y100.6 E614.85261
G1 X119.4 Y100.6 E615.50916
G1 X119.4 Y119.4 E616.16572
G1 X100.6 Y119.4 E616.82227
G0 F9000 X100.2 Y119.8
;TYPE:WALL-OUTER
G1 F1500 X100.2 Y100.2 E617.50677
G1 X119.8 Y100.2 E618.19126
G1 X119.8 Y119.8 E618.87575
G1 X100.2 Y119.8 E619.56025
G0 F9000 X100.47 Y119.53
G0 X101.262 Y118.919
;TYPE:FILL
G1 F3000 X101.079 Y118.735 E619.56931
G0 F9000 X101.08 Y118.098
G1 F3000 X118.919 Y113.318 E620.21428
G0 F9000 X118.919 Y111.12
G1 F3000 X108.879 Y101.08 E620.71014
G0 F9000 X106.679 Y101.078
G1 F3000 X101.899 Y118.919 E621.35518
G0 F9000 X108.11 Y118.92
G1 F3000 X112.891 Y101.079 E622.00023
G0 F9000 X117.364 Y101.08
G1 F3000 X118.919 Y102.635 E622.07703
G0 F9000 X118.919 Y101.764
G1 F3000 X114.322 Y118.919 E622.69727
G0 F9000 X118.233 Y118.919
G1 F3000 X101.079 Y101.765 E623.54449
G0 F9000 X101.08 Y105.675
G1 F3000 X118.231 Y101.079 E624.16459
G0 F9000 X118.919 Y107.106
G1 F3000 X101.08 Y111.886 E624.80956
G0 F9000 X101.079 Y110.25
G1 F3000 X109.747 Y118.919 E625.23769
;MESH:NONMESH
G0 F300 X109.747 Y118.919 Z8
G0 F9000 X101 Y119
;TIME_ELAPSED:759.785958
;LAYER:39
;TYPE:WALL-INNER
;MESH:20mm_cube.stl
G1 F1500 X101 Y101 E625.8663
G1 X119 Y101 E626.49492
G1 X119 Y119 E627.12354
G1 X101 Y119 E627.75215
G0 F9000 X100.6 Y119.4
G1 F1500 X100.6 Y100.6 E628.40871
G1 X119.4 Y100.6 E629.06526
G1 X119.4 Y119.4 E629.72182
G1 X100.6 Y119.4 E630.37837
G0 F9000 X100.2 Y119.8
;TYPE:WALL-OUTER
G1 F1500 X100.2 Y100.2 E631.06287
G1 X119.8 Y100.2 E631.74736
G1 X119.8 Y119.8 E632.43185
G1 X100.2 Y119.8 E633.11635
G0 F9000 X100.47 Y119.53
G0 X101.462 Y118.919
;TYPE:FILL
G1 F3000 X101.079 Y118.536 E633.13526
G0 F9000 X101.08 Y118.244
G1 F3000 X118.918 Y113.464 E633.7802
G0 F9000 X118.919 Y110.921
G1 F3000 X109.078 Y101.08 E634.26624
G0 F9000 X106.533 Y101.079
G1 F3000 X101.753 Y118.919 E634.91124
G0 F9000 X107.965 Y118.919
G1 F3000 X112.745 Y101.078 E635.55628
G0 F9000 X117.564 Y101.08
G1 F3000 X118.919 Y102.435 E635.6232
G0 F9000 X118.919 Y101.219
G1 F3000 X114.176 Y118.92 E636.26318
G0 F9000 X109.947 Y118.919
G1 F3000 X101.079 Y110.051 E636.70116
G0 F9000 X101.08 Y112.032
G1 F3000 X118.919 Y107.253 E637.34612
G0 F9000 X118.776 Y101.079
G1 F3000 X101.079 Y105.821 E637.98596
G0 F9000 X101.079 Y101.565
G1 F3000 X118.432 Y118.919 E638.84303
;MESH:NONMESH
G0 F300 X118.432 Y118.919 Z8.2
G0 F9000 X101 Y119
;TIME_ELAPSED:775.153720
;LAYER:40
;TYPE:WALL-INNER
;MESH:20mm_cube.stl
G1 F1500 X101 Y101 E639.47165
G1 X119 Y101 E640.10026
G1 X119 Y119 E640.72888
G1 X101 Y119 E641.3575
G0 F9000 X100.6 Y119.4
G1 F1500 X100.6 Y100.6 E642.01405
G1 X119.4 Y100.6 E642.67061
G1 X119.4 Y119.4 E643.32716
G1 X100.6 Y119.4 E643.98372
G0 F9000 X100.2 Y119.8
;TYPE:WALL-OUTER
G1 F1500 X100.2 Y100.2 E644.66821
G1 X119.8 Y100.2 E645.3527
G1 X119.8 Y119.8 E646.0372
G1 X100.2 Y119.8 E646.72169
G0 F9000 X100.47 Y119.53
G0 X101.606 Y118.919
;TYPE:FILL
G1 F3000 X106.386 Y101.079 E647.3667
G0 F9000 X109.279 Y101.08
G1 F3000 X118.919 Y110.72 E647.8428
G0 F9000 X118.918 Y113.611
G1 F3000 X101.08 Y118.391 E648.48774
G0 F9000 X101.079 Y118.335
G1 F3000 X101.662 Y118.919 E648.51656
G0 F9000 X107.817 Y118.92
G1 F3000 X112.598 Y101.078 E649.16164
G0 F9000 X117.765 Y101.08
G1 F3000 X118.919 Y102.234 E649.21864
G0 F9000 X118.918 Y101.188
G1 F3000 X101.079 Y105.968 E649.86361
G0 F9000 X101.079 Y109.85
G1 F3000 X110.148 Y118.919 E650.31151
G0 F9000 X114.029 Y118.92
G1 F3000 X118.81 Y101.079 E650.95656
G0 F9000 X118.919 Y107.4
G1 F3000 X101.08 Y112.179 E651.60152
G0 F9000 X101.079 Y101.365
G1 F3000 X118.633 Y118.919 E652.46849
;MESH:NONMESH
G0 F300 X118.633 Y118.919 Z8.4
G0 F9000 X101 Y119
;TIME_ELAPSED:790.678975
;LAYER:41
;TYPE:WALL-INNER
;MESH:20mm_cube.stl
G1 F1500 X101 Y101 E653.09711
G1 X119 Y101 E653.72573
G1 X119 Y119 E654.35434
G1 X101 Y119 E654.98296
G0 F9000 X100.6 Y119.4
G1 F1500 X100.6 Y100.6 E655.63952
G1 X119.4 Y100.6 E656.29607
G1 X119.4 Y119.4 E656.95263
G1 X100.6 Y119.4 E657.60918
G0 F9000 X100.2 Y119.8
;TYPE:WALL-OUTER
G1 F1500 X100.2 Y100.2 E658.29367
G1 X119.8 Y100.2 E658.97817
G1 X119.8 Y119.8 E659.66266
G1 X100.2 Y119.8 E660.34716
G0 F9000 X100.47 Y119.53
G0 X101.46 Y118.919
;TYPE:FILL
G1 F3000 X106.24 Y101.079 E660.99216
G0 F9000 X109.479 Y101.08
G1 F3000 X118.919 Y110.52 E661.45839
G0 F9000 X118.919 Y107.546
G1 F3000 X101.08 Y112.325 E662.10335
G0 F9000 X101.079 Y109.651
G1 F3000 X110.347 Y118.919 E662.56109
G0 F9000 X107.672 Y118.919
G1 F3000 X112.452 Y101.079 E663.20609
G0 F9000 X117.964 Y101.08
G1 F3000 X118.919 Y102.035 E663.25326
G0 F9000 X118.919 Y101.334
G1 F3000 X101.08 Y106.114 E663.89823
G0 F9000 X101.079 Y101.165
G1 F3000 X118.832 Y118.919 E664.77505
G0 F9000 X113.883 Y118.92
G1 F3000 X118.664 Y101.079 E665.4201
G0 F9000 X118.918 Y113.757
G1 F3000 X101.08 Y118.537 E666.06504
G0 F9000 X101.079 Y118.136
G1 F3000 X101.862 Y118.919 E666.10371
;MESH:NONMESH
G0 F300 X101.862 Y118.919 Z8.6
G0 F9000 X101 Y119
;TIME_ELAPSED:805.916654
;LAYER:42
;TYPE:WALL-INNER
;MESH:20mm_cube.stl
G1 F1500 X101 Y101 E666.73233
G1 X119 Y101 E667.36094
G1 X119 Y119 E667.98956
G1 X101 Y119 E668.61818
G0 F9000 X100.6 Y119.4
G1 F1500 X100.6 Y100.6 E669.27473
G1 X119.4 Y100.6 E669.93129
G1 X119.4 Y119.4 E670.58784
G1 X100.6 Y119.4 E671.2444
G0 F9000 X100.2 Y119.8
;TYPE:WALL-OUTER
G1 F1500 X100.2 Y100.2 E671.92889
G1 X119.8 Y100.2 E672.61338
G1 X119.8 Y119.8 E673.29788
G1 X100.2 Y119.8 E673.98237
G0 F9000 X100.47 Y119.53
G0 X101.313 Y118.919
;TYPE:FILL
G1 F3000 X106.093 Y101.079 E674.62738
G0 F9000 X109.68 Y101.08
G1 F3000 X118.919 Y110.319 E675.08368
G0 F9000 X118.919 Y107.693
G1 F3000 X101.08 Y112.472 E675.72864
G0 F9000 X101.079 Y109.45
G1 F3000 X110.548 Y118.919 E676.1963
G0 F9000 X107.525 Y118.919
G1 F3000 X112.305 Y101.078 E676.84134
G0 F9000 X118.165 Y101.08
G1 F3000 X118.919 Y101.834 E676.87858
G0 F9000 X118.919 Y101.481
G1 F3000 X101.08 Y106.261 E677.52355
G0 F9000 X101.194 Y101.08
G1 F3000 X118.919 Y118.805 E678.39897
G0 F9000 X118.918 Y113.904
G1 F3000 X101.08 Y118.684 E679.04391
G0 F9000 X101.079 Y117.935
G1 F3000 X102.063 Y118.919 E679.09251
G0 F9000 X113.736 Y118.92
G1 F3000 X118.517 Y101.079 E679.73755
;MESH:NONMESH
G0 F300 X118.517 Y101.079 Z8.8
G0 F9000 X101 Y119
;TIME_ELAPSED:821.512159
;LAYER:43
;TYPE:WALL-INNER
;MESH:20mm_cube.stl
G1 F1500 X101 Y101 E680.36617
G1 X119 Y101 E680.99479
G1 X119 Y119 E681.6234
G1 X101 Y119 E682.25202
G0 F9000 X100.6 Y119.4
G1 F1500 X100.6 Y100.6 E682.90857
G1 X119.4 Y100.6 E683.56513
G1 X119.4 Y119.4 E684.22168
G1 X100.6 Y119.4 E684.87824
G0 F9000 X100.2 Y119.8
;TYPE:WALL-OUTER
G1 F1500 X100.2 Y100.2 E685.56273
G1 X119.8 Y100.2 E686.24723
G1 X119.8 Y119.8 E686.93172
G1 X100.2 Y119.8 E687.61621
G0 F9000 X100.47 Y119.53
G0 X101.167 Y118.92
;TYPE:FILL
G1 F3000 X105.947 Y101.079 E688.26125
G0 F9000 X109.879 Y101.08
G1 F3000 X118.919 Y110.12 E688.70773
G0 F9000 X118.918 Y107.839
G1 F3000 X101.08 Y112.618 E689.35266
G0 F9000 X101.079 Y109.25
G1 F3000 X110.747 Y118.919 E689.83017
G0 F9000 X113.59 Y118.92
G1 F3000 X118.37 Y101.079 E690.47521
G0 F9000 X118.364 Y101.08
G1 F3000 X118.919 Y101.635 E690.50262
G0 F9000 X118.919 Y101.627
G1 F3000 X101.08 Y106.407 E691.14759
G0 F9000 X101.394 Y101.08
G1 F3000 X118.919 Y118.605 E692.01313
G0 F9000 X118.919 Y114.05
G1 F3000 X101.08 Y118.83 E692.6581
G0 F9000 X101.079 Y117.736
G1 F3000 X102.262 Y118.919 E692.71653
G0 F9000 X107.379 Y118.919
G1 F3000 X112.159 Y101.079 E693.36153
;MESH:NONMESH
G0 F300 X112.159 Y101.079 Z9
G0 F9000 X101 Y119
;TIME_ELAPSED:836.750392
;LAYER:44
;TYPE:WALL-INNER
;MESH:20mm_cube.stl
G1 F1500 X101 Y101 E693.99015
G1 X119 Y101 E694.61877
G1 X119 Y119 E695.24738
G1 X101 Y119 E695.876
G0 F9000 X100.6 Y119.4
G1 F1500 X100.6 Y100.6 E696.53256
G1 X119.4 Y100.6 E697.18911
G1 X119.4 Y119.4 E697.84567
G1 X100.6 Y119.4 E698.50222
G0 F9000 X100.2 Y119.8
;TYPE:WALL-OUTER
G1 F1500 X100.2 Y100.2 E699.18671
G1 X119.8 Y100.2 E699.87121
G1 X119.8 Y119.8 E700.5557
G1 X100.2 Y119.8 E701.24019
G0 F9000 X100.47 Y119.53
G0 X101.292 Y118.919
;TYPE:FILL
G1 F3000 X118.919 Y114.196 E701.8775
G0 F9000 X118.919 Y118.406
G1 F3000 X101.593 Y101.08 E702.73321
G0 F9000 X105.802 Y101.078
G1 F3000 X101.079 Y118.702 E703.37041
G0 F9000 X101.079 Y117.536
G1 F3000 X102.461 Y118.919 E703.43869
G0 F9000 X107.233 Y118.92
G1 F3000 X112.013 Y101.079 E704.08373
G0 F9000 X110.078 Y101.08
G1 F3000 X118.919 Y109.921 E704.52038
G0 F9000 X118.918 Y107.985
G1 F3000 X101.079 Y112.764 E705.16534
G0 F9000 X101.079 Y109.051
G1 F3000 X110.947 Y118.919 E705.65271
G0 F9000 X113.444 Y118.919
G1 F3000 X118.225 Y101.079 E706.29772
G0 F9000 X118.564 Y101.08
G1 F3000 X118.919 Y101.435 E706.31526
G0 F9000 X118.918 Y101.773
G1 F3000 X101.08 Y106.553 E706.96019
;MESH:NONMESH
G0 F300 X101.08 Y106.553 Z9.2
G0 F9000 X101 Y119
;TIME_ELAPSED:851.826974
;LAYER:45
;TYPE:WALL-INNER
;MESH:20mm_cube.stl
G1 F1500 X101 Y101 E707.58881
G1 X119 Y101 E708.21743
G1 X119 Y119 E708.84604
G1 X101 Y119 E709.47466
G0 F9000 X100.6 Y119.4
G1 F1500 X100.6 Y100.6 E710.13121
G1 X119.4 Y100.6 E710.78777
G1 X119.4 Y119.4 E711.44432
G1 X100.6 Y119.4 E712.10088
G0 F9000 X100.2 Y119.8
;TYPE:WALL-OUTER
G1 F1500 X100.2 Y100.2 E712.78537
G1 X119.8 Y100.2 E713.46987
G1 X119.8 Y119.8 E714.15436
G1 X100.2 Y119.8 E714.83885
G0 F9000 X100.47 Y119.53
G0 X101.84 Y118.919
;TYPE:FILL
G1 F3000 X118.919 Y114.343 E715.45634
G0 F9000 X118.919 Y118.205
G1 F3000 X101.794 Y101.08 E716.30213
G0 F9000 X105.654 Y101.079
G1 F3000 X101.079 Y118.154 E716.91947
G0 F9000 X101.079 Y117.335
G1 F3000 X102.662 Y118.919 E716.99768
G0 F9000 X107.086 Y118.92
G1 F3000 X111.866 Y101.079 E717.64272
G0 F9000 X110.279 Y101.08
G1 F3000 X118.919 Y109.72 E718.06944
G0 F9000 X118.918 Y108.132
G1 F3000 X101.079 Y112.911 E718.7144
G0 F9000 X101.079 Y108.85
G1 F3000 X111.147 Y118.919 E719.21167
G0 F9000 X113.297 Y118.919
G1 F3000 X118.078 Y101.079 E719.85669
G0 F9000 X118.764 Y101.08
G1 F3000 X118.919 Y101.235 E719.86434
G0 F9000 X118.918 Y101.92
G1 F3000 X101.08 Y106.7 E720.50928
;MESH:NONMESH
G0 F300 X101.08 Y106.7 Z9.4
G0 F9000 X101 Y119
;TIME_ELAPSED:866.855684
;LAYER:46
;TYPE:WALL-INNER
;MESH:20mm_cube.stl
G1 F1500 X101 Y101 E721.13789
G1 X119 Y101 E721.76651
G1 X119 Y119 E722.39513
G1 X101 Y119 E723.02374
G0 F9000 X100.6 Y119.4
G1 F1500 X100.6 Y100.6 E723.6803
G1 X119.4 Y100.6 E724.33685
G1 X119.4 Y119.4 E724.99341
G1 X100.6 Y119.4 E725.64996
G0 F9000 X100.2 Y119.8
;TYPE:WALL-OUTER
G1 F1500 X100.2 Y100.2 E726.33446
G1 X119.8 Y100.2 E727.01895
G1 X119.8 Y119.8 E727.70345
G1 X100.2 Y119.8 E728.38794
G0 F9000 X100.47 Y119.53
G0 X102.385 Y118.919
;TYPE:FILL
G1 F3000 X118.919 Y114.489 E728.98572
G0 F9000 X118.919 Y118.006
G1 F3000 X101.993 Y101.08 E729.82168
G0 F9000 X105.508 Y101.078
G1 F3000 X101.079 Y117.608 E730.41932
G0 F9000 X101.079 Y117.136
G1 F3000 X102.862 Y118.919 E730.50738
G0 F9000 X106.94 Y118.92
G1 F3000 X111.72 Y101.079 E731.15242
G0 F9000 X110.479 Y101.08
G1 F3000 X118.919 Y109.52 E731.56926
G0 F9000 X118.919 Y108.277
G1 F3000 X101.08 Y113.057 E732.21423
G0 F9000 X101.079 Y108.651
G1 F3000 X111.347 Y118.919 E732.72136
G0 F9000 X113.151 Y118.919
G1 F3000 X117.932 Y101.079 E733.36637
G0 F9000 X118.918 Y102.066
G1 F3000 X101.08 Y106.846 E734.01131
;MESH:NONMESH
G0 F300 X101.08 Y106.846 Z9.6
G0 F9000 X101 Y119
;TIME_ELAPSED:881.773133
;LAYER:47
;TYPE:WALL-INNER
;MESH:20mm_cube.stl
G1 F1500 X101 Y101 E734.63992
G1 X119 Y101 E735.26854
G1 X119 Y119 E735.89716
G1 X101 Y119 E736.52577
G0 F9000 X100.6 Y119.4
G1 F1500 X100.6 Y100.6 E737.18233
G1 X119.4 Y100.6 E737.83888
G1 X119.4 Y119.4 E738.49544
G1 X100.6 Y119.4 E739.15199
G0 F9000 X100.2 Y119.8
;TYPE:WALL-OUTER
G1 F1500 X100.2 Y100.2 E739.83649
G1 X119.8 Y100.2 E740.52098
G1 X119.8 Y119.8 E741.20548
G1 X100.2 Y119.8 E741.88997
G0 F9000 X100.47 Y119.53
G0 X102.934 Y118.919
;TYPE:FILL
G1 F3000 X118.919 Y114.636 E742.46791
G0 F9000 X118.919 Y117.805
G1 F3000 X102.194 Y101.08 E743.29393
G0 F9000 X105.361 Y101.078
G1 F3000 X101.079 Y117.06 E743.87176
G0 F9000 X101.079 Y116.935
G1 F3000 X103.062 Y118.919 E743.96972
G0 F9000 X106.793 Y118.92
G1 F3000 X111.573 Y101.079 E744.61476
G0 F9000 X110.679 Y101.08
G1 F3000 X118.919 Y109.32 E745.02173
G0 F9000 X118.919 Y108.424
G1 F3000 X101.079 Y113.204 E745.66673
G0 F9000 X101.079 Y108.45
G1 F3000 X111.548 Y118.919 E746.18378
G0 F9000 X113.004 Y118.919
G1 F3000 X117.785 Y101.079 E746.8288
G0 F9000 X118.918 Y102.213
G1 F3000 X101.08 Y106.993 E747.47373
;MESH:NONMESH
G0 F300 X101.08 Y106.993 Z9.8
G0 F9000 X101 Y119
;TIME_ELAPSED:896.607581
;LAYER:48
;TYPE:WALL-INNER
;MESH:20mm_cube.stl
G1 F1500 X101 Y101 E748.10235
G1 X119 Y101 E748.73097
G1 X119 Y119 E749.35958
G1 X101 Y119 E749.9882
G0 F9000 X100.6 Y119.4
G1 F1500 X100.6 Y100.6 E750.64476
G1 X119.4 Y100.6 E751.30131
G1 X119.4 Y119.4 E751.95787
G1 X100.6 Y119.4 E752.61442
G0 F9000 X100.2 Y119.8
;TYPE:WALL-OUTER
G1 F1500 X100.2 Y100.2 E753.29891
G1 X119.8 Y100.2 E753.98341
G1 X119.8 Y119.8 E754.6679
G1 X100.2 Y119.8 E755.35239
G0 F9000 X100.47 Y119.53
G0 X103.262 Y118.919
;TYPE:FILL
G1 F3000 X101.079 Y116.736 E755.46021
G0 F9000 X101.079 Y116.515
G1 F3000 X105.215 Y101.079 E756.0183
G0 F9000 X102.394 Y101.08
G1 F3000 X118.919 Y117.605 E756.83445
G0 F9000 X118.918 Y114.782
G1 F3000 X103.478 Y118.919 E757.39268
G0 F9000 X106.647 Y118.92
G1 F3000 X111.427 Y101.079 E758.03772
G0 F9000 X110.879 Y101.08
G1 F3000 X118.919 Y109.12 E758.43481
G0 F9000 X118.919 Y108.57
G1 F3000 X101.08 Y113.35 E759.07978
G0 F9000 X101.079 Y108.25
G1 F3000 X111.747 Y118.919 E759.60668
G0 F9000 X112.858 Y118.92
G1 F3000 X117.639 Y101.079 E760.25173
G0 F9000 X118.918 Y102.359
G1 F3000 X101.079 Y107.139 E760.8967
;MESH:NONMESH
G0 F300 X101.079 Y107.139 Z10
G0 F9000 X101 Y119
;TIME_ELAPSED:911.378603
;LAYER:49
;TYPE:WALL-INNER
;MESH:20mm_cube.stl
G1 F1500 X101 Y101 E761.52532
G1 X119 Y101 E762.15394
G1 X119 Y119 E762.78255
G1 X101 Y119 E763.41117
G0 F9000 X100.6 Y119.4
G1 F1500 X100.6 Y100.6 E764.06772
G1 X119.4 Y100.6 E764.72428
G1 X119.4 Y119.4 E765.38083
G1 X100.6 Y119.4 E766.03739
G0 F9000 X100.2 Y119.8
;TYPE:WALL-OUTER
G1 F1500 X100.2 Y100.2 E766.72188
G1 X119.8 Y100.2 E767.40638
G1 X119.8 Y119.8 E768.09087
G1 X100.2 Y119.8 E768.77536
G0 F9000 X100.47 Y119.53
G0 X103.463 Y118.919
;TYPE:FILL
G1 F3000 X101.079 Y116.535 E768.89311
G0 F9000 X101.079 Y115.966
G1 F3000 X105.068 Y101.079 E769.43135
G0 F9000 X102.594 Y101.08
G1 F3000 X118.919 Y117.405 E770.23762
G0 F9000 X118.919 Y114.929
G1 F3000 X104.027 Y118.919 E770.77604
G0 F9000 X106.5 Y118.92
G1 F3000 X111.28 Y101.079 E771.42108
G0 F9000 X111.08 Y101.08
G1 F3000 X118.919 Y108.919 E771.80824
G0 F9000 X118.919 Y108.717
G1 F3000 X101.08 Y113.497 E772.45321
G0 F9000 X101.079 Y108.05
G1 F3000 X111.948 Y118.919 E772.99001
G0 F9000 X112.711 Y118.92
G1 F3000 X117.492 Y101.079 E773.63506
G0 F9000 X118.918 Y102.506
G1 F3000 X101.079 Y107.286 E774.28003
;MESH:NONMESH
G0 F300 X101.079 Y107.286 Z10.2
G0 F9000 X101 Y119
;TIME_ELAPSED:926.066607
;LAYER:50
;TYPE:WALL-INNER
;MESH:20mm_cube.stl
G1 F1500 X101 Y101 E774.90865
G1 X119 Y101 E775.53727
G1 X119 Y119 E776.16588
G1 X101 Y119 E776.7945
G0 F9000 X100.6 Y119.4
G1 F1500 X100.6 Y100.6 E777.45105
G1 X119.4 Y100.6 E778.10761
G1 X119.4 Y119.4 E778.76416
G1 X100.6 Y119.4 E779.42072
G0 F9000 X100.2 Y119.8
;TYPE:WALL-OUTER
G1 F1500 X100.2 Y100.2 E780.10521
G1 X119.8 Y100.2 E780.78971
G1 X119.8 Y119.8 E781.4742
G1 X100.2 Y119.8 E782.15869
G0 F9000 X100.47 Y119.53
G0 X103.662 Y118.919
;TYPE:FILL
G1 F3000 X101.079 Y116.336 E782.28626
G0 F9000 X101.079 Y115.422
G1 F3000 X104.922 Y101.079 E782.80484
G0 F9000 X102.794 Y101.08
G1 F3000 X118.919 Y117.205 E783.60123
G0 F9000 X118.919 Y118.39
G1 F3000 X118.777 Y118.919 E783.62036
G0 F9000 X118.918 Y115.075
G1 F3000 X104.571 Y118.919 E784.13907
G0 F9000 X106.354 Y118.919
G1 F3000 X111.134 Y101.078 E784.78411
G0 F9000 X111.279 Y101.08
G1 F3000 X118.919 Y108.72 E785.16144
G0 F9000 X118.919 Y108.863
G1 F3000 X101.08 Y113.643 E785.80641
G0 F9000 X101.079 Y107.85
G1 F3000 X112.147 Y118.919 E786.35307
G0 F9000 X112.565 Y118.92
G1 F3000 X117.346 Y101.079 E786.99812
G0 F9000 X118.919 Y102.652
G1 F3000 X101.079 Y107.432 E787.64313
G0 F9000 X101.08 Y101.22
G1 F3000 X101.605 Y101.079 E787.66211
;MESH:NONMESH
G0 F300 X101.605 Y101.079 Z10.4
G0 F9000 X101 Y119
;TIME_ELAPSED:941.150483
;LAYER:51
;TYPE:WALL-INNER
;MESH:20mm_cube.stl
G1 F1500 X101 Y101 E788.29073
G1 X119 Y101 E788.91934
G1 X119 Y119 E789.54796
G1 X101 Y119 E790.17658
G0 F9000 X100.6 Y119.4
G1 F1500 X100.6 Y100.6 E790.83313
G1 X119.4 Y100.6 E791.48969
G1 X119.4 Y119.4 E792.14624
G1 X100.6 Y119.4 E792.8028
G0 F9000 X100.2 Y119.8
;TYPE:WALL-OUTER
G1 F1500 X100.2 Y100.2 E793.48729
G1 X119.8 Y100.2 E794.17178
G1 X119.8 Y119.8 E794.85628
G1 X100.2 Y119.8 E795.54077
G0 F9000 X100.47 Y119.53
G0 X103.861 Y118.919
;TYPE:FILL
G1 F3000 X101.079 Y116.136 E795.67819
G0 F9000 X101.079 Y114.877
G1 F3000 X104.776 Y101.079 E796.17706
G0 F9000 X102.993 Y101.08
G1 F3000 X118.919 Y117.006 E796.96363
G0 F9000 X118.919 Y117.846
G1 F3000 X118.631 Y118.92 E797.00246
G0 F9000 X118.919 Y115.221
G1 F3000 X105.117 Y118.919 E797.50147
G0 F9000 X106.208 Y118.919
G1 F3000 X110.988 Y101.079 E798.14647
G0 F9000 X111.478 Y101.08
G1 F3000 X118.919 Y108.521 E798.51398
G0 F9000 X118.918 Y109.009
G1 F3000 X101.08 Y113.789 E799.15891
G0 F9000 X101.079 Y107.651
G1 F3000 X112.347 Y118.919 E799.71543
G0 F9000 X112.419 Y118.92
G1 F3000 X117.2 Y101.079 E800.36047
G0 F9000 X118.919 Y102.798
G1 F3000 X101.08 Y107.578 E801.00545
G0 F9000 X101.079 Y101.366
G1 F3000 X102.15 Y101.079 E801.04417
;MESH:NONMESH
G0 F300 X102.15 Y101.079 Z10.6
G0 F9000 X101 Y119
;TIME_ELAPSED:956.271534
;LAYER:52
;TYPE:WALL-INNER
;MESH:20mm_cube.stl
G1 F1500 X101 Y101 E801.67279
G1 X119 Y101 E802.3014
G1 X119 Y119 E802.93002
G1 X101 Y119 E803.55863
G0 F9000 X100.6 Y119.4
G1 F1500 X100.6 Y100.6 E804.21519
G1 X119.4 Y100.6 E804.87174
G1 X119.4 Y119.4 E805.5283
G1 X100.6 Y119.4 E806.18485
G0 F9000 X100.2 Y119.8
;TYPE:WALL-OUTER
G1 F1500 X100.2 Y100.2 E806.86935
G1 X119.8 Y100.2 E807.55384
G1 X119.8 Y119.8 E808.23834
G1 X100.2 Y119.8 E808.92283
G0 F9000 X100.47 Y119.53
G0 X104.062 Y118.919
;TYPE:FILL
G1 F3000 X101.079 Y115.935 E809.07018
G0 F9000 X101.079 Y114.329
G1 F3000 X104.629 Y101.079 E809.54923
G0 F9000 X103.194 Y101.08
G1 F3000 X118.919 Y116.805 E810.32587
G0 F9000 X118.919 Y117.297
G1 F3000 X118.484 Y118.92 E810.38455
G0 F9000 X118.919 Y115.368
G1 F3000 X105.666 Y118.919 E810.86371
G0 F9000 X106.061 Y118.919
G1 F3000 X110.841 Y101.079 E811.50872
G0 F9000 X111.679 Y101.08
G1 F3000 X118.919 Y108.32 E811.86629
G0 F9000 X118.918 Y109.156
G1 F3000 X101.08 Y113.936 E812.51123
G0 F9000 X101.08 Y107.725
G1 F3000 X118.919 Y102.945 E813.1562
G0 F9000 X117.053 Y101.079
G1 F3000 X112.272 Y118.92 E813.80125
G0 F9000 X112.548 Y118.919
G1 F3000 X101.079 Y107.45 E814.36769
G0 F9000 X101.079 Y101.513
G1 F3000 X102.698 Y101.079 E814.42623
;MESH:NONMESH
G0 F300 X102.698 Y101.079 Z10.8
G0 F9000 X101 Y119
;TIME_ELAPSED:971.406770
;LAYER:53
;TYPE:WALL-INNER
;MESH:20mm_cube.stl
G1 F1500 X101 Y101 E815.05484
G1 X119 Y101 E815.68346
G1 X119 Y119 E816.31208
G1 X101 Y119 E816.94069
G0 F9000 X100.6 Y119.4
G1 F1500 X100.6 Y100.6 E817.59725
G1 X119.4 Y100.6 E818.2538
G1 X119.4 Y119.4 E818.91036
G1 X100.6 Y119.4 E819.56691
G0 F9000 X100.2 Y119.8
;TYPE:WALL-OUTER
G1 F1500 X100.2 Y100.2 E820.25141
G1 X119.8 Y100.2 E820.9359
G1 X119.8 Y119.8 E821.62039
G1 X100.2 Y119.8 E822.30489
G0 F9000 X100.47 Y119.53
G0 X104.262 Y118.919
;TYPE:FILL
G1 F3000 X101.079 Y115.736 E822.46209
G0 F9000 X101.08 Y114.082
G1 F3000 X118.918 Y109.302 E823.10703
G0 F9000 X118.919 Y108.12
G1 F3000 X111.879 Y101.08 E823.45473
G0 F9000 X110.695 Y101.079
G1 F3000 X105.915 Y118.919 E824.09973
G0 F9000 X106.21 Y118.919
G1 F3000 X118.919 Y115.514 E824.55922
G0 F9000 X118.919 Y116.606
G1 F3000 X103.393 Y101.08 E825.32603
G0 F9000 X103.244 Y101.079
G1 F3000 X101.079 Y101.659 E825.40431
G0 F9000 X104.483 Y101.079
G1 F3000 X101.079 Y113.783 E825.86362
G0 F9000 X101.08 Y107.871
G1 F3000 X118.919 Y103.091 E826.50859
G0 F9000 X116.907 Y101.079
G1 F3000 X112.126 Y118.919 E827.15361
G0 F9000 X112.747 Y118.919
G1 F3000 X101.079 Y107.251 E827.72988
G0 F9000 X118.919 Y116.752
G1 F3000 X118.338 Y118.92 E827.80826
;MESH:NONMESH
G0 F300 X118.338 Y118.92 Z11
G0 F9000 X101 Y119
;TIME_ELAPSED:986.761374
;LAYER:54
;TYPE:WALL-INNER
;MESH:20mm_cube.stl
G1 F1500 X101 Y101 E828.43688
G1 X119 Y101 E829.0655
G1 X119 Y119 E829.69411
G1 X101 Y119 E830.32273
G0 F9000 X100.6 Y119.4
G1 F1500 X100.6 Y100.6 E830.97928
G1 X119.4 Y100.6 E831.63584
G1 X119.4 Y119.4 E832.29239
G1 X100.6 Y119.4 E832.94895
G0 F9000 X100.2 Y119.8
;TYPE:WALL-OUTER
G1 F1500 X100.2 Y100.2 E833.63344
G1 X119.8 Y100.2 E834.31794
G1 X119.8 Y119.8 E835.00243
G1 X100.2 Y119.8 E835.68692
G0 F9000 X100.47 Y119.53
G0 X104.463 Y118.919
;TYPE:FILL
G1 F3000 X101.079 Y115.535 E835.85405
G0 F9000 X101.08 Y114.229
G1 F3000 X118.918 Y109.449 E836.49899
G0 F9000 X118.919 Y107.92
G1 F3000 X112.079 Y101.08 E836.83681
G0 F9000 X110.548 Y101.079
G1 F3000 X105.768 Y118.919 E837.48182
G0 F9000 X106.759 Y118.919
G1 F3000 X118.919 Y115.661 E837.92146
G0 F9000 X118.919 Y116.204
G1 F3000 X118.191 Y118.92 E838.01966
G0 F9000 X118.919 Y116.405
G1 F3000 X103.594 Y101.08 E838.77654
G0 F9000 X103.792 Y101.079
G1 F3000 X101.079 Y101.806 E838.87463
G0 F9000 X104.336 Y101.079
G1 F3000 X101.079 Y113.234 E839.3141
G0 F9000 X101.08 Y108.018
G1 F3000 X118.919 Y103.238 E839.95907
G0 F9000 X116.76 Y101.078
G1 F3000 X111.979 Y118.919 E840.60412
G0 F9000 X112.948 Y118.919
G1 F3000 X101.079 Y107.05 E841.19031
;MESH:NONMESH
G0 F300 X101.079 Y107.05 Z11.2
G0 F9000 X101 Y119
;TIME_ELAPSED:1001.852906
;LAYER:55
;TYPE:WALL-INNER
;MESH:20mm_cube.stl
G1 F1500 X101 Y101 E841.81893
G1 X119 Y101 E842.44755
G1 X119 Y119 E843.07616
G1 X101 Y119 E843.70478
G0 F9000 X100.6 Y119.4
G1 F1500 X100.6 Y100.6 E844.36133
G1 X119.4 Y100.6 E845.01789
G1 X119.4 Y119.4 E845.67444
G1 X100.6 Y119.4 E846.331
G0 F9000 X100.2 Y119.8
;TYPE:WALL-OUTER
G1 F1500 X100.2 Y100.2 E847.01549
G1 X119.8 Y100.2 E847.69999
G1 X119.8 Y119.8 E848.38448
G1 X100.2 Y119.8 E849.06897
G0 F9000 X100.47 Y119.53
G0 X104.662 Y118.919
;TYPE:FILL
G1 F3000 X101.079 Y115.336 E849.24593
G0 F9000 X101.079 Y114.375
G1 F3000 X118.918 Y109.595 E849.8909
G0 F9000 X118.919 Y107.72
G1 F3000 X112.279 Y101.08 E850.21885
G0 F9000 X110.402 Y101.079
G1 F3000 X105.622 Y118.92 E850.86388
G0 F9000 X107.303 Y118.919
G1 F3000 X118.919 Y115.807 E851.28386
G0 F9000 X118.919 Y115.658
G1 F3000 X118.045 Y118.92 E851.40179
G0 F9000 X118.919 Y116.205
G1 F3000 X103.794 Y101.08 E852.1488
G0 F9000 X104.191 Y101.078
G1 F3000 X101.079 Y112.69 E852.56864
G0 F9000 X101.08 Y108.164
G1 F3000 X118.918 Y103.384 E853.21358
G0 F9000 X116.614 Y101.079
G1 F3000 X111.833 Y118.919 E853.85859
G0 F9000 X113.147 Y118.919
G1 F3000 X101.079 Y106.85 E854.45464
G0 F9000 X101.08 Y101.952
G1 F3000 X104.337 Y101.079 E854.5724
;MESH:NONMESH
G0 F300 X104.337 Y101.079 Z11.4
G0 F9000 X101 Y119
;TIME_ELAPSED:1017.080682
;LAYER:56
;TYPE:WALL-INNER
;MESH:20mm_cube.stl
G1 F1500 X101 Y101 E855.20101
G1 X119 Y101 E855.82963
G1 X119 Y119 E856.45825
G1 X101 Y119 E857.08686
G0 F9000 X100.6 Y119.4
G1 F1500 X100.6 Y100.6 E857.74342
G1 X119.4 Y100.6 E858.39997
G1 X119.4 Y119.4 E859.05653
G1 X100.6 Y119.4 E859.71308
G0 F9000 X100.2 Y119.8
;TYPE:WALL-OUTER
G1 F1500 X100.2 Y100.2 E860.39758
G1 X119.8 Y100.2 E861.08207
G1 X119.8 Y119.8 E861.76657
G1 X100.2 Y119.8 E862.45106
G0 F9000 X100.47 Y119.53
G0 X104.863 Y118.919
;TYPE:FILL
G1 F3000 X101.079 Y115.135 E862.63795
G0 F9000 X101.079 Y114.522
G1 F3000 X118.918 Y109.742 E863.28292
G0 F9000 X118.919 Y107.519
G1 F3000 X112.48 Y101.08 E863.60093
G0 F9000 X110.255 Y101.079
G1 F3000 X105.475 Y118.92 E864.24597
G0 F9000 X107.852 Y118.919
G1 F3000 X118.919 Y115.954 E864.6461
G0 F9000 X118.919 Y116.005
G1 F3000 X103.994 Y101.08 E865.38322
G0 F9000 X104.044 Y101.078
G1 F3000 X101.079 Y112.141 E865.78321
G0 F9000 X101.08 Y108.311
G1 F3000 X118.918 Y103.531 E866.42815
G0 F9000 X116.467 Y101.079
G1 F3000 X111.686 Y118.919 E867.07316
G0 F9000 X113.348 Y118.919
G1 F3000 X101.079 Y106.65 E867.67912
G0 F9000 X101.08 Y102.099
G1 F3000 X104.886 Y101.079 E867.81672
G0 F9000 X118.919 Y115.109
G1 F3000 X117.898 Y118.92 E867.95451
;MESH:NONMESH
G0 F300 X117.898 Y118.92 Z11.6
G0 F9000 X101 Y119
;TIME_ELAPSED:1032.521744
;LAYER:57
;TYPE:WALL-INNER
;MESH:20mm_cube.stl
G1 F1500 X101 Y101 E868.58313
G1 X119 Y101 E869.21174
G1 X119 Y119 E869.84036
G1 X101 Y119 E870.46898
G0 F9000 X100.6 Y119.4
G1 F1500 X100.6 Y100.6 E871.12553
G1 X119.4 Y100.6 E871.78209
G1 X119.4 Y119.4 E872.43864
G1 X100.6 Y119.4 E873.0952
G0 F9000 X100.2 Y119.8
;TYPE:WALL-OUTER
G1 F1500 X100.2 Y100.2 E873.77969
G1 X119.8 Y100.2 E874.46418
G1 X119.8 Y119.8 E875.14868
G1 X100.2 Y119.8 E875.83317
G0 F9000 X100.47 Y119.53
G0 X105.062 Y118.919
;TYPE:FILL
G1 F3000 X101.079 Y114.935 E876.02991
G0 F9000 X101.08 Y114.668
G1 F3000 X118.919 Y109.888 E876.67488
G0 F9000 X118.919 Y107.32
G1 F3000 X112.679 Y101.08 E876.98307
G0 F9000 X110.109 Y101.079
G1 F3000 X105.329 Y118.92 E877.62811
G0 F9000 X108.397 Y118.919
G1 F3000 X118.919 Y116.1 E878.00853
G0 F9000 X118.919 Y115.805
G1 F3000 X104.194 Y101.08 E878.73578
G0 F9000 X103.898 Y101.078
G1 F3000 X101.079 Y111.596 E879.11606
G0 F9000 X101.079 Y108.457
G1 F3000 X118.918 Y103.677 E879.76103
G0 F9000 X116.321 Y101.079
G1 F3000 X111.54 Y118.92 E880.40608
G0 F9000 X113.547 Y118.919
G1 F3000 X101.079 Y106.45 E881.02189
G0 F9000 X101.08 Y102.245
G1 F3000 X105.43 Y101.079 E881.17916
G0 F9000 X118.919 Y114.565
G1 F3000 X117.752 Y118.919 E881.33659
;MESH:NONMESH
G0 F300 X117.752 Y118.919 Z11.8
G0 F9000 X101 Y119
;TIME_ELAPSED:1047.992058
;LAYER:58
;TYPE:WALL-INNER
;MESH:20mm_cube.stl
G1 F1500 X101 Y101 E881.9652
G1 X119 Y101 E882.59382
G1 X119 Y119 E883.22244
G1 X101 Y119 E883.85105
G0 F9000 X100.6 Y119.4
G1 F1500 X100.6 Y100.6 E884.50761
G1 X119.4 Y100.6 E885.16416
G1 X119.4 Y119.4 E885.82072
G1 X100.6 Y119.4 E886.47727
G0 F9000 X100.2 Y119.8
;TYPE:WALL-OUTER
G1 F1500 X100.2 Y100.2 E887.16177
G1 X119.8 Y100.2 E887.84626
G1 X119.8 Y119.8 E888.53075
G1 X100.2 Y119.8 E889.21525
G0 F9000 X100.47 Y119.53
G0 X105.183 Y118.919
;TYPE:FILL
G1 F3000 X109.963 Y101.078 E889.86029
G0 F9000 X112.878 Y101.08
G1 F3000 X118.919 Y107.121 E890.15864
G0 F9000 X118.919 Y110.034
G1 F3000 X101.08 Y114.814 E890.80361
G0 F9000 X101.079 Y114.736
G1 F3000 X105.262 Y118.919 E891.01021
G0 F9000 X108.942 Y118.919
G1 F3000 X118.918 Y116.246 E891.37089
G0 F9000 X118.919 Y115.606
G1 F3000 X104.393 Y101.08 E892.08831
G0 F9000 X103.752 Y101.079
G1 F3000 X101.079 Y111.052 E892.44889
G0 F9000 X101.079 Y108.603
G1 F3000 X118.918 Y103.823 E893.09386
G0 F9000 X116.175 Y101.079
G1 F3000 X111.394 Y118.92 E893.73891
G0 F9000 X113.747 Y118.919
G1 F3000 X101.079 Y106.251 E894.36457
G0 F9000 X101.08 Y102.391
G1 F3000 X105.975 Y101.079 E894.54155
G0 F9000 X118.919 Y114.02
G1 F3000 X117.606 Y118.919 E894.71868
;MESH:NONMESH
G0 F300 X117.606 Y118.919 Z12
G0 F9000 X101 Y119
;TIME_ELAPSED:1063.496207
;LAYER:59
;TYPE:WALL-INNER
;MESH:20mm_cube.stl
G1 F1500 X101 Y101 E895.3473
G1 X119 Y101 E895.97591
G1 X119 Y119 E896.60453
G1 X101 Y119 E897.23315
G0 F9000 X100.6 Y119.4
G1 F1500 X100.6 Y100.6 E897.8897
G1 X119.4 Y100.6 E898.54626
G1 X119.4 Y119.4 E899.20281
G1 X100.6 Y119.4 E899.85937
G0 F9000 X100.2 Y119.8
;TYPE:WALL-OUTER
G1 F1500 X100.2 Y100.2 E900.54386
G1 X119.8 Y100.2 E901.22835
G1 X119.8 Y119.8 E901.91285
G1 X100.2 Y119.8 E902.59734
G0 F9000 X100.47 Y119.53
G0 X105.036 Y118.919
;TYPE:FILL
G1 F3000 X109.816 Y101.078 E903.24238
G0 F9000 X113.079 Y101.08
G1 F3000 X118.919 Y106.92 E903.53081
G0 F9000 X118.918 Y103.97
G1 F3000 X101.079 Y108.75 E904.17578
G0 F9000 X101.079 Y110.503
G1 F3000 X103.605 Y101.079 E904.51651
G0 F9000 X104.594 Y101.08
G1 F3000 X118.919 Y115.405 E905.22401
G0 F9000 X118.918 Y116.393
G1 F3000 X109.491 Y118.919 E905.56484
G0 F9000 X111.247 Y118.92
G1 F3000 X116.028 Y101.079 E906.20989
G0 F9000 X106.524 Y101.079
G1 F3000 X101.08 Y102.538 E906.40672
G0 F9000 X101.079 Y106.05
G1 F3000 X113.948 Y118.919 E907.04231
G0 F9000 X117.459 Y118.919
G1 F3000 X118.919 Y113.472 E907.23925
