;FLAVOR:Marlin
;TIME:1408
;Filament used: 1.1087m
;Layer height: 0.2
;MINX:108.7
;MINY:108.7
;MINZ:0.2
;MAXX:126.3
;MAXY:126.3
;MAXZ:18
;Generated with Cura_SteamEngine 4.4.1
M140 S60
M105
M190 S60
M104 S200
M105
M109 S200
M82 ;absolute extrusion mode
M201 X500.00 Y500.00 Z100.00 E5000.00 ;Setup machine max acceleration
M203 X500.00 Y500.00 Z10.00 E50.00 ;Setup machine max feedrate
M204 P500.00 R1000.00 T500.00 ;Setup Print/Retract/Travel acceleration
M205 X8.00 Y8.00 Z0.40 E5.00 ;Setup Jerk
M220 S100 ;Reset Feedrate
M221 S100 ;Reset Flowrate

G28 ;Home

G92 E0 ;Reset Extruder
G1 Z2.0 F3000 ;Move Z Axis up
G1 X10.1 Y20 Z0.28 F5000.0 ;Move to start position
G1 X10.1 Y200.0 Z0.28 F1500.0 E15 ;Draw the first line
G1 X10.4 Y200.0 Z0.28 F5000.0 ;Move to side a little
G1 X10.4 Y20 Z0.28 F1500.0 E30 ;Draw the second line
G92 E0 ;Reset Extruder
G1 Z2.0 F3000 ;Move Z Axis up

M83 ;relative extrusion mode
G1 F1500 E-6.5
;LAYER_COUNT:90
;LAYER:0
M107
;MESH:CE3_cube.3mf
G0 F6000 X109.5 Y125.5 Z0.2
;TYPE:WALL-INNER
G1 F1500 E6.5
G1 F1200 X109.5 Y109.5 E0.53216
G1 X125.5 Y109.5 E0.53216
G1 X125.5 Y125.5 E0.53216
G1 X109.5 Y125.5 E0.53216
G0 F6000 X109.1 Y125.9
G1 F1200 X109.1 Y109.1 E0.55877
G1 X125.9 Y109.1 E0.55877
G1 X125.9 Y125.9 E0.55877
G1 X109.1 Y125.9 E0.55877
G0 F6000 X108.7 Y126.3
;TYPE:WALL-OUTER
G1 F1200 X108.7 Y108.7 E0.58538
G1 X126.3 Y108.7 E0.58538
G1 X126.3 Y126.3 E0.58538
G1 X108.7 Y126.3 E0.58538
G0 F6000 X108.97 Y126.03
G0 X109.61 Y125.11
G0 X109.89 Y125.11
;TYPE:SKIN
G1 F1200 X109.89 Y109.89 E0.50622
G1 X125.11 Y109.89 E0.50622
G1 X125.11 Y125.11 E0.50622
G1 X109.89 Y125.11 E0.50622
G0 F6000 X110.241 Y124.949
G1 F1200 X110.049 Y124.757 E0.00903
G0 F6000 X110.049 Y124.191
G1 F1200 X110.807 Y124.949 E0.03565
G0 F6000 X111.372 Y124.949
G1 F1200 X110.049 Y123.626 E0.06223
G0 F6000 X110.049 Y123.06
G1 F1200 X111.938 Y124.949 E0.08885
G0 F6000 X112.504 Y124.949
G1 F1200 X110.049 Y122.494 E0.11548
G0 F6000 X110.049 Y121.929
G1 F1200 X113.069 Y124.949 E0.14205
G0 F6000 X113.635 Y124.949
G1 F1200 X110.049 Y121.363 E0.16867
G0 F6000 X110.049 Y120.797
G1 F1200 X114.201 Y124.949 E0.1953
G0 F6000 X114.766 Y124.949
G1 F1200 X110.049 Y120.232 E0.22187
G0 F6000 X110.049 Y119.666
G1 F1200 X115.332 Y124.949 E0.2485
G0 F6000 X115.898 Y124.949
G1 F1200 X110.049 Y119.1 E0.27512
G0 F6000 X110.049 Y118.535
G1 F1200 X116.464 Y124.949 E0.30172
G0 F6000 X117.029 Y124.949
G1 F1200 X110.049 Y117.969 E0.32832
G0 F6000 X110.049 Y117.403
G1 F1200 X117.595 Y124.949 E0.35494
G0 F6000 X118.161 Y124.949
G1 F1200 X110.049 Y116.838 E0.38154
G0 F6000 X110.049 Y116.272
G1 F1200 X118.726 Y124.949 E0.40814
G0 F6000 X119.292 Y124.949
G1 F1200 X110.049 Y115.706 E0.43476
G0 F6000 X110.049 Y115.141
G1 F1200 X119.858 Y124.949 E0.46136
G0 F6000 X120.423 Y124.949
G1 F1200 X110.049 Y114.575 E0.48796
G0 F6000 X110.049 Y114.009
G1 F1200 X120.989 Y124.949 E0.51458
G0 F6000 X121.555 Y124.949
G1 F1200 X110.049 Y113.443 E0.54121
G0 F6000 X110.049 Y112.878
G1 F1200 X122.12 Y124.949 E0.56778
G0 F6000 X122.686 Y124.949
G1 F1200 X110.049 Y112.312 E0.59441
G0 F6000 X110.049 Y111.746
G1 F1200 X123.252 Y124.949 E0.62103
G0 F6000 X123.817 Y124.949
G1 F1200 X110.049 Y111.181 E0.6476
G0 F6000 X110.049 Y110.615
G1 F1200 X124.383 Y124.949 E0.67423
G0 F6000 X124.949 Y124.949
G1 F1200 X110.049 Y110.049 E0.70085
G0 F6000 X110.616 Y110.05
G1 F1200 X124.949 Y124.383 E0.67418
G0 F6000 X124.949 Y123.817
G1 F1200 X111.181 Y110.05 E0.64758
G0 F6000 X111.747 Y110.05
G1 F1200 X124.949 Y123.252 E0.62098
G0 F6000 X124.949 Y122.686
G1 F1200 X112.313 Y110.05 E0.59436
G0 F6000 X112.878 Y110.05
G1 F1200 X124.949 Y122.12 E0.56776
G0 F6000 X124.949 Y121.555
G1 F1200 X113.444 Y110.05 E0.54116
G0 F6000 X114.01 Y110.05
G1 F1200 X124.949 Y120.989 E0.51454
G0 F6000 X124.949 Y120.423
G1 F1200 X114.576 Y110.05 E0.48791
G0 F6000 X115.141 Y110.05
G1 F1200 X124.949 Y119.858 E0.46134
G0 F6000 X124.949 Y119.292
G1 F1200 X115.707 Y110.05 E0.43472
G0 F6000 X116.273 Y110.05
G1 F1200 X124.949 Y118.726 E0.40809
G0 F6000 X124.949 Y118.161
G1 F1200 X116.838 Y110.05 E0.38152
G0 F6000 X117.404 Y110.05
G1 F1200 X124.949 Y117.595 E0.35489
G0 F6000 X124.949 Y117.029
G1 F1200 X117.97 Y110.05 E0.32827
G0 F6000 X118.535 Y110.05
G1 F1200 X124.949 Y116.464 E0.30169
G0 F6000 X124.949 Y115.898
G1 F1200 X119.101 Y110.05 E0.27507
G0 F6000 X119.667 Y110.05
G1 F1200 X124.949 Y115.332 E0.24845
G0 F6000 X124.949 Y114.766
G1 F1200 X120.232 Y110.05 E0.22185
G0 F6000 X120.798 Y110.05
G1 F1200 X124.949 Y114.201 E0.19525
G0 F6000 X124.949 Y113.635
G1 F1200 X121.364 Y110.05 E0.16863
G0 F6000 X121.929 Y110.05
G1 F1200 X124.949 Y113.069 E0.14203
G0 F6000 X124.949 Y112.504
G1 F1200 X122.495 Y110.05 E0.11543
G0 F6000 X123.061 Y110.05
G1 F1200 X124.949 Y111.938 E0.08881
G0 F6000 X124.949 Y111.372
G1 F1200 X123.627 Y110.05 E0.06218
G0 F6000 X124.192 Y110.05
G1 F1200 X124.949 Y110.807 E0.03561
G0 F6000 X124.949 Y110.241
G1 F1200 X124.758 Y110.05 E0.00898
G0 F6000 X124.758 Y109.31
G1 F1500 E-6.5
;MESH:NONMESH
G0 F300 X124.758 Y109.31 Z0.4
G0 F6000 X109.682 Y109.682
G0 X109.5 Y125.5
;TIME_ELAPSED:50.607502
;LAYER:1
M140 S60
M106 S85
;TYPE:WALL-INNER
;MESH:CE3_cube.3mf
G1 F1500 E6.5
G1 F1350 X109.5 Y109.5 E0.53216
G1 X125.5 Y109.5 E0.53216
G1 X125.5 Y125.5 E0.53216
G1 X109.5 Y125.5 E0.53216
G0 F7500 X109.1 Y125.9
G1 F1350 X109.1 Y109.1 E0.55877
G1 X125.9 Y109.1 E0.55877
G1 X125.9 Y125.9 E0.55877
G1 X109.1 Y125.9 E0.55877
G0 F7500 X108.7 Y126.3
;TYPE:WALL-OUTER
G1 F1350 X108.7 Y108.7 E0.58538
G1 X126.3 Y108.7 E0.58538
G1 X126.3 Y126.3 E0.58538
G1 X108.7 Y126.3 E0.58538
G0 F7500 X108.97 Y126.03
G0 X109.61 Y125.11
G0 X109.89 Y125.11
;TYPE:SKIN
G1 F1350 X109.89 Y109.89 E0.50622
G1 X125.11 Y109.89 E0.50622
G1 X125.11 Y125.11 E0.50622
G1 X109.89 Y125.11 E0.50622
G0 F7500 X109.61 Y125.11
G0 X109.61 Y110.566
G0 X110.05 Y110.566
G1 F1350 X110.567 Y110.049 E0.02432
G0 F7500 X111.133 Y110.049
G1 F1350 X110.05 Y111.132 E0.05094
G0 F7500 X110.05 Y111.698
G1 F1350 X111.698 Y110.049 E0.07754
G0 F7500 X112.264 Y110.049
G1 F1350 X110.05 Y112.263 E0.10414
G0 F7500 X110.05 Y112.829
G1 F1350 X112.83 Y110.049 E0.13076
G0 F7500 X113.395 Y110.049
G1 F1350 X110.05 Y113.395 E0.15736
G0 F7500 X110.05 Y113.96
G1 F1350 X113.961 Y110.049 E0.18396
G0 F7500 X114.527 Y110.049
G1 F1350 X110.05 Y114.526 E0.21058
G0 F7500 X110.05 Y115.092
G1 F1350 X115.092 Y110.049 E0.23718
G0 F7500 X115.658 Y110.049
G1 F1350 X110.05 Y115.657 E0.26378
G0 F7500 X110.05 Y116.223
G1 F1350 X116.224 Y110.049 E0.29041
G0 F7500 X116.789 Y110.049
G1 F1350 X110.05 Y116.789 E0.31701
G0 F7500 X110.05 Y117.354
G1 F1350 X117.355 Y110.049 E0.3436
G0 F7500 X117.921 Y110.049
G1 F1350 X110.05 Y117.92 E0.37023
G0 F7500 X110.05 Y118.486
G1 F1350 X118.487 Y110.049 E0.39685
G0 F7500 X119.052 Y110.049
G1 F1350 X110.05 Y119.052 E0.42345
G0 F7500 X110.05 Y119.617
G1 F1350 X119.618 Y110.049 E0.45005
G0 F7500 X120.184 Y110.049
G1 F1350 X110.05 Y120.183 E0.47667
G0 F7500 X110.05 Y120.749
G1 F1350 X120.749 Y110.049 E0.50327
G0 F7500 X121.315 Y110.049
G1 F1350 X110.05 Y121.314 E0.52987
G0 F7500 X110.05 Y121.88
G1 F1350 X121.881 Y110.049 E0.55649
G0 F7500 X122.446 Y110.049
G1 F1350 X110.05 Y122.446 E0.58309
G0 F7500 X110.05 Y123.011
G1 F1350 X123.012 Y110.049 E0.60969
G0 F7500 X123.578 Y110.049
G1 F1350 X110.05 Y123.577 E0.63632
G0 F7500 X110.05 Y124.143
G1 F1350 X124.143 Y110.049 E0.66292
G0 F7500 X124.709 Y110.049
G1 F1350 X110.05 Y124.708 E0.68951
G0 F7500 X110.375 Y124.949
G1 F1350 X124.949 Y110.375 E0.68552
G0 F7500 X124.949 Y110.941
G1 F1350 X110.941 Y124.949 E0.65889
G0 F7500 X111.507 Y124.949
G1 F1350 X124.949 Y111.507 E0.63227
G0 F7500 X124.949 Y112.072
G1 F1350 X112.072 Y124.949 E0.60569
G0 F7500 X112.638 Y124.949
G1 F1350 X124.949 Y112.638 E0.57907
G0 F7500 X124.949 Y113.204
G1 F1350 X113.204 Y124.949 E0.55245
G0 F7500 X113.769 Y124.949
G1 F1350 X124.949 Y113.769 E0.52587
G0 F7500 X124.949 Y114.335
G1 F1350 X114.335 Y124.949 E0.49925
G0 F7500 X114.901 Y124.949
G1 F1350 X124.949 Y114.901 E0.47263
G0 F7500 X124.949 Y115.467
G1 F1350 X115.467 Y124.949 E0.446
G0 F7500 X116.032 Y124.949
G1 F1350 X124.949 Y116.032 E0.41943
G0 F7500 X124.949 Y116.598
G1 F1350 X116.598 Y124.949 E0.39281
G0 F7500 X117.164 Y124.949
G1 F1350 X124.949 Y117.164 E0.36618
G0 F7500 X124.949 Y117.729
G1 F1350 X117.729 Y124.949 E0.33961
G0 F7500 X118.295 Y124.949
G1 F1350 X124.949 Y118.295 E0.31298
G0 F7500 X124.949 Y118.861
G1 F1350 X118.861 Y124.949 E0.28636
G0 F7500 X119.426 Y124.949
G1 F1350 X124.949 Y119.426 E0.25978
G0 F7500 X124.949 Y119.992
G1 F1350 X119.992 Y124.949 E0.23316
G0 F7500 X120.558 Y124.949
G1 F1350 X124.949 Y120.558 E0.20654
G0 F7500 X124.949 Y121.123
G1 F1350 X121.123 Y124.949 E0.17996
G0 F7500 X121.689 Y124.949
G1 F1350 X124.949 Y121.689 E0.15334
G0 F7500 X124.949 Y122.255
G1 F1350 X122.255 Y124.949 E0.12672
G0 F7500 X122.82 Y124.949
G1 F1350 X124.949 Y122.82 E0.10014
G0 F7500 X124.949 Y123.386
G1 F1350 X123.386 Y124.949 E0.07352
G0 F7500 X123.952 Y124.949
G1 F1350 X124.949 Y123.952 E0.0469
G0 F7500 X124.949 Y124.517
G1 F1350 X124.517 Y124.949 E0.02032
G0 F7500 X124.517 Y125.69
;MESH:NONMESH
G0 F300 X124.517 Y125.69 Z0.6
G0 F7500 X109.5 Y125.5
;TIME_ELAPSED:92.492042
;LAYER:2
M106 S170
;TYPE:WALL-INNER
;MESH:CE3_cube.3mf
G1 F1500 X109.5 Y109.5 E0.53216
G1 X125.5 Y109.5 E0.53216
G1 X125.5 Y125.5 E0.53216
G1 X109.5 Y125.5 E0.53216
G0 F9000 X109.1 Y125.9
G1 F1500 X109.1 Y109.1 E0.55877
G1 X125.9 Y109.1 E0.55877
G1 X125.9 Y125.9 E0.55877
G1 X109.1 Y125.9 E0.55877
G0 F9000 X108.7 Y126.3
;TYPE:WALL-OUTER
G1 F1500 X108.7 Y108.7 E0.58538
G1 X126.3 Y108.7 E0.58538
G1 X126.3 Y126.3 E0.58538
G1 X108.7 Y126.3 E0.58538
G0 F9000 X108.97 Y126.03
G0 X109.61 Y125.11
G0 X109.89 Y125.11
;TYPE:SKIN
G1 F1500 X109.89 Y109.89 E0.50622
G1 X125.11 Y109.89 E0.50622
G1 X125.11 Y125.11 E0.50622
G1 X109.89 Y125.11 E0.50622
G0 F9000 X110.241 Y124.949
G1 F1500 X110.049 Y124.757 E0.00903
G0 F9000 X110.049 Y124.191
G1 F1500 X110.807 Y124.949 E0.03565
G0 F9000 X111.372 Y124.949
G1 F1500 X110.049 Y123.626 E0.06223
G0 F9000 X110.049 Y123.06
G1 F1500 X111.938 Y124.949 E0.08885
G0 F9000 X112.504 Y124.949
G1 F1500 X110.049 Y122.494 E0.11548
G0 F9000 X110.049 Y121.929
G1 F1500 X113.069 Y124.949 E0.14205
G0 F9000 X113.635 Y124.949
G1 F1500 X110.049 Y121.363 E0.16867
G0 F9000 X110.049 Y120.797
G1 F1500 X114.201 Y124.949 E0.1953
G0 F9000 X114.766 Y124.949
G1 F1500 X110.049 Y120.232 E0.22187
G0 F9000 X110.049 Y119.666
G1 F1500 X115.332 Y124.949 E0.2485
G0 F9000 X115.898 Y124.949
G1 F1500 X110.049 Y119.1 E0.27512
G0 F9000 X110.049 Y118.535
G1 F1500 X116.464 Y124.949 E0.30172
G0 F9000 X117.029 Y124.949
G1 F1500 X110.049 Y117.969 E0.32832
G0 F9000 X110.049 Y117.403
G1 F1500 X117.595 Y124.949 E0.35494
G0 F9000 X118.161 Y124.949
G1 F1500 X110.049 Y116.838 E0.38154
G0 F9000 X110.049 Y116.272
G1 F1500 X118.726 Y124.949 E0.40814
G0 F9000 X119.292 Y124.949
G1 F1500 X110.049 Y115.706 E0.43476
G0 F9000 X110.049 Y115.141
G1 F1500 X119.858 Y124.949 E0.46136
G0 F9000 X120.423 Y124.949
G1 F1500 X110.049 Y114.575 E0.48796
G0 F9000 X110.049 Y114.009
G1 F1500 X120.989 Y124.949 E0.51458
G0 F9000 X121.555 Y124.949
G1 F1500 X110.049 Y113.443 E0.54121
G0 F9000 X110.049 Y112.878
G1 F1500 X122.12 Y124.949 E0.56778
G0 F9000 X122.686 Y124.949
G1 F1500 X110.049 Y112.312 E0.59441
G0 F9000 X110.049 Y111.746
G1 F1500 X123.252 Y124.949 E0.62103
G0 F9000 X123.817 Y124.949
G1 F1500 X110.049 Y111.181 E0.6476
G0 F9000 X110.049 Y110.615
G1 F1500 X124.383 Y124.949 E0.67423
G0 F9000 X124.949 Y124.949
G1 F1500 X110.049 Y110.049 E0.70085
G0 F9000 X110.616 Y110.05
G1 F1500 X124.949 Y124.383 E0.67418
G0 F9000 X124.949 Y123.817
G1 F1500 X111.181 Y110.05 E0.64758
G0 F9000 X111.747 Y110.05
G1 F1500 X124.949 Y123.252 E0.62098
G0 F9000 X124.949 Y122.686
G1 F1500 X112.313 Y110.05 E0.59436
G0 F9000 X112.878 Y110.05
G1 F1500 X124.949 Y122.12 E0.56776
G0 F9000 X124.949 Y121.555
G1 F1500 X113.444 Y110.05 E0.54116
G0 F9000 X114.01 Y110.05
G1 F1500 X124.949 Y120.989 E0.51454
G0 F9000 X124.949 Y120.423
G1 F1500 X114.576 Y110.05 E0.48791
G0 F9000 X115.141 Y110.05
G1 F1500 X124.949 Y119.858 E0.46134
G0 F9000 X124.949 Y119.292
G1 F1500 X115.707 Y110.05 E0.43472
G0 F9000 X116.273 Y110.05
G1 F1500 X124.949 Y118.726 E0.40809
G0 F9000 X124.949 Y118.161
G1 F1500 X116.838 Y110.05 E0.38152
G0 F9000 X117.404 Y110.05
G1 F1500 X124.949 Y117.595 E0.35489
G0 F9000 X124.949 Y117.029
G1 F1500 X117.97 Y110.05 E0.32827
G0 F9000 X118.535 Y110.05
G1 F1500 X124.949 Y116.464 E0.30169
G0 F9000 X124.949 Y115.898
G1 F1500 X119.101 Y110.05 E0.27507
G0 F9000 X119.667 Y110.05
G1 F1500 X124.949 Y115.332 E0.24845
G0 F9000 X124.949 Y114.766
G1 F1500 X120.232 Y110.05 E0.22185
G0 F9000 X120.798 Y110.05
G1 F1500 X124.949 Y114.201 E0.19525
G0 F9000 X124.949 Y113.635
G1 F1500 X121.364 Y110.05 E0.16863
G0 F9000 X121.929 Y110.05
G1 F1500 X124.949 Y113.069 E0.14203
G0 F9000 X124.949 Y112.504
G1 F1500 X122.495 Y110.05 E0.11543
G0 F9000 X123.061 Y110.05
G1 F1500 X124.949 Y111.938 E0.08881
G0 F9000 X124.949 Y111.372
G1 F1500 X123.627 Y110.05 E0.06218
G0 F9000 X124.192 Y110.05
G1 F1500 X124.949 Y110.807 E0.03561
G0 F9000 X124.949 Y110.241
G1 F1500 X124.758 Y110.05 E0.00898
G0 F9000 X124.758 Y109.31
G1 F1500 E-6.5
;MESH:NONMESH
G0 F300 X124.758 Y109.31 Z0.8
G0 F9000 X109.682 Y109.682
G0 X109.5 Y125.5
;TIME_ELAPSED:131.073239
;LAYER:3
M106 S255
;TYPE:WALL-INNER
;MESH:CE3_cube.3mf
G1 F1500 E6.5
G1 X109.5 Y109.5 E0.53216
G1 X125.5 Y109.5 E0.53216
G1 X125.5 Y125.5 E0.53216
G1 X109.5 Y125.5 E0.53216
G0 F9000 X109.1 Y125.9
G1 F1500 X109.1 Y109.1 E0.55877
G1 X125.9 Y109.1 E0.55877
G1 X125.9 Y125.9 E0.55877
G1 X109.1 Y125.9 E0.55877
G0 F9000 X108.7 Y126.3
;TYPE:WALL-OUTER
G1 F1500 X108.7 Y108.7 E0.58538
G1 X126.3 Y108.7 E0.58538
G1 X126.3 Y126.3 E0.58538
G1 X108.7 Y126.3 E0.58538
G0 F9000 X108.97 Y126.03
G0 X109.61 Y125.11
G0 X109.89 Y125.11
;TYPE:SKIN
G1 F1500 X109.89 Y109.89 E0.50622
G1 X125.11 Y109.89 E0.50622
G1 X125.11 Y125.11 E0.50622
G1 X109.89 Y125.11 E0.50622
G0 F9000 X109.61 Y125.11
G0 X109.61 Y110.566
G0 X110.05 Y110.566
G1 F1500 X110.567 Y110.049 E0.02432
G0 F9000 X111.133 Y110.049
G1 F1500 X110.05 Y111.132 E0.05094
G0 F9000 X110.05 Y111.698
G1 F1500 X111.698 Y110.049 E0.07754
G0 F9000 X112.264 Y110.049
G1 F1500 X110.05 Y112.263 E0.10414
G0 F9000 X110.05 Y112.829
G1 F1500 X112.83 Y110.049 E0.13076
G0 F9000 X113.395 Y110.049
G1 F1500 X110.05 Y113.395 E0.15736
G0 F9000 X110.05 Y113.96
G1 F1500 X113.961 Y110.049 E0.18396
G0 F9000 X114.527 Y110.049
G1 F1500 X110.05 Y114.526 E0.21058
G0 F9000 X110.05 Y115.092
G1 F1500 X115.092 Y110.049 E0.23718
G0 F9000 X115.658 Y110.049
G1 F1500 X110.05 Y115.657 E0.26378
G0 F9000 X110.05 Y116.223
G1 F1500 X116.224 Y110.049 E0.29041
G0 F9000 X116.789 Y110.049
G1 F1500 X110.05 Y116.789 E0.31701
G0 F9000 X110.05 Y117.354
G1 F1500 X117.355 Y110.049 E0.3436
G0 F9000 X117.921 Y110.049
G1 F1500 X110.05 Y117.92 E0.37023
G0 F9000 X110.05 Y118.486
G1 F1500 X118.487 Y110.049 E0.39685
G0 F9000 X119.052 Y110.049
G1 F1500 X110.05 Y119.052 E0.42345
G0 F9000 X110.05 Y119.617
G1 F1500 X119.618 Y110.049 E0.45005
G0 F9000 X120.184 Y110.049
G1 F1500 X110.05 Y120.183 E0.47667
G0 F9000 X110.05 Y120.749
G1 F1500 X120.749 Y110.049 E0.50327
G0 F9000 X121.315 Y110.049
G1 F1500 X110.05 Y121.314 E0.52987
G0 F9000 X110.05 Y121.88
G1 F1500 X121.881 Y110.049 E0.55649
G0 F9000 X122.446 Y110.049
G1 F1500 X110.05 Y122.446 E0.58309
G0 F9000 X110.05 Y123.011
G1 F1500 X123.012 Y110.049 E0.60969
G0 F9000 X123.578 Y110.049
G1 F1500 X110.05 Y123.577 E0.63632
G0 F9000 X110.05 Y124.143
G1 F1500 X124.143 Y110.049 E0.66292
G0 F9000 X124.709 Y110.049
G1 F1500 X110.05 Y124.708 E0.68951
G0 F9000 X110.375 Y124.949
G1 F1500 X124.949 Y110.375 E0.68552
G0 F9000 X124.949 Y110.941
G1 F1500 X110.941 Y124.949 E0.65889
G0 F9000 X111.507 Y124.949
G1 F1500 X124.949 Y111.507 E0.63227
G0 F9000 X124.949 Y112.072
G1 F1500 X112.072 Y124.949 E0.60569
G0 F9000 X112.638 Y124.949
G1 F1500 X124.949 Y112.638 E0.57907
G0 F9000 X124.949 Y113.204
G1 F1500 X113.204 Y124.949 E0.55245
G0 F9000 X113.769 Y124.949
G1 F1500 X124.949 Y113.769 E0.52587
G0 F9000 X124.949 Y114.335
