;FLAVOR:Marlin
;TIME:669
;Filament used: 0.686908m
;Layer height: 0.4
;MINX:99.015
;MINY:99.002
;MINZ:0.2
;MAXX:135.985
;MAXY:135.998
;MAXZ:19.8
;Generated with Cura_SteamEngine 4.7.1
M140 S50
M105
M190 S50
M104 S200
M105
M109 S200
M82 ;absolute extrusion mode
; Ender 3 Custom Start G-code
G92 E0 ; Reset Extruder
G28 ; Home all axes
G1 Z2.0 F3000 ; Move Z Axis up little to prevent scratching of Heat Bed
G1 X0.1 Y20 Z0.3 F5000.0 ; Move to start position
G1 X0.1 Y200.0 Z0.3 F1500.0 E15 ; Draw the first line
G1 X0.4 Y200.0 Z0.3 F5000.0 ; Move to side a little
G1 X0.4 Y20 Z0.3 F1500.0 E30 ; Draw the second line
G92 E0 ; Reset Extruder
G1 Z2.0 F3000 ; Move Z Axis up little to prevent scratching of Heat Bed
G1 X5 Y20 Z0.3 F5000.0 ; Move over to prevent blob squish
G92 E0
G92 E0
G1 F2700 E-5
;LAYER_COUNT:50
;LAYER:0
M107
G0 F6000 X104.356 Y104.495 Z0.2
;TYPE:SKIRT
G1 F2700 E0
G1 F1200 X105.02 Y103.832 E0.03121
G1 X105.791 Y103.188 E0.06462
G1 X106.592 Y102.579 E0.09809
G1 X106.875 Y102.371 E0.10977
G1 X107.325 Y102.051 E0.12814
G1 X108.112 Y101.541 E0.15933
G1 X108.999 Y101.071 E0.19271
G1 X109.913 Y100.639 E0.22634
G1 X110.253 Y100.485 E0.23875
G1 X110.774 Y100.26 E0.25763
G1 X111.65 Y99.926 E0.28881
G1 X112.622 Y99.65 E0.32242
G1 X113.602 Y99.42 E0.3559
G1 X113.958 Y99.343 E0.36801
G1 X114.493 Y99.236 E0.38616
G1 X115.419 Y99.091 E0.41733
G1 X116.425 Y99.024 E0.45087
G1 X117.451 Y99.003 E0.485
G1 X117.838 Y99.002 E0.49787
G1 X118.38 Y99.01 E0.5159
G1 X119.317 Y99.064 E0.54712
G1 X120.293 Y99.206 E0.57992
G1 X121.303 Y99.4 E0.61413
G1 X121.696 Y99.483 E0.62749
G1 X122.226 Y99.605 E0.64557
G1 X123.13 Y99.854 E0.67676
G1 X124.039 Y100.192 E0.70902
G1 X124.955 Y100.579 E0.74209
G1 X125.307 Y100.735 E0.7549
G1 X125.826 Y100.976 E0.77393
G1 X126.659 Y101.407 E0.80512
G1 X127.517 Y101.953 E0.83895
G1 X128.341 Y102.532 E0.87245
G1 X128.608 Y102.725 E0.8834
G1 X129.061 Y103.064 E0.90222
G1 X129.787 Y103.657 E0.9334
G1 X130.46 Y104.311 E0.96461
G1 X130.51 Y104.368 E0.96713
G1 X130.511 Y104.367 E0.96718
G1 X131.181 Y105.085 E0.99984
G1 X131.436 Y105.368 E1.01251
G1 X131.819 Y105.808 E1.03192
G1 X132.404 Y106.541 E1.06311
G1 X132.949 Y107.361 E1.09586
G1 X133.465 Y108.219 E1.12916
G1 X133.661 Y108.559 E1.14221
G1 X133.939 Y109.061 E1.16129
G1 X134.358 Y109.9 E1.19249
G1 X134.716 Y110.808 E1.22495
G1 X135.037 Y111.74 E1.25773
G1 X135.146 Y112.071 E1.26933
G1 X135.322 Y112.64 E1.28914
G1 X135.56 Y113.547 E1.32032
G1 X135.732 Y114.555 E1.35433
G1 X135.85 Y115.519 E1.38664
G1 X135.885 Y115.847 E1.39761
G1 X135.939 Y116.434 E1.41721
G1 X135.985 Y117.371 E1.44842
G1 X135.946 Y118.363 E1.48144
G1 X135.863 Y119.351 E1.51441
G1 X135.827 Y119.715 E1.52658
G1 X135.759 Y120.293 E1.54593
G1 X135.609 Y121.219 E1.57714
G1 X135.365 Y122.184 E1.61024
G1 X135.083 Y123.119 E1.64272
G1 X134.976 Y123.455 E1.65445
G1 X134.786 Y124.019 E1.67425
G1 X134.449 Y124.894 E1.70543
G1 X134.009 Y125.792 E1.73869
G1 X133.528 Y126.67 E1.77199
G1 X133.337 Y127.005 E1.78482
G1 X133.044 Y127.498 E1.80389
G1 X132.531 Y128.283 E1.83508
G1 X131.926 Y129.053 E1.86765
G1 X131.26 Y129.827 E1.90161
G1 X131.015 Y130.102 E1.91386
G1 X130.644 Y130.505 E1.93208
G1 X129.98 Y131.168 E1.96329
G1 X129.209 Y131.812 E1.9967
G1 X128.408 Y132.421 E2.03017
G1 X128.125 Y132.629 E2.04185
G1 X127.675 Y132.949 E2.06022
G1 X126.888 Y133.459 E2.09141
G1 X126.001 Y133.929 E2.1248
G1 X125.087 Y134.361 E2.15842
G1 X124.747 Y134.515 E2.17083
G1 X124.226 Y134.74 E2.18971
G1 X123.35 Y135.074 E2.22089
G1 X122.378 Y135.35 E2.2545
G1 X121.398 Y135.58 E2.28798
G1 X121.042 Y135.657 E2.30009
G1 X120.507 Y135.764 E2.31824
G1 X119.581 Y135.909 E2.34941
G1 X118.575 Y135.976 E2.38295
G1 X117.549 Y135.997 E2.41708
G1 X117.162 Y135.998 E2.42995
G1 X116.62 Y135.99 E2.44798
G1 X115.683 Y135.936 E2.4792
G1 X114.707 Y135.794 E2.512
G1 X113.697 Y135.6 E2.54621
G1 X113.304 Y135.517 E2.55957
G1 X112.774 Y135.395 E2.57766
G1 X111.87 Y135.146 E2.60884
G1 X110.956 Y134.805 E2.64129
G1 X110.039 Y134.417 E2.67441
G1 X109.701 Y134.268 E2.68669
G1 X109.183 Y134.028 E2.70568
G1 X108.349 Y133.598 E2.73689
G1 X107.483 Y133.047 E2.77103
G1 X106.659 Y132.468 E2.80452
G1 X106.392 Y132.275 E2.81548
G1 X105.939 Y131.936 E2.8343
G1 X105.213 Y131.343 E2.86548
G1 X104.54 Y130.689 E2.89669
G1 X104.49 Y130.632 E2.89921
G1 X104.489 Y130.633 E2.89926
G1 X103.819 Y129.915 E2.93192
G1 X103.564 Y129.632 E2.94459
G1 X103.181 Y129.192 E2.964
G1 X102.596 Y128.459 E2.99519
G1 X102.051 Y127.639 E3.02794
G1 X101.535 Y126.781 E3.06124
G1 X101.339 Y126.441 E3.07429
G1 X101.061 Y125.939 E3.09337
G1 X100.642 Y125.1 E3.12457
G1 X100.284 Y124.192 E3.15703
G1 X99.963 Y123.26 E3.18981
G1 X99.854 Y122.929 E3.2014
G1 X99.678 Y122.36 E3.22121
G1 X99.44 Y121.453 E3.2524
G1 X99.268 Y120.445 E3.28641
G1 X99.15 Y119.481 E3.31872
G1 X99.115 Y119.153 E3.32969
G1 X99.061 Y118.566 E3.34929
G1 X99.015 Y117.629 E3.3805
G1 X99.054 Y116.637 E3.41351
G1 X99.137 Y115.649 E3.44649
G1 X99.173 Y115.287 E3.45859
G1 X99.241 Y114.708 E3.47798
G1 X99.39 Y113.782 E3.50918
G1 X99.636 Y112.812 E3.54246
G1 X99.918 Y111.878 E3.57491
G1 X100.024 Y111.545 E3.58653
G1 X100.214 Y110.981 E3.60633
G1 X100.551 Y110.106 E3.63751
G1 X100.991 Y109.208 E3.67077
G1 X101.472 Y108.33 E3.70407
G1 X101.663 Y107.995 E3.7169
G1 X101.956 Y107.502 E3.73597
G1 X102.469 Y106.717 E3.76716
G1 X103.074 Y105.947 E3.79973
G1 X103.74 Y105.173 E3.83369
G1 X103.985 Y104.898 E3.84594
G1 X104.356 Y104.495 E3.86416
G0 F6000 X104.65 Y104.766
G1 F1200 X105.303 Y104.116 E3.89481
G1 X106.034 Y103.507 E3.92645
G1 X106.835 Y102.898 E3.95992
G1 X107.107 Y102.697 E3.97117
G1 X107.557 Y102.377 E3.98953
G1 X108.33 Y101.877 E4.02015
G1 X109.17 Y101.433 E4.05175
G1 X110.084 Y101.001 E4.08538
G1 X110.411 Y100.853 E4.09732
G1 X110.932 Y100.628 E4.11619
G1 X111.793 Y100.3 E4.14684
G1 X112.713 Y100.039 E4.17864
G1 X113.693 Y99.809 E4.21212
G1 X114.036 Y99.735 E4.2238
G1 X114.571 Y99.628 E4.24194
G1 X115.481 Y99.487 E4.27257
G1 X116.433 Y99.424 E4.3043
G1 X117.459 Y99.403 E4.33843
G1 X117.832 Y99.402 E4.35084
G1 X118.374 Y99.41 E4.36887
G1 X119.294 Y99.464 E4.39952
G1 X120.217 Y99.599 E4.43055
G1 X121.227 Y99.793 E4.46475
G1 X121.606 Y99.873 E4.47764
G1 X122.136 Y99.995 E4.49573
G1 X123.023 Y100.24 E4.52633
G1 X123.883 Y100.561 E4.55686
G1 X124.799 Y100.948 E4.58994
G1 X125.138 Y101.098 E4.60227
G1 X125.657 Y101.339 E4.6213
G1 X126.475 Y101.763 E4.65194
G1 X127.287 Y102.28 E4.68396
G1 X128.111 Y102.859 E4.71746
G1 X128.368 Y103.045 E4.72801
G1 X128.821 Y103.384 E4.74683
G1 X129.533 Y103.967 E4.77743
G1 X130.193 Y104.61 E4.80808
G1 X130.219 Y104.64 E4.8094
G1 X130.889 Y105.358 E4.84207
G1 X131.134 Y105.63 E4.85424
G1 X131.517 Y106.07 E4.87364
G1 X132.091 Y106.79 E4.90427
G1 X132.606 Y107.567 E4.93527
G1 X133.122 Y108.425 E4.96857
G1 X133.311 Y108.753 E4.98116
G1 X133.589 Y109.255 E5.00025
G1 X134 Y110.079 E5.03088
G1 X134.338 Y110.938 E5.06158
G1 X134.659 Y111.87 E5.09436
G1 X134.764 Y112.19 E5.10557
G1 X134.94 Y112.759 E5.12538
G1 X135.173 Y113.649 E5.15598
G1 X135.334 Y114.603 E5.18815
G1 X135.452 Y115.567 E5.22046
G1 X135.486 Y115.884 E5.23106
G1 X135.54 Y116.471 E5.25067
G1 X135.585 Y117.391 E5.2813
G1 X135.548 Y118.329 E5.31252
G1 X135.465 Y119.317 E5.3455
G1 X135.429 Y119.669 E5.35727
G1 X135.361 Y120.247 E5.37663
G1 X135.214 Y121.155 E5.40722
G1 X134.982 Y122.069 E5.43858
G1 X134.7 Y123.004 E5.47107
G1 X134.597 Y123.327 E5.48234
G1 X134.407 Y123.891 E5.50214
G1 X134.076 Y124.75 E5.53275
G1 X133.658 Y125.6 E5.56426
G1 X133.177 Y126.478 E5.59756
G1 X132.993 Y126.801 E5.60992
G1 X132.7 Y127.294 E5.62899
G1 X132.196 Y128.064 E5.6596
G1 X131.623 Y128.792 E5.69042
G1 X130.957 Y129.566 E5.72438
G1 X130.721 Y129.831 E5.73618
G1 X130.35 Y130.234 E5.7544
G1 X129.697 Y130.884 E5.78505
G1 X128.966 Y131.493 E5.81669
G1 X128.165 Y132.102 E5.85016
G1 X127.893 Y132.303 E5.86141
G1 X127.443 Y132.623 E5.87977
G1 X126.67 Y133.123 E5.91039
G1 X125.83 Y133.567 E5.94199
G1 X124.916 Y133.999 E5.97562
G1 X124.589 Y134.147 E5.98756
G1 X124.068 Y134.372 E6.00643
G1 X123.207 Y134.7 E6.03708
G1 X122.287 Y134.961 E6.06888
G1 X121.307 Y135.191 E6.10236
G1 X120.964 Y135.265 E6.11403
G1 X120.429 Y135.372 E6.13218
G1 X119.519 Y135.513 E6.16281
G1 X118.567 Y135.576 E6.19454
G1 X117.541 Y135.597 E6.22867
G1 X117.168 Y135.598 E6.24108
G1 X116.626 Y135.59 E6.25911
G1 X115.706 Y135.536 E6.28976
G1 X114.783 Y135.401 E6.32079
G1 X113.773 Y135.207 E6.35499
G1 X113.394 Y135.127 E6.36788
G1 X112.864 Y135.005 E6.38596
G1 X111.977 Y134.76 E6.41657
G1 X111.111 Y134.437 E6.44731
G1 X110.194 Y134.049 E6.48043
G1 X109.869 Y133.905 E6.49225
G1 X109.351 Y133.665 E6.51124
G1 X108.533 Y133.242 E6.54187
G1 X107.713 Y132.72 E6.5742
G1 X106.889 Y132.141 E6.6077
G1 X106.632 Y131.955 E6.61825
G1 X106.179 Y131.616 E6.63707
G1 X105.467 Y131.033 E6.66767
G1 X104.807 Y130.39 E6.69832
G1 X104.781 Y130.36 E6.69964
G1 X104.111 Y129.642 E6.7323
G1 X103.866 Y129.37 E6.74448
G1 X103.483 Y128.93 E6.76388
G1 X102.909 Y128.21 E6.79451
G1 X102.394 Y127.433 E6.82551
G1 X101.878 Y126.575 E6.85881
G1 X101.689 Y126.247 E6.8714
G1 X101.411 Y125.745 E6.89049
G1 X101 Y124.921 E6.92112
G1 X100.662 Y124.062 E6.95182
G1 X100.341 Y123.13 E6.9846
G1 X100.236 Y122.81 E6.99581
G1 X100.06 Y122.241 E7.01562
G1 X99.827 Y121.351 E7.04621
G1 X99.666 Y120.397 E7.07839
G1 X99.548 Y119.433 E7.1107
G1 X99.514 Y119.116 E7.1213
G1 X99.46 Y118.529 E7.14091
G1 X99.415 Y117.609 E7.17154
G1 X99.452 Y116.671 E7.20276
G1 X99.535 Y115.683 E7.23574
G1 X99.57 Y115.334 E7.24741
G1 X99.638 Y114.755 E7.2668
G1 X99.785 Y113.846 E7.29742
G1 X100.018 Y112.927 E7.32896
G1 X100.3 Y111.993 E7.36141
G1 X100.403 Y111.673 E7.37259
G1 X100.593 Y111.109 E7.39238
G1 X100.924 Y110.25 E7.423
G1 X101.342 Y109.4 E7.4545
G1 X101.823 Y108.522 E7.4878
G1 X102.007 Y108.199 E7.50017
G1 X102.3 Y107.706 E7.51924
G1 X102.804 Y106.936 E7.54985
G1 X103.377 Y106.208 E7.58066
G1 X104.043 Y105.434 E7.61462
G1 X104.279 Y105.169 E7.62643
G1 X104.65 Y104.766 E7.64465
G0 F6000 X104.945 Y105.037
G1 F1200 X105.585 Y104.4 E7.67468
G1 X106.276 Y103.825 E7.70458
G1 X107.077 Y103.216 E7.73805
G1 X107.339 Y103.023 E7.74887
G1 X107.789 Y102.703 E7.76723
G1 X108.547 Y102.213 E7.79725
G1 X109.341 Y101.794 E7.82711
G1 X110.255 Y101.362 E7.86074
G1 X110.57 Y101.22 E7.87223
G1 X111.091 Y100.995 E7.89111
G1 X111.935 Y100.674 E7.92114
G1 X112.804 Y100.429 E7.95117
G1 X113.784 Y100.199 E7.98465
G1 X114.115 Y100.127 E7.99592
G1 X114.65 Y100.02 E8.01406
G1 X115.542 Y99.882 E8.04408
G1 X116.441 Y99.824 E8.07405
G1 X117.467 Y99.803 E8.10818
G1 X117.827 Y99.802 E8.12015
G1 X118.369 Y99.81 E8.13818
G1 X119.27 Y99.863 E8.1682
G1 X120.142 Y99.992 E8.19752
G1 X121.152 Y100.186 E8.23173
G1 X121.516 Y100.263 E8.2441
G1 X122.046 Y100.385 E8.26219
G1 X122.916 Y100.626 E8.29222
G1 X123.728 Y100.929 E8.32104
G1 X124.644 Y101.316 E8.35412
G1 X124.97 Y101.461 E8.36598
G1 X125.489 Y101.702 E8.38501
G1 X126.29 Y102.118 E8.41503
G1 X127.057 Y102.607 E8.44529
G1 X127.881 Y103.186 E8.47878
G1 X128.128 Y103.366 E8.48895
G1 X128.581 Y103.705 E8.50777
G1 X129.28 Y104.277 E8.53781
G1 X129.925 Y104.909 E8.56784
G1 X129.954 Y104.943 E8.56933
G1 X130.596 Y105.631 E8.60063
G1 X130.833 Y105.893 E8.61238
G1 X131.216 Y106.333 E8.63178
G1 X131.778 Y107.04 E8.66182
G1 X132.263 Y107.773 E8.69105
G1 X132.779 Y108.631 E8.72435
G1 X132.961 Y108.947 E8.73648
G1 X133.239 Y109.449 E8.75557
G1 X133.641 Y110.257 E8.78559
G1 X133.96 Y111.068 E8.81457
G1 X134.281 Y112 E8.84736
G1 X134.381 Y112.308 E8.85813
G1 X134.557 Y112.877 E8.87794
G1 X134.786 Y113.751 E8.90799
G1 X134.937 Y114.652 E8.93837
G1 X135.055 Y115.616 E8.97067
G1 X135.088 Y115.921 E8.98088
G1 X135.142 Y116.508 E9.00048
G1 X135.185 Y117.41 E9.03052
G1 X135.149 Y118.296 E9.06001
G1 X135.066 Y119.284 E9.09299
G1 X135.032 Y119.622 E9.10429
G1 X134.964 Y120.2 E9.12364
G1 X134.819 Y121.091 E9.15367
G1 X134.6 Y121.953 E9.18325
G1 X134.318 Y122.888 E9.21573
G1 X134.218 Y123.199 E9.2266
G1 X134.028 Y123.763 E9.24639
G1 X133.702 Y124.606 E9.27645
G1 X133.308 Y125.408 E9.30617
G1 X132.827 Y126.286 E9.33947
G1 X132.649 Y126.596 E9.35136
G1 X132.356 Y127.089 E9.37043
G1 X131.861 Y127.844 E9.40046
G1 X131.32 Y128.531 E9.42955
G1 X130.654 Y129.305 E9.46351
G1 X130.426 Y129.56 E9.47489
G1 X130.055 Y129.963 E9.4931
G1 X129.415 Y130.6 E9.52314
G1 X128.724 Y131.175 E9.55304
G1 X127.923 Y131.784 E9.5865
G1 X127.661 Y131.977 E9.59733
G1 X127.211 Y132.297 E9.61569
G1 X126.453 Y132.787 E9.64571
G1 X125.659 Y133.206 E9.67557
G1 X124.745 Y133.638 E9.7092
G1 X124.43 Y133.78 E9.72069
G1 X123.909 Y134.005 E9.73956
G1 X123.065 Y134.326 E9.7696
G1 X122.196 Y134.571 E9.79963
G1 X121.216 Y134.801 E9.83311
G1 X120.885 Y134.873 E9.84437
G1 X120.35 Y134.98 E9.86252
G1 X119.458 Y135.118 E9.89254
G1 X118.559 Y135.176 E9.92251
G1 X117.533 Y135.197 E9.95664
G1 X117.173 Y135.198 E9.96861
G1 X116.631 Y135.19 E9.98664
G1 X115.73 Y135.137 E10.01666
G1 X114.858 Y135.008 E10.04598
G1 X113.848 Y134.814 E10.08018
G1 X113.484 Y134.737 E10.09256
G1 X112.954 Y134.615 E10.11065
G1 X112.084 Y134.374 E10.14067
G1 X111.267 Y134.069 E10.16968
G1 X110.35 Y133.681 E10.2028
G1 X110.037 Y133.542 E10.21419
G1 X109.519 Y133.302 E10.23318
G1 X108.717 Y132.886 E10.26322
G1 X107.943 Y132.393 E10.29375
G1 X107.119 Y131.814 E10.32724
G1 X106.872 Y131.634 E10.33741
G1 X106.419 Y131.295 E10.35623
G1 X105.72 Y130.723 E10.38627
G1 X105.075 Y130.091 E10.4163
G1 X105.046 Y130.057 E10.41779
G1 X104.404 Y129.369 E10.44909
G1 X104.167 Y129.107 E10.46084
G1 X103.784 Y128.667 E10.48024
G1 X103.222 Y127.96 E10.51028
G1 X102.737 Y127.227 E10.53951
G1 X102.221 Y126.369 E10.57281
G1 X102.039 Y126.053 E10.58494
G1 X101.761 Y125.551 E10.60403
G1 X101.359 Y124.743 E10.63404
G1 X101.04 Y123.932 E10.66303
G1 X100.719 Y123 E10.69581
G1 X100.619 Y122.692 E10.70658
G1 X100.443 Y122.123 E10.72639
G1 X100.214 Y121.249 E10.75644
G1 X100.063 Y120.348 E10.78683
G1 X99.945 Y119.384 E10.81913
G1 X99.912 Y119.079 E10.82934
G1 X99.858 Y118.492 E10.84894
G1 X99.815 Y117.59 E10.87898
G1 X99.851 Y116.704 E10.90847
G1 X99.934 Y115.716 E10.94145
G1 X99.968 Y115.38 E10.95268
G1 X100.036 Y114.801 E10.97207
G1 X100.181 Y113.91 E11.00209
G1 X100.401 Y113.043 E11.03184
G1 X100.683 Y112.109 E11.06429
G1 X100.782 Y111.801 E11.07505
G1 X100.972 Y111.237 E11.09485
G1 X101.298 Y110.394 E11.12491
G1 X101.692 Y109.592 E11.15463
G1 X102.173 Y108.714 E11.18793
G1 X102.351 Y108.404 E11.19982
G1 X102.644 Y107.911 E11.21889
G1 X103.139 Y107.156 E11.24892
G1 X103.68 Y106.469 E11.278
G1 X104.346 Y105.695 E11.31196
G1 X104.574 Y105.44 E11.32334
G1 X104.945 Y105.037 E11.34156
G1 F2700 E6.34156
;MESH:cylinder.stl
G0 F6000 X110.963 Y112.596
G0 X111.77 Y113.318
G0 X110.921 Y116.099
G0 X110.775 Y117.494
G0 X110.923 Y118.91
G0 X111.357 Y120.254
G0 X112.059 Y121.478
G0 X113.005 Y122.532
G0 X114.133 Y123.358
G0 X115.426 Y123.936
G0 X116.536 Y124.172
G0 X118.219 Y124.4
;TYPE:WALL-INNER
G1 F2700 E11.34156
G1 F1200 X116.781 Y124.4 E11.38939
G1 X115.369 Y124.098 E11.43741
G1 X114.05 Y123.508 E11.48547
G1 X112.89 Y122.659 E11.53328
G1 X111.919 Y121.577 E11.58164
G1 X111.2 Y120.324 E11.62969
G1 X110.755 Y118.945 E11.67788
G1 X110.604 Y117.494 E11.7264
G1 X110.753 Y116.064 E11.77422
G1 X111.2 Y114.676 E11.82272
G1 X111.919 Y113.423 E11.87077
G1 X112.89 Y112.341 E11.91913
G1 X114.05 Y111.492 E11.96694
G1 X115.369 Y110.902 E12.015
G1 X116.781 Y110.6 E12.06302
G1 X118.219 Y110.6 E12.11085
G1 X119.631 Y110.902 E12.15887
G1 X120.95 Y111.492 E12.20693
G1 X122.11 Y112.341 E12.25475
G1 X123.081 Y113.423 E12.3031
G1 X123.8 Y114.676 E12.35115
G1 X124.245 Y116.055 E12.39934
G1 X124.396 Y117.506 E12.44786
G1 X124.247 Y118.936 E12.49568
G1 X123.8 Y120.324 E12.54418
G1 X123.081 Y121.577 E12.59223
G1 X122.11 Y122.659 E12.64059
G1 X120.95 Y123.508 E12.6884
G1 X119.631 Y124.098 E12.73646
G1 X118.219 Y124.4 E12.78448
G0 F6000 X118.261 Y124.8
;TYPE:WALL-OUTER
G1 F1200 X116.739 Y124.8 E12.8351
G1 X115.245 Y124.48 E12.88592
G1 X113.847 Y123.855 E12.93685
G1 X112.62 Y122.957 E12.98743
G1 X111.593 Y121.813 E13.03856
G1 X110.831 Y120.485 E13.08948
G1 X110.361 Y119.029 E13.14037
