;FLAVOR:Marlin
;TIME:1314
;Filament used: 1.12984m
;Layer height: 0.2
;MINX:100.201
;MINY:100.255
;MINZ:0.2
;MAXX:119.799
;MAXY:119.745
;MAXZ:20
;Generated with Cura_SteamEngine 4.4.1
M140 S60
M105
M190 S60
M104 S230
M105
M109 S230
M82 ;absolute extrusion mode
M201 X500.00 Y500.00 Z100.00 E5000.00 ;Setup machine max acceleration
M203 X500.00 Y500.00 Z10.00 E50.00 ;Setup machine max feedrate
M204 P500.00 R1000.00 T500.00 ;Setup Print/Retract/Travel acceleration
M205 X8.00 Y8.00 Z0.40 E5.00 ;Setup Jerk
M220 S100 ;Reset Feedrate
M221 S100 ;Reset Flowrate

G28 ;Home

G92 E0 ;Reset Extruder
G1 Z2.0 F3000 ;Move Z Axis up
G1 X10.1 Y20 Z0.28 F5000.0 ;Move to start position
G1 X10.1 Y200.0 Z0.28 F1500.0 E15 ;Draw the first line
G1 X10.4 Y200.0 Z0.28 F5000.0 ;Move to side a little
G1 X10.4 Y20 Z0.28 F1500.0 E30 ;Draw the second line
G92 E0 ;Reset Extruder
G1 Z2.0 F3000 ;Move Z Axis up

M83 ;relative extrusion mode
G1 F1500 E-6.5
;LAYER_COUNT:100
;LAYER:0
M107
;MESH:cylinder.stl
G0 F10500 X110.94 Y118.945 Z0.2
;TYPE:WALL-INNER
G1 F1500 E6.5
G1 F2100 X109.06 Y118.945 E0.06253
G1 X107.219 Y118.555 E0.06259
G1 X105.508 Y117.792 E0.06231
G1 X103.98 Y116.681 E0.06284
G1 X102.727 Y115.29 E0.06227
G1 X101.788 Y113.668 E0.06234
G1 X101.208 Y111.885 E0.06236
G1 X101.007 Y110.008 E0.06279
G1 X101.201 Y108.14 E0.06246
G1 X101.781 Y106.351 E0.06255
G1 X102.72 Y104.72 E0.0626
G1 X103.972 Y103.328 E0.06227
G1 X105.508 Y102.208 E0.06323
G1 X107.219 Y101.445 E0.06231
G1 X109.06 Y101.055 E0.06259
G1 X110.94 Y101.055 E0.06253
G1 X112.781 Y101.445 E0.06259
G1 X114.492 Y102.208 E0.06231
G1 X116.02 Y103.319 E0.06284
G1 X117.273 Y104.71 E0.06227
G1 X118.211 Y106.331 E0.06229
G1 X118.792 Y108.115 E0.0624
G1 X118.993 Y109.989 E0.06269
G1 X118.799 Y111.86 E0.06256
G1 X118.219 Y113.649 E0.06255
G1 X117.28 Y115.28 E0.0626
G1 X116.028 Y116.672 E0.06227
G1 X114.492 Y117.792 E0.06323
G1 X112.781 Y118.555 E0.06231
G1 X110.94 Y118.945 E0.06259
G0 F10500 X110.981 Y119.345
G1 F2100 X109.019 Y119.345 E0.06526
G1 X107.095 Y118.937 E0.06542
G1 X105.305 Y118.139 E0.06518
G1 X103.712 Y116.981 E0.0655
G1 X102.403 Y115.528 E0.06505
G1 X101.443 Y113.868 E0.06378
G1 X101.421 Y113.831 E0.00143
G1 X101.409 Y113.792 E0.00136
G1 X100.814 Y111.967 E0.06384
G1 X100.605 Y110.009 E0.06549
G1 X100.808 Y108.056 E0.06531
G1 X101.413 Y106.187 E0.06534
G1 X102.391 Y104.488 E0.0652
G1 X103.705 Y103.027 E0.06536
G1 X105.305 Y101.861 E0.06585
G1 X105.345 Y101.844 E0.00145
G1 X107.056 Y101.081 E0.06231
G1 X107.095 Y101.063 E0.00143
G1 X107.136 Y101.055 E0.00139
G1 X109.019 Y100.655 E0.06403
G1 X110.981 Y100.655 E0.06526
G1 X112.905 Y101.063 E0.06542
G1 X114.695 Y101.861 E0.06518
G1 X116.288 Y103.019 E0.0655
G1 X117.597 Y104.472 E0.06505
G1 X118.556 Y106.131 E0.06373
G1 X118.578 Y106.168 E0.00143
G1 X118.59 Y106.207 E0.00136
G1 X119.186 Y108.033 E0.06389
G1 X119.395 Y109.989 E0.06543
G1 X119.192 Y111.944 E0.06537
G1 X118.587 Y113.813 E0.06534
G1 X117.609 Y115.512 E0.0652
G1 X116.295 Y116.973 E0.06536
G1 X114.695 Y118.139 E0.06585
G1 X114.655 Y118.156 E0.00145
G1 X112.944 Y118.919 E0.06231
G1 X112.905 Y118.937 E0.00143
G1 X112.864 Y118.945 E0.00139
G1 X110.981 Y119.345 E0.06403
G0 F10500 X111.022 Y119.745
;TYPE:WALL-OUTER
G1 F2100 X108.978 Y119.745 E0.06798
G1 X106.971 Y119.319 E0.06824
G1 X105.102 Y118.486 E0.06806
G1 X103.444 Y117.281 E0.06817
G1 X102.079 Y115.766 E0.06782
G1 X101.054 Y113.994 E0.06809
G1 X100.42 Y112.049 E0.06804
G1 X100.203 Y110.01 E0.0682
G1 X100.414 Y107.972 E0.06815
G1 X101.045 Y106.025 E0.06807
G1 X102.065 Y104.252 E0.06803
G1 X103.436 Y102.728 E0.06818
G1 X105.102 Y101.514 E0.06856
G1 X106.971 Y100.681 E0.06806
G1 X108.978 Y100.255 E0.06824
G1 X111.022 Y100.255 E0.06798
G1 X113.029 Y100.681 E0.06824
G1 X114.898 Y101.514 E0.06806
G1 X116.556 Y102.719 E0.06817
G1 X117.921 Y104.234 E0.06782
G1 X118.945 Y106.005 E0.06804
G1 X119.58 Y107.951 E0.06808
G1 X119.797 Y109.989 E0.06817
G1 X119.586 Y112.028 E0.06818
G1 X118.955 Y113.975 E0.06807
G1 X117.935 Y115.748 E0.06803
G1 X116.564 Y117.272 E0.06818
G1 X114.898 Y118.486 E0.06856
G1 X113.029 Y119.319 E0.06806
G1 X111.022 Y119.745 E0.06824
G0 F10500 X110.977 Y119.308
G0 X110.898 Y118.555
;TYPE:SKIN
G1 F2100 X109.102 Y118.555 E0.05974
G1 X107.341 Y118.181 E0.05988
G1 X105.706 Y117.453 E0.05953
G1 X104.241 Y116.387 E0.06026
G1 X103.042 Y115.056 E0.05958
G1 X102.148 Y113.512 E0.05934
G1 X101.591 Y111.8 E0.05988
G1 X101.399 Y110.007 E0.05998
G1 X101.585 Y108.221 E0.05972
G1 X102.14 Y106.51 E0.05983
G1 X103.037 Y104.95 E0.05985
G1 X104.233 Y103.622 E0.05944
G1 X105.706 Y102.547 E0.06065
G1 X107.341 Y101.819 E0.05953
G1 X109.102 Y101.445 E0.05988
G1 X110.898 Y101.445 E0.05974
G1 X112.659 Y101.819 E0.05988
G1 X114.294 Y102.547 E0.05953
G1 X115.759 Y103.613 E0.06026
G1 X116.958 Y104.944 E0.05958
G1 X117.851 Y106.487 E0.0593
G1 X118.408 Y108.198 E0.05985
G1 X118.601 Y109.987 E0.05985
G1 X118.415 Y111.779 E0.05992
G1 X117.86 Y113.49 E0.05983
G1 X116.963 Y115.05 E0.05985
G1 X115.767 Y116.378 E0.05944
G1 X114.294 Y117.453 E0.06065
G1 X112.659 Y118.181 E0.05953
G1 X110.898 Y118.555 E0.05988
G0 F10500 X110.898 Y118.835
G0 X112.849 Y118.404
G0 X112.67 Y118
G1 F2100 X107.329 Y118 E0.17764
G0 F10500 X106.43 Y117.6
G1 F2100 X113.569 Y117.6 E0.23744
G0 F10500 X114.368 Y117.2
G1 F2100 X105.631 Y117.2 E0.29059
G0 F10500 X105.081 Y116.8
G1 F2100 X114.916 Y116.8 E0.32711
G0 F10500 X115.464 Y116.4
G1 F2100 X104.531 Y116.4 E0.36363
G0 F10500 X104.108 Y116
G1 F2100 X115.891 Y116 E0.3919
G0 F10500 X116.252 Y115.6
G1 F2100 X103.747 Y115.6 E0.41592
G0 F10500 X103.387 Y115.2
G1 F2100 X116.613 Y115.2 E0.4399
G0 F10500 X116.923 Y114.8
G1 F2100 X103.078 Y114.8 E0.46049
G0 F10500 X102.846 Y114.4
G1 F2100 X117.153 Y114.4 E0.47585
G0 F10500 X117.382 Y114
G1 F2100 X102.615 Y114 E0.49115
G0 F10500 X102.384 Y113.6
G1 F2100 X117.612 Y113.6 E0.50649
G0 F10500 X117.785 Y113.2
G1 F2100 X102.215 Y113.2 E0.51786
G0 F10500 X102.085 Y112.8
G1 F2100 X117.915 Y112.8 E0.52651
G0 F10500 X118.045 Y112.4
G1 F2100 X101.955 Y112.4 E0.53516
G0 F10500 X101.825 Y112
G1 F2100 X118.174 Y112 E0.54377
G0 F10500 X118.272 Y111.6
G1 F2100 X101.731 Y111.6 E0.55016
G0 F10500 X101.688 Y111.2
G1 F2100 X118.313 Y111.2 E0.55295
G0 F10500 X118.355 Y110.8
G1 F2100 X101.645 Y110.8 E0.55578
G0 F10500 X101.602 Y110.4
G1 F2100 X118.396 Y110.4 E0.55857
G0 F10500 X118.438 Y110
G1 F2100 X101.561 Y110 E0.56133
G0 F10500 X101.603 Y109.6
G1 F2100 X118.399 Y109.6 E0.55864
G0 F10500 X118.355 Y109.2
G1 F2100 X101.645 Y109.2 E0.55578
G0 F10500 X101.686 Y108.8
G1 F2100 X118.312 Y108.8 E0.55298
G0 F10500 X118.269 Y108.4
G1 F2100 X101.728 Y108.4 E0.55016
G0 F10500 X101.825 Y108
G1 F2100 X118.175 Y108 E0.5438
G0 F10500 X118.045 Y107.6
G1 F2100 X101.955 Y107.6 E0.53516
G0 F10500 X102.085 Y107.2
G1 F2100 X117.915 Y107.2 E0.52651
G0 F10500 X117.785 Y106.8
G1 F2100 X102.215 Y106.8 E0.51786
G0 F10500 X102.388 Y106.4
G1 F2100 X117.616 Y106.4 E0.50649
G0 F10500 X117.385 Y106
G1 F2100 X102.618 Y106 E0.49115
G0 F10500 X102.847 Y105.6
G1 F2100 X117.154 Y105.6 E0.47585
G0 F10500 X116.922 Y105.2
G1 F2100 X103.077 Y105.2 E0.46049
G0 F10500 X103.387 Y104.8
G1 F2100 X116.613 Y104.8 E0.4399
G0 F10500 X116.253 Y104.4
G1 F2100 X103.748 Y104.4 E0.41592
G0 F10500 X104.109 Y104
G1 F2100 X115.892 Y104 E0.3919
G0 F10500 X115.469 Y103.6
G1 F2100 X104.536 Y103.6 E0.36363
G0 F10500 X105.084 Y103.2
G1 F2100 X114.919 Y103.2 E0.32711
G0 F10500 X114.369 Y102.8
G1 F2100 X105.632 Y102.8 E0.29059
G0 F10500 X106.431 Y102.4
G1 F2100 X113.57 Y102.4 E0.23744
G0 F10500 X112.671 Y102
G1 F2100 X107.33 Y102 E0.17764
G0 F10500 X107.031 Y101.321
;MESH:NONMESH
G0 F300 X107.031 Y101.321 Z0.4
G0 F10500 X104.085 Y103.458
G0 X102.86 Y104.819
G0 X101.939 Y106.42
G0 X101.369 Y108.176
G0 X101.178 Y110.008
G0 X101.375 Y111.846
G0 X101.945 Y113.599
G0 X102.865 Y115.188
G0 X104.097 Y116.554
G0 X105.591 Y117.642
G0 X107.275 Y118.393
G0 X108.733 Y118.7
G0 X110.94 Y118.945
;TIME_ELAPSED:32.016966
;LAYER:1
M140 S60
M106 S85
;TYPE:WALL-INNER
;MESH:cylinder.stl
G1 F2100 X109.06 Y118.945 E0.06253
G1 X107.219 Y118.555 E0.06259
G1 X105.508 Y117.792 E0.06231
G1 X103.981 Y116.681 E0.06281
G1 X102.743 Y115.307 E0.06151
G1 X101.799 Y113.683 E0.06248
G1 X101.215 Y111.901 E0.06237
G1 X101.009 Y110.025 E0.06277
G1 X101.2 Y108.157 E0.06245
G1 X101.773 Y106.372 E0.06235
G1 X102.709 Y104.738 E0.06263
G1 X103.99 Y103.311 E0.06378
G1 X105.508 Y102.208 E0.06241
G1 X107.219 Y101.445 E0.06231
G1 X109.06 Y101.055 E0.06259
G1 X110.94 Y101.055 E0.06253
G1 X112.781 Y101.445 E0.06259
G1 X114.492 Y102.208 E0.06231
G1 X116.019 Y103.319 E0.06281
G1 X117.257 Y104.693 E0.06151
G1 X118.201 Y106.317 E0.06248
G1 X118.785 Y108.098 E0.06234
G1 X118.991 Y109.974 E0.06277
G1 X118.8 Y111.843 E0.06249
G1 X118.227 Y113.628 E0.06235
G1 X117.291 Y115.262 E0.06263
G1 X116.038 Y116.663 E0.06251
G1 X114.495 Y117.791 E0.06357
G1 X112.781 Y118.555 E0.06241
G1 X110.94 Y118.945 E0.06259
G0 F10500 X110.981 Y119.345
G1 F2100 X109.019 Y119.345 E0.06526
G1 X107.095 Y118.937 E0.06542
G1 X105.305 Y118.139 E0.06518
G1 X103.712 Y116.981 E0.0655
G1 X102.418 Y115.544 E0.06432
G1 X101.432 Y113.848 E0.06525
G1 X100.821 Y111.985 E0.06521
G1 X100.607 Y110.027 E0.06551
G1 X100.806 Y108.075 E0.06526
G1 X101.405 Y106.21 E0.06515
G1 X102.383 Y104.502 E0.06546
G1 X103.721 Y103.012 E0.06661
G1 X105.305 Y101.861 E0.06512
G1 X105.345 Y101.844 E0.00145
G1 X107.056 Y101.081 E0.06231
G1 X107.095 Y101.063 E0.00143
G1 X107.136 Y101.055 E0.00139
G1 X109.019 Y100.655 E0.06403
G1 X110.981 Y100.655 E0.06526
G1 X112.905 Y101.063 E0.06542
G1 X114.695 Y101.861 E0.06518
G1 X116.288 Y103.019 E0.0655
G1 X117.582 Y104.456 E0.06432
G1 X118.568 Y106.152 E0.06525
G1 X119.179 Y108.015 E0.06521
G1 X119.393 Y109.971 E0.06545
G1 X119.194 Y111.925 E0.06533
G1 X118.595 Y113.79 E0.06515
G1 X117.617 Y115.498 E0.06546
G1 X116.308 Y116.961 E0.06529
G1 X114.698 Y118.138 E0.06633
G1 X114.658 Y118.155 E0.00145
G1 X112.944 Y118.919 E0.06241
G1 X112.905 Y118.937 E0.00143
G1 X112.864 Y118.945 E0.00139
G1 X110.981 Y119.345 E0.06403
G0 F10500 X111.022 Y119.745
;TYPE:WALL-OUTER
G1 F2100 X108.978 Y119.745 E0.06798
G1 X106.971 Y119.319 E0.06824
G1 X105.102 Y118.486 E0.06806
G1 X103.444 Y117.281 E0.06817
G1 X102.093 Y115.781 E0.06714
G1 X101.065 Y114.013 E0.06802
G1 X100.427 Y112.069 E0.06805
G1 X100.205 Y110.03 E0.06822
G1 X100.412 Y107.992 E0.06813
G1 X101.037 Y106.048 E0.06792
G1 X102.057 Y104.266 E0.06829
G1 X103.452 Y102.713 E0.06943
G1 X105.102 Y101.514 E0.06784
G1 X106.971 Y100.681 E0.06806
G1 X108.978 Y100.255 E0.06824
G1 X111.022 Y100.255 E0.06798
G1 X113.029 Y100.681 E0.06824
G1 X114.898 Y101.514 E0.06806
G1 X116.556 Y102.719 E0.06817
G1 X117.907 Y104.219 E0.06714
G1 X118.935 Y105.987 E0.06802
G1 X119.573 Y107.931 E0.06805
G1 X119.795 Y109.968 E0.06815
G1 X119.588 Y112.008 E0.0682
G1 X118.963 Y113.952 E0.06792
G1 X117.943 Y115.734 E0.06829
G1 X116.578 Y117.259 E0.06807
G1 X114.901 Y118.485 E0.06909
G1 X113.029 Y119.319 E0.06816
G1 X111.022 Y119.745 E0.06824
G0 F10500 X110.977 Y119.308
G0 X110.898 Y118.555
;TYPE:SKIN
G1 F2100 X109.102 Y118.555 E0.05974
G1 X107.341 Y118.181 E0.05988
G1 X105.706 Y117.453 E0.05953
G1 X104.242 Y116.387 E0.06023
G1 X103.061 Y115.077 E0.05866
G1 X102.157 Y113.522 E0.05982
G1 X101.599 Y111.819 E0.05961
G1 X101.401 Y110.021 E0.06016
G1 X101.584 Y108.236 E0.05968
G1 X102.131 Y106.532 E0.05952
G1 X103.027 Y104.968 E0.05995
G1 X104.251 Y103.605 E0.06093
G1 X105.706 Y102.547 E0.05983
G1 X107.341 Y101.819 E0.05953
G1 X109.102 Y101.445 E0.05988
G1 X110.898 Y101.445 E0.05974
G1 X112.659 Y101.819 E0.05988
G1 X114.294 Y102.547 E0.05953
G1 X115.758 Y103.613 E0.06023
G1 X116.939 Y104.923 E0.05866
G1 X117.843 Y106.478 E0.05982
G1 X118.401 Y108.18 E0.05957
G1 X118.599 Y109.974 E0.06003
G1 X118.416 Y111.764 E0.05985
G1 X117.869 Y113.468 E0.05952
G1 X116.974 Y115.032 E0.05993
G1 X115.772 Y116.376 E0.05997
G1 X114.303 Y117.449 E0.06051
G1 X112.659 Y118.181 E0.05985
G1 X110.898 Y118.555 E0.05988
G0 F10500 X110.898 Y118.835
G0 X112.849 Y118.404
G0 X112.67 Y118
G1 F2100 X107.329 Y118 E0.17764
G0 F10500 X106.43 Y117.6
G1 F2100 X113.569 Y117.6 E0.23744
G0 F10500 X114.371 Y117.2
G1 F2100 X105.631 Y117.2 E0.29069
G0 F10500 X105.082 Y116.8
G1 F2100 X114.919 Y116.8 E0.32718
G0 F10500 X115.467 Y116.4
G1 F2100 X104.532 Y116.4 E0.3637
G0 F10500 X104.109 Y116
G1 F2100 X115.894 Y116 E0.39197
G0 F10500 X116.252 Y115.6
G1 F2100 X103.748 Y115.6 E0.41588
G0 F10500 X103.388 Y115.2
G1 F2100 X116.61 Y115.2 E0.43977
G0 F10500 X116.923 Y114.8
G1 F2100 X103.086 Y114.8 E0.46022
G0 F10500 X102.853 Y114.4
G1 F2100 X117.151 Y114.4 E0.47555
G0 F10500 X117.38 Y114
G1 F2100 X102.62 Y114 E0.49092
G0 F10500 X102.387 Y113.6
G1 F2100 X117.608 Y113.6 E0.50625
G0 F10500 X117.787 Y113.2
G1 F2100 X102.219 Y113.2 E0.51779
G0 F10500 X102.088 Y112.8
G1 F2100 X117.915 Y112.8 E0.52641
G0 F10500 X118.043 Y112.4
G1 F2100 X101.957 Y112.4 E0.53502
G0 F10500 X101.826 Y112
G1 F2100 X118.172 Y112 E0.54367
G0 F10500 X118.271 Y111.6
G1 F2100 X101.736 Y111.6 E0.54996
G0 F10500 X101.692 Y111.2
G1 F2100 X118.312 Y111.2 E0.55278
G0 F10500 X118.353 Y110.8
G1 F2100 X101.648 Y110.8 E0.55561
G0 F10500 X101.604 Y110.4
G1 F2100 X118.394 Y110.4 E0.55844
G0 F10500 X118.435 Y110
G1 F2100 X101.564 Y110 E0.56113
G0 F10500 X101.606 Y109.6
G1 F2100 X118.397 Y109.6 E0.55847
G0 F10500 X118.353 Y109.2
G1 F2100 X101.647 Y109.2 E0.55564
G0 F10500 X101.688 Y108.8
G1 F2100 X118.309 Y108.8 E0.55282
G0 F10500 X118.264 Y108.4
G1 F2100 X101.729 Y108.4 E0.54996
G0 F10500 X101.828 Y108
G1 F2100 X118.174 Y108 E0.54367
G0 F10500 X118.043 Y107.6
G1 F2100 X101.957 Y107.6 E0.53502
G0 F10500 X102.085 Y107.2
G1 F2100 X117.912 Y107.2 E0.52641
G0 F10500 X117.781 Y106.8
G1 F2100 X102.213 Y106.8 E0.51779
G0 F10500 X102.392 Y106.4
G1 F2100 X117.613 Y106.4 E0.50625
G0 F10500 X117.38 Y106
G1 F2100 X102.621 Y106 E0.49089
G0 F10500 X102.85 Y105.6
G1 F2100 X117.147 Y105.6 E0.47552
G0 F10500 X116.914 Y105.2
G1 F2100 X103.079 Y105.2 E0.46015
G0 F10500 X103.394 Y104.8
G1 F2100 X116.612 Y104.8 E0.43963
G0 F10500 X116.252 Y104.4
G1 F2100 X103.753 Y104.4 E0.41572
G0 F10500 X104.112 Y104
G1 F2100 X115.891 Y104 E0.39177
G0 F10500 X115.468 Y103.6
G1 F2100 X104.531 Y103.6 E0.36377
G0 F10500 X105.082 Y103.2
G1 F2100 X114.918 Y103.2 E0.32715
G0 F10500 X114.369 Y102.8
G1 F2100 X105.632 Y102.8 E0.29059
G0 F10500 X106.431 Y102.4
G1 F2100 X113.57 Y102.4 E0.23744
G0 F10500 X112.671 Y102
G1 F2100 X107.33 Y102 E0.17764
G0 F10500 X107.031 Y101.321
;MESH:NONMESH
G0 F300 X107.031 Y101.321 Z0.6
G0 F10500 X104.104 Y103.439
G0 X102.848 Y104.838
G0 X101.931 Y106.44
G0 X101.368 Y108.192
G0 X101.18 Y110.023
G0 X101.383 Y111.864
G0 X101.955 Y113.611
G0 X102.883 Y115.207
G0 X104.096 Y116.552
G0 X105.594 Y117.643
G0 X106.954 Y118.25
G0 X109.062 Y118.945
;TIME_ELAPSED:59.479266
;LAYER:2
M106 S170
;TYPE:WALL-INNER
;MESH:cylinder.stl
G1 F2100 X107.216 Y118.554 E0.06276
G1 X105.5 Y117.788 E0.0625
G1 X103.986 Y116.687 E0.06226
G1 X102.725 Y115.288 E0.06264
G1 X101.781 Y113.651 E0.06285
G1 X101.204 Y111.876 E0.06208
G1 X101.005 Y110 E0.06275
G1 X101.204 Y108.124 E0.06275
G1 X101.781 Y106.349 E0.06208
G1 X102.725 Y104.712 E0.06285
G1 X103.981 Y103.317 E0.06243
G1 X105.503 Y102.211 E0.06258
G1 X107.22 Y101.445 E0.06253
G1 X109.06 Y101.055 E0.06256
G1 X110.938 Y101.055 E0.06246
G1 X112.784 Y101.446 E0.06276
G1 X114.5 Y102.212 E0.0625
G1 X116.014 Y103.313 E0.06226
G1 X117.275 Y104.712 E0.06264
G1 X118.219 Y106.349 E0.06285
G1 X118.796 Y108.124 E0.06208
G1 X118.995 Y110 E0.06275
G1 X118.796 Y111.876 E0.06275
G1 X118.219 Y113.651 E0.06208
G1 X117.275 Y115.288 E0.06285
G1 X116.014 Y116.687 E0.06264
G1 X114.503 Y117.786 E0.06214
G1 X112.78 Y118.555 E0.06276
G1 X110.94 Y118.945 E0.06256
G1 X109.062 Y118.945 E0.06246
G0 F10500 X109.021 Y119.345
G1 F2100 X107.092 Y118.936 E0.06559
G1 X105.3 Y118.137 E0.06526
G1 X103.715 Y116.984 E0.06519
G1 X102.398 Y115.523 E0.06542
G1 X101.415 Y113.818 E0.06546
G1 X100.81 Y111.957 E0.06509
G1 X100.603 Y110 E0.06545
G1 X100.81 Y108.043 E0.06545
G1 X101.415 Y106.182 E0.06509
G1 X102.398 Y104.477 E0.06546
G1 X103.713 Y103.017 E0.06535
