
;FLAVOR:Marlin

;TIME:905

;Filament used: 1.01691m

;Layer height: 0.4

;MINX:98.91

;MINY:98.908

;MINZ:0.2

;MAXX:136.094

;MAXY:136.089

;MAXZ:21.8

;Generated with Cura_SteamEngine 4.7.1

M140 S50

M105

M190 S50

M104 S200

M105

M109 S200

M82 ;absolute extrusion mode

; Ender 3 Custom Start G-code

G92 E0 ; Reset Extruder

G28 ; Home all axes

G1 Z2.0 F3000 ; Move Z Axis up little to prevent scratching of Heat Bed

G1 X0.1 Y20 Z0.3 F5000.0 ; Move to start position

G1 X0.1 Y200.0 Z0.3 F1500.0 E15 ; Draw the first line

G1 X0.4 Y200.0 Z0.3 F5000.0 ; Move to side a little

G1 X0.4 Y20 Z0.3 F1500.0 E30 ; Draw the second line

G92 E0 ; Reset Extruder

G1 Z2.0 F3000 ; Move Z Axis up little to prevent scratching of Heat Bed

G1 X5 Y20 Z0.3 F5000.0 ; Move over to prevent blob squish

G92 E0

G92 E0

G1 F2700 E-5

;LAYER_COUNT:55

;LAYER:0

M107

G0 F6000 X104.464 Y104.249 Z0.2

;TYPE:SKIRT

G1 F2700 E0

G1 F1200 X104.933 Y103.803 E0.02153

G1 X105.417 Y103.369 E0.04315

G1 X105.629 Y103.19 E0.05238

G1 X105.815 Y103.036 E0.06041

G1 X105.95 Y102.927 E0.06618

G1 X106.379 Y102.598 E0.08416

G1 X106.608 Y102.431 E0.09359

G1 X106.861 Y102.252 E0.1039

G1 X107.059 Y102.116 E0.11188

G1 X107.557 Y101.793 E0.13163

G1 X108.029 Y101.505 E0.15002

G1 X108.82 Y101.066 E0.18011

G1 X109.431 Y100.759 E0.20285

G1 X109.809 Y100.578 E0.21679

G1 X110.046 Y100.47 E0.22545

G1 X110.376 Y100.326 E0.23743

G1 X110.484 Y100.281 E0.24132

G1 X110.956 Y100.097 E0.25817

G1 X111.308 Y99.969 E0.27063

G1 X111.653 Y99.85 E0.28276

G1 X111.8 Y99.802 E0.28791

G1 X112.271 Y99.66 E0.30427

G1 X112.678 Y99.547 E0.31832

G1 X113.015 Y99.459 E0.3299

G1 X113.339 Y99.38 E0.34099

G1 X113.655 Y99.308 E0.35177

G1 X113.857 Y99.265 E0.35864

G1 X114.548 Y99.141 E0.38199

G1 X114.902 Y99.089 E0.39389

G1 X115.219 Y99.047 E0.40453

G1 X115.449 Y99.02 E0.41223

G1 X115.793 Y98.985 E0.42373

G1 X116.167 Y98.953 E0.43622

G1 X116.743 Y98.919 E0.45541

G1 X117.089 Y98.911 E0.46692

G1 X117.397 Y98.908 E0.47716

G1 X117.942 Y98.916 E0.49529

G1 X118.594 Y98.942 E0.51699

G1 X119.291 Y98.992 E0.54024

G1 X119.397 Y99.003 E0.54378

G1 X119.91 Y99.068 E0.56098

G1 X120.339 Y99.133 E0.57541

G1 X120.751 Y99.204 E0.58932

G1 X121.37 Y99.322 E0.61028

G1 X122.264 Y99.531 E0.64081

G1 X122.777 Y99.674 E0.65852

G1 X123.622 Y99.947 E0.68806

G1 X123.91 Y100.053 E0.69827

G1 X124.26 Y100.188 E0.71074

G1 X124.702 Y100.368 E0.72662

G1 X125.125 Y100.551 E0.74195

G1 X125.276 Y100.62 E0.74747

G1 X125.661 Y100.805 E0.76167

G1 X126.077 Y101.015 E0.77717

G1 X126.432 Y101.202 E0.79052

G1 X126.782 Y101.395 E0.80381

G1 X127.162 Y101.615 E0.81842

G1 X127.248 Y101.667 E0.82176

G1 X127.639 Y101.915 E0.83716

G1 X127.871 Y102.069 E0.84642

G1 X128.127 Y102.244 E0.85674

G1 X128.344 Y102.397 E0.86557

G1 X128.791 Y102.73 E0.88411

G1 X129.138 Y103.002 E0.89877

G1 X129.424 Y103.233 E0.911

G1 X129.714 Y103.483 E0.92373

G1 X129.983 Y103.722 E0.9357

G1 X130.545 Y104.257 E0.96151

G1 X131.057 Y104.781 E0.98588

G1 X131.559 Y105.332 E1.01067

G1 X131.721 Y105.522 E1.01897

G1 X131.92 Y105.762 E1.02934

G1 X132.019 Y105.885 E1.03459

G1 X132.207 Y106.125 E1.04473

G1 X132.356 Y106.321 E1.05292

G1 X132.671 Y106.757 E1.07081

G1 X132.791 Y106.932 E1.07787

G1 X133.009 Y107.262 E1.09102

G1 X133.347 Y107.795 E1.11202

G1 X133.566 Y108.156 E1.12606

G1 X133.73 Y108.438 E1.13691

G1 X134.022 Y108.975 E1.15724

G1 X134.157 Y109.24 E1.16713

G1 X134.422 Y109.797 E1.18765

G1 X134.593 Y110.185 E1.20175

G1 X134.791 Y110.666 E1.21905

G1 X134.87 Y110.871 E1.22636

G1 X134.98 Y111.168 E1.23689

G1 X135.09 Y111.48 E1.24789

G1 X135.201 Y111.812 E1.25954

G1 X135.286 Y112.08 E1.26889

G1 X135.491 Y112.814 E1.29424

G1 X135.595 Y113.243 E1.30892

G1 X135.73 Y113.878 E1.33051

G1 X135.809 Y114.315 E1.34528

G1 X135.879 Y114.757 E1.36016

G1 X135.957 Y115.318 E1.379

G1 X136.027 Y115.96 E1.40048

G1 X136.05 Y116.249 E1.41013

G1 X136.081 Y116.831 E1.42951

G1 X136.091 Y117.209 E1.44209

G1 X136.094 Y117.606 E1.45529

G1 X136.092 Y117.814 E1.46221

G1 X136.061 Y118.541 E1.48641

G1 X136.009 Y119.226 E1.50926

G1 X135.945 Y119.841 E1.52983

G1 X135.911 Y120.097 E1.53842

G1 X135.838 Y120.57 E1.55433

G1 X135.766 Y120.976 E1.56805

G1 X135.578 Y121.836 E1.59733

G1 X135.411 Y122.475 E1.61929

G1 X135.281 Y122.932 E1.6351

G1 X135.208 Y123.169 E1.64335

G1 X134.995 Y123.793 E1.66528

G1 X134.83 Y124.233 E1.68091

G1 X134.699 Y124.566 E1.69281

G1 X134.633 Y124.726 E1.69856

G1 X134.424 Y125.199 E1.71576

G1 X134.237 Y125.598 E1.73042

G1 X133.803 Y126.43 E1.76163

G1 X133.788 Y126.453 E1.76254

G1 X133.56 Y126.852 E1.77783

G1 X133.339 Y127.22 E1.79211

G1 X133.127 Y127.559 E1.8054

G1 X132.913 Y127.889 E1.81849

G1 X132.748 Y128.133 E1.82828

G1 X132.501 Y128.483 E1.84253

G1 X132.418 Y128.596 E1.84719

G1 X132.171 Y128.919 E1.86072

G1 X132.01 Y129.122 E1.86934

G1 X131.767 Y129.419 E1.8821

G1 X131.526 Y129.702 E1.89446

G1 X131.186 Y130.082 E1.91142

G1 X130.956 Y130.328 E1.92262

G1 X130.732 Y130.561 E1.93337

G1 X130.616 Y130.678 E1.93885

G1 X130.235 Y131.044 E1.95642

G1 X129.854 Y131.393 E1.97361

G1 X129.442 Y131.752 E1.99178

G1 X129.136 Y132 E2.00488

G1 X128.804 Y132.26 E2.01891

G1 X128.049 Y132.802 E2.04982

G1 X127.362 Y133.252 E2.07714

G1 X126.954 Y133.507 E2.09314

G1 X126.816 Y133.589 E2.09848

G1 X126.49 Y133.775 E2.11096

G1 X126.224 Y133.921 E2.12105

G1 X125.541 Y134.266 E2.14651

G1 X125.32 Y134.368 E2.1546

G1 X124.999 Y134.51 E2.16628

G1 X124.503 Y134.72 E2.18419

G1 X124.101 Y134.881 E2.19859

G1 X123.868 Y134.969 E2.20688

G1 X123.355 Y135.148 E2.22495

G1 X123.265 Y135.177 E2.22809

G1 X122.888 Y135.291 E2.24119

G1 X122.217 Y135.481 E2.26439

G1 X121.441 Y135.67 E2.29095

G1 X121.053 Y135.75 E2.30413

G1 X120.496 Y135.85 E2.32295

G1 X120.398 Y135.865 E2.32625

G1 X120.066 Y135.911 E2.3374

G1 X119.738 Y135.951 E2.34839

G1 X119.325 Y135.994 E2.3622

G1 X118.693 Y136.047 E2.38329

G1 X117.964 Y136.083 E2.40757

G1 X117.616 Y136.089 E2.41914

G1 X117.092 Y136.086 E2.43657

G1 X116.664 Y136.073 E2.45081

G1 X115.787 Y136.011 E2.48006

G1 X115.48 Y135.977 E2.49033

G1 X115.057 Y135.922 E2.50452

G1 X114.471 Y135.834 E2.52423

G1 X114.045 Y135.761 E2.5386

G1 X113.683 Y135.692 E2.55086

G1 X113.011 Y135.542 E2.57376

G1 X112.855 Y135.502 E2.57912

G1 X112.383 Y135.37 E2.59542

G1 X111.979 Y135.247 E2.60946

G1 X111.416 Y135.059 E2.6292

G1 X110.87 Y134.86 E2.64853

G1 X110.51 Y134.721 E2.66137

G1 X110.384 Y134.67 E2.66589

G1 X109.999 Y134.506 E2.67981

G1 X109.561 Y134.309 E2.69578

G1 X108.858 Y133.962 E2.72186

G1 X108.52 Y133.78 E2.73462

G1 X108.135 Y133.563 E2.74932

G1 X107.971 Y133.466 E2.75566

G1 X107.623 Y133.251 E2.76927

G1 X107.343 Y133.071 E2.78034

G1 X107.04 Y132.869 E2.79245

G1 X106.762 Y132.677 E2.80369

G1 X106.281 Y132.325 E2.82351

G1 X105.967 Y132.082 E2.83672

G1 X105.569 Y131.759 E2.85377

G1 X105.374 Y131.593 E2.86228

G1 X105.128 Y131.377 E2.87317

G1 X104.899 Y131.17 E2.88344

G1 X104.515 Y130.807 E2.90101

G1 X104.303 Y130.596 E2.91096

G1 X104.104 Y130.392 E2.92044

G1 X103.917 Y130.196 E2.92945

G1 X103.524 Y129.762 E2.94892

G1 X103.314 Y129.517 E2.95966

G1 X103.031 Y129.173 E2.97447

G1 X102.825 Y128.912 E2.98553

G1 X102.409 Y128.349 E3.00881

G1 X102.027 Y127.796 E3.03117

G1 X101.546 Y127.034 E3.06114

G1 X101.292 Y126.593 E3.07807

G1 X101.115 Y126.273 E3.09023

G1 X100.943 Y125.95 E3.1024

G1 X100.746 Y125.562 E3.11687

G1 X100.606 Y125.265 E3.12779

G1 X100.485 Y124.997 E3.13757

G1 X100.282 Y124.517 E3.15491

G1 X100.159 Y124.206 E3.16603

G1 X99.976 Y123.709 E3.18365

G1 X99.871 Y123.401 E3.19447

G1 X99.671 Y122.749 E3.21715

G1 X99.466 Y121.998 E3.24305

G1 X99.295 Y121.273 E3.26782

G1 X99.239 Y120.995 E3.27725

G1 X99.18 Y120.684 E3.28778

G1 X99.123 Y120.321 E3.3

G1 X99.062 Y119.892 E3.31441

G1 X98.998 Y119.343 E3.3328

G1 X98.974 Y119.08 E3.34158

G1 X98.94 Y118.603 E3.35749

G1 X98.923 Y118.246 E3.36937

G1 X98.912 Y117.9 E3.38089

G1 X98.91 Y117.776 E3.38501

G1 X98.91 Y117.449 E3.39589

G1 X98.917 Y116.935 E3.41299

G1 X98.937 Y116.399 E3.43083

G1 X98.962 Y116.06 E3.44213

G1 X98.985 Y115.802 E3.45075

G1 X99.025 Y115.429 E3.46322

G1 X99.083 Y114.96 E3.47894

G1 X99.176 Y114.35 E3.49947

G1 X99.252 Y113.931 E3.51363

G1 X99.412 Y113.202 E3.53845

G1 X99.543 Y112.689 E3.55606

G1 X99.614 Y112.425 E3.56516

G1 X99.658 Y112.269 E3.57055

G1 X99.809 Y111.776 E3.5877

G1 X99.886 Y111.545 E3.59579

G1 X100.056 Y111.072 E3.61251

G1 X100.143 Y110.846 E3.62057

G1 X100.308 Y110.443 E3.63505

G1 X100.543 Y109.898 E3.65479

G1 X100.717 Y109.513 E3.66884

G1 X100.876 Y109.18 E3.68112

G1 X101.301 Y108.377 E3.71133

G1 X101.448 Y108.125 E3.72104

G1 X101.642 Y107.806 E3.73345

G1 X101.841 Y107.49 E3.74588

G1 X102.081 Y107.126 E3.76038

G1 X102.403 Y106.657 E3.7793

G1 X102.966 Y105.907 E3.81049

G1 X102.987 Y105.884 E3.81153

G1 X103.148 Y105.685 E3.82004

G1 X103.498 Y105.274 E3.83799

G1 X103.851 Y104.88 E3.85559

G1 X104.464 Y104.249 E3.88485

G0 F6000 X104.739 Y104.539

G1 F1200 X105.208 Y104.093 E3.90638

G1 X105.675 Y103.675 E3.92722

G1 X105.887 Y103.496 E3.93645

G1 X106.066 Y103.348 E3.94417

G1 X106.201 Y103.239 E3.94995

G1 X106.614 Y102.921 E3.96728

G1 X106.843 Y102.754 E3.97671

G1 X107.088 Y102.582 E3.98667

G1 X107.286 Y102.446 E3.99465

G1 X107.766 Y102.134 E4.0137

G1 X108.238 Y101.846 E4.03209

G1 X109 Y101.423 E4.06107

G1 X109.611 Y101.116 E4.08382

G1 X109.974 Y100.942 E4.09721

G1 X110.211 Y100.834 E4.10587

G1 X110.53 Y100.695 E4.11744

G1 X110.638 Y100.65 E4.12133

G1 X111.093 Y100.473 E4.13757

G1 X111.445 Y100.345 E4.15003

G1 X111.777 Y100.231 E4.1617

G1 X111.924 Y100.183 E4.16685

G1 X112.378 Y100.045 E4.18263

G1 X112.785 Y99.932 E4.19668

G1 X113.11 Y99.848 E4.20784

G1 X113.434 Y99.769 E4.21893

G1 X113.738 Y99.699 E4.22931

G1 X113.94 Y99.656 E4.23618

G1 X114.606 Y99.537 E4.25868

G1 X114.96 Y99.485 E4.27058

G1 X115.265 Y99.444 E4.28082

G1 X115.495 Y99.417 E4.28852

G1 X115.827 Y99.384 E4.29962

G1 X116.201 Y99.352 E4.3121

G1 X116.756 Y99.319 E4.33059

G1 X117.093 Y99.311 E4.34181

G1 X117.401 Y99.308 E4.35205

G1 X117.926 Y99.315 E4.36951

G1 X118.578 Y99.341 E4.39122

G1 X119.25 Y99.39 E4.41363

G1 X119.356 Y99.401 E4.41717

G1 X119.85 Y99.464 E4.43373

G1 X120.279 Y99.529 E4.44817

G1 X120.676 Y99.597 E4.46156

G1 X121.295 Y99.715 E4.48252

G1 X122.156 Y99.916 E4.51193

G1 X122.669 Y100.059 E4.52964

G1 X123.484 Y100.322 E4.55812

G1 X123.772 Y100.428 E4.56833

G1 X124.109 Y100.559 E4.58036

G1 X124.551 Y100.739 E4.59623

G1 X124.959 Y100.915 E4.61101

G1 X125.11 Y100.984 E4.61653

G1 X125.481 Y101.162 E4.63022

G1 X125.897 Y101.372 E4.64572

G1 X126.239 Y101.553 E4.65859

G1 X126.589 Y101.746 E4.67188

G1 X126.955 Y101.957 E4.68593

G1 X127.041 Y102.009 E4.68927

G1 X127.418 Y102.249 E4.70414

G1 X127.65 Y102.403 E4.7134

G1 X127.896 Y102.571 E4.72331

G1 X128.113 Y102.724 E4.73214

G1 X128.544 Y103.045 E4.75001

G1 X128.891 Y103.317 E4.76468

G1 X129.166 Y103.54 E4.77645

G1 X129.448 Y103.782 E4.78881

G1 X129.717 Y104.021 E4.80078

G1 X130.259 Y104.537 E4.82567

G1 X130.771 Y105.061 E4.85004

G1 X131.255 Y105.592 E4.87393

G1 X131.417 Y105.782 E4.88224

G1 X131.609 Y106.013 E4.89223

G1 X131.708 Y106.136 E4.89748

G1 X131.888 Y106.367 E4.90722

G1 X132.037 Y106.563 E4.91541

G1 X132.341 Y106.983 E4.93265

G1 X132.461 Y107.158 E4.93971

G1 X132.671 Y107.476 E4.95239

G1 X133.009 Y108.009 E4.97338

G1 X133.22 Y108.357 E4.98691

G1 X133.384 Y108.639 E4.99776

G1 X133.666 Y109.156 E5.01735

G1 X133.801 Y109.421 E5.02724

G1 X134.056 Y109.958 E5.04702

G1 X134.227 Y110.346 E5.06112

G1 X134.418 Y110.809 E5.07778

G1 X134.497 Y111.014 E5.08508

G1 X134.603 Y111.301 E5.09526

G1 X134.713 Y111.613 E5.10626

G1 X134.82 Y111.933 E5.11749

G1 X134.905 Y112.201 E5.12684

G1 X135.103 Y112.909 E5.15129

G1 X135.207 Y113.338 E5.16597

G1 X135.336 Y113.949 E5.18674

G1 X135.415 Y114.386 E5.20151

G1 X135.483 Y114.812 E5.21586

G1 X135.561 Y115.373 E5.2347

G1 X135.629 Y115.992 E5.25541

G1 X135.652 Y116.281 E5.26505

G1 X135.681 Y116.842 E5.28374

G1 X135.691 Y117.22 E5.29631

G1 X135.695 Y117.602 E5.30902

G1 X135.693 Y117.81 E5.31594

G1 X135.663 Y118.51 E5.33924

G1 X135.611 Y119.195 E5.36209

G1 X135.549 Y119.789 E5.38195

G1 X135.515 Y120.045 E5.39054

G1 X135.444 Y120.5 E5.40586

G1 X135.372 Y120.906 E5.41957

G1 X135.191 Y121.735 E5.4478

G1 X135.024 Y122.374 E5.46976

G1 X134.898 Y122.814 E5.48498

G1 X134.825 Y123.051 E5.49323

G1 X134.62 Y123.653 E5.51438

G1 X134.455 Y124.093 E5.53001

G1 X134.329 Y124.413 E5.54145

G1 X134.263 Y124.573 E5.54721

G1 X134.062 Y125.029 E5.56378

G1 X133.875 Y125.428 E5.57844

G1 X133.449 Y126.244 E5.60906

G1 X133.436 Y126.264 E5.60985

G1 X133.213 Y126.654 E5.62479

G1 X133 Y127.008 E5.63853

G1 X132.788 Y127.347 E5.65183

G1 X132.582 Y127.665 E5.66443

G1 X132.417 Y127.909 E5.67423

G1 X132.179 Y128.246 E5.68795

G1 X132.096 Y128.359 E5.69262

G1 X131.858 Y128.671 E5.70567

G1 X131.697 Y128.874 E5.71428

G1 X131.462 Y129.16 E5.7266

G1 X131.221 Y129.443 E5.73896

G1 X130.894 Y129.809 E5.75528

G1 X130.664 Y130.055 E5.76649

G1 X130.448 Y130.279 E5.77683

G1 X130.332 Y130.396 E5.78231

G1 X129.965 Y130.749 E5.79925

G1 X129.584 Y131.098 E5.81644

G1 X129.187 Y131.444 E5.83395

G1 X128.89 Y131.685 E5.84667

G1 X128.558 Y131.945 E5.8607

G1 X127.83 Y132.467 E5.89049

G1 X127.143 Y132.917 E5.91781

G1 X126.75 Y133.163 E5.93323

G1 X126.612 Y133.245 E5.93857

G1 X126.297 Y133.424 E5.95062

G1 X126.031 Y133.57 E5.96071

G1 X125.373 Y133.902 E5.98522

G1 X125.152 Y134.004 E5.99332

G1 X124.843 Y134.141 E6.00456

G1 X124.347 Y134.351 E6.02248

G1 X123.959 Y134.506 E6.03637

G1 X123.726 Y134.594 E6.04466

G1 X123.232 Y134.767 E6.06207

G1 X123.142 Y134.796 E6.06521

G1 X122.779 Y134.906 E6.07783

G1 X122.108 Y135.096 E6.10102

G1 X121.361 Y135.279 E6.1266

G1 X120.973 Y135.359 E6.13978

G1 X120.436 Y135.455 E6.15792

G1 X120.338 Y135.47 E6.16122

G1 X120.017 Y135.514 E6.172

G1 X119.689 Y135.554 E6.18299

G1 X119.292 Y135.595 E6.19626

G1 X118.66 Y135.648 E6.21735

G1 X117.957 Y135.683 E6.24077

G1 X117.609 Y135.689 E6.25234

G1 X117.104 Y135.686 E6.26914

G1 X116.676 Y135.673 E6.28338

G1 X115.831 Y135.614 E6.31155

G1 X115.524 Y135.58 E6.32183

G1 X115.117 Y135.526 E6.33548

G1 X114.531 Y135.438 E6.35519

G1 X114.12 Y135.369 E6.36905

G1 X113.758 Y135.3 E6.38131

G1 X113.11 Y135.155 E6.40339

G1 X112.954 Y135.115 E6.40875

G1 X112.5 Y134.987 E6.42444

G1 X112.096 Y134.864 E6.43849

G1 X111.553 Y134.683 E6.45752

G1 X111.007 Y134.484 E6.47685

G1 X110.66 Y134.351 E6.48921

G1 X110.534 Y134.3 E6.49373

G1 X110.163 Y134.141 E6.50716

G1 X109.725 Y133.944 E6.52313

G1 X109.048 Y133.61 E6.54824

G1 X108.71 Y133.428 E6.56101

G1 X108.339 Y133.219 E6.57517

G1 X108.175 Y133.122 E6.58151

G1 X107.839 Y132.914 E6.59465

G1 X107.559 Y132.734 E6.60572

G1 X107.267 Y132.54 E6.61738

G1 X106.989 Y132.348 E6.62862

G1 X106.526 Y132.009 E6.64771

G1 X106.212 Y131.766 E6.66091

G1 X105.828 Y131.454 E6.67737

G1 X105.633 Y131.288 E6.68589

G1 X105.396 Y131.081 E6.69635

G1 X105.167 Y130.874 E6.70662

G1 X104.797 Y130.523 E6.72358

G1 X104.585 Y130.312 E6.73353

G1 X104.394 Y130.116 E6.74263

G1 X104.207 Y129.92 E6.75164

G1 X103.828 Y129.501 E6.77043

G1 X103.618 Y129.256 E6.78117

G1 X103.345 Y128.925 E6.79544

G1 X103.139 Y128.664 E6.8065

G1 X102.739 Y128.122 E6.8289

G1 X102.357 Y127.569 E6.85125

G1 X101.893 Y126.834 E6.88016

G1 X101.639 Y126.393 E6.89709

G1 X101.468 Y126.085 E6.90881

G1 X101.296 Y125.762 E6.92098

G1 X101.105 Y125.386 E6.93501

G1 X100.971 Y125.101 E6.94548

G1 X100.85 Y124.833 E6.95526

G1 X100.654 Y124.369 E6.97201

G1 X100.531 Y124.058 E6.98314

G1 X100.355 Y123.58 E7.00008

G1 X100.25 Y123.272 E7.0109

G1 X100.057 Y122.643 E7.03279

G1 X99.852 Y121.892 E7.05868

G1 X99.687 Y121.194 E7.08253

G1 X99.631 Y120.916 E7.09197

G1 X99.574 Y120.614 E7.10219

G1 X99.519 Y120.264 E7.11397

G1 X99.458 Y119.835 E7.12838

