;FLAVOR:Marlin
;TIME:869
;Filament used: 0.389656m
;Layer height: 0.2
;MINX:104.359
;MINY:114.335
;MINZ:0.2
;MAXX:130.665
;MAXY:120.665
;MAXZ:20
;Generated with Cura_SteamEngine 4.7.1
M140 S60
M105
M190 S60
M104 S220
M105
M109 S220
M82 ;absolute extrusion mode
; Ender 3 Custom Start G-code
G92 E0 ; Reset Extruder
G28 ; Home all axes
G1 Z2.0 F3000 ; Move Z Axis up little to prevent scratching of Heat Bed
G1 X0.1 Y20 Z0.3 F5000.0 ; Move to start position
G1 X0.1 Y200.0 Z0.3 F1500.0 E15 ; Draw the first line
G1 X0.4 Y200.0 Z0.3 F5000.0 ; Move to side a little
G1 X0.4 Y20 Z0.3 F1500.0 E30 ; Draw the second line
G92 E0 ; Reset Extruder
G1 Z2.0 F3000 ; Move Z Axis up little to prevent scratching of Heat Bed
G1 X5 Y20 Z0.3 F5000.0 ; Move over to prevent blob squish
M83 ;relative extrusion mode
G1 F2700 E-5
;LAYER_COUNT:100
;LAYER:0
M107
G0 F6000 X109.5 Y117.2 Z0.2
;TYPE:SKIRT
G1 F2700 E5
G1 F1200 X127.8 Y117.2 E0.60866
G1 X127.8 Y117.8 E0.01996
G1 X109.5 Y117.8 E0.60866
G1 X109.5 Y117.2 E0.01996
G0 F6000 X109.1 Y116.8
G1 F1200 X128.2 Y116.8 E0.63527
G1 X128.2 Y118.2 E0.04656
G1 X109.1 Y118.2 E0.63527
G1 X109.1 Y116.8 E0.04656
G0 F6000 X108.7 Y116.4
G1 F1200 X128.6 Y116.4 E0.66188
G1 X128.6 Y118.6 E0.07317
G1 X108.7 Y118.6 E0.66188
G1 X108.7 Y116.4 E0.07317
G0 F6000 X108.3 Y116
G1 F1200 X129 Y116 E0.68848
G1 X129 Y119 E0.09978
G1 X108.3 Y119 E0.68848
G1 X108.3 Y116 E0.09978
G0 F6000 X107.9 Y115.6
G1 F1200 X129.4 Y115.6 E0.71509
G1 X129.4 Y119.4 E0.12639
G1 X107.9 Y119.4 E0.71509
G1 X107.9 Y115.6 E0.12639
G0 F6000 X107.5 Y115.2
G1 F1200 X129.8 Y115.2 E0.7417
G1 X129.8 Y119.8 E0.153
G1 X107.5 Y119.8 E0.7417
G1 X107.5 Y115.2 E0.153
G1 F2700 E-5
;MESH:tpeel2.STL
G0 F6000 X106.086 Y115.414
G0 X105.9 Y119.4
;TYPE:WALL-INNER
G1 F2700 E5
G1 F1200 X105.6 Y119.4 E0.00998
G1 X105.6 Y115.6 E0.12639
G1 X105.9 Y115.6 E0.00998
G1 X105.9 Y119.4 E0.09503
G0 F6000 X106.3 Y119.8
;TYPE:WALL-OUTER
G1 F1200 X105.2 Y119.8 E0.03659
G1 X105.2 Y115.2 E0.153
G1 X106.3 Y115.2 E0.03659
G1 X106.3 Y119.8 E0.153
G0 F6000 X105.7 Y119.318
G1 F2700 E-5
;MESH:NONMESH
G0 F300 X105.7 Y119.318 Z0.4
G0 F6000 X106.086 Y115.414
G0 X107.5 Y115.2
;TIME_ELAPSED:21.133651
;LAYER:1
M106 S85
;TYPE:SUPPORT
G1 F2700 E5
G1 F929.3 X129.8 Y115.2 E0.7417
G1 X129.8 Y119.8 E0.153
G1 X107.5 Y119.8 E0.7417
G1 X107.5 Y115.2 E0.153
G0 F7500 X108 Y115.48
G1 F929.3 X107.78 Y115.48 E0.00732
G1 X107.78 Y119.52 E0.13437
G1 X108 Y119.52 E0.00732
G1 X108 Y115.48 E0.13437
G1 X110 Y115.48 E0.06652
G1 X110 Y119.52 E0.13437
G1 X112 Y119.52 E0.06652
G1 X112 Y115.48 E0.13437
G1 X114 Y115.48 E0.06652
G1 X114 Y119.52 E0.13437
G1 X116 Y119.52 E0.06652
G1 X116 Y115.48 E0.13437
G1 X118 Y115.48 E0.06652
G1 X118 Y119.52 E0.13437
G1 X120 Y119.52 E0.06652
G1 X120 Y115.48 E0.13437
G1 X122 Y115.48 E0.06652
G1 X122 Y119.52 E0.13437
G1 X124 Y119.52 E0.06652
G1 X124 Y115.48 E0.13437
G1 X126 Y115.48 E0.06652
G1 X126 Y119.52 E0.13437
G1 X128 Y119.52 E0.06652
G1 X128 Y115.48 E0.13437
G1 X129.52 Y115.48 E0.05056
G1 X129.52 Y119.52 E0.13437
G1 X128 Y119.52 E0.05056
G1 F2700 E-5
;MESH:tpeel2.STL
G0 F7500 X128 Y120.665
G0 X106.661 Y120.629
G0 X106.08 Y119.52
G0 X105.9 Y119.4
;TYPE:WALL-INNER
G1 F2700 E5
G1 F929.3 X105.6 Y119.4 E0.00998
G1 X105.6 Y115.6 E0.12639
G1 X105.9 Y115.6 E0.00998
G1 X105.9 Y119.4 E0.09503
G0 F7500 X106.3 Y119.8
;TYPE:WALL-OUTER
G1 F929.3 X105.2 Y119.8 E0.03659
G1 X105.2 Y115.2 E0.153
G1 X106.3 Y115.2 E0.03659
G1 X106.3 Y119.8 E0.153
G0 F7500 X105.7 Y119.318
G1 F2700 E-5
;MESH:NONMESH
G0 F300 X105.7 Y119.318 Z0.6
G0 F7500 X106.086 Y115.414
G0 X107.5 Y115.2
;TIME_ELAPSED:32.908639
;LAYER:2
M106 S170
;TYPE:SUPPORT
G1 F2700 E5
G1 F925.4 X129.8 Y115.2 E0.7417
G1 X129.8 Y119.8 E0.153
G1 X107.5 Y119.8 E0.7417
G1 X107.5 Y115.2 E0.153
G0 F9000 X108 Y115.48
G1 F925.4 X107.78 Y115.48 E0.00732
G1 X107.78 Y119.52 E0.13437
G1 X108 Y119.52 E0.00732
G1 X108 Y115.48 E0.13437
G1 X110 Y115.48 E0.06652
G1 X110 Y119.52 E0.13437
G1 X112 Y119.52 E0.06652
G1 X112 Y115.48 E0.13437
G1 X114 Y115.48 E0.06652
G1 X114 Y119.52 E0.13437
G1 X116 Y119.52 E0.06652
G1 X116 Y115.48 E0.13437
G1 X118 Y115.48 E0.06652
G1 X118 Y119.52 E0.13437
G1 X120 Y119.52 E0.06652
G1 X120 Y115.48 E0.13437
G1 X122 Y115.48 E0.06652
G1 X122 Y119.52 E0.13437
G1 X124 Y119.52 E0.06652
G1 X124 Y115.48 E0.13437
G1 X126 Y115.48 E0.06652
G1 X126 Y119.52 E0.13437
G1 X128 Y119.52 E0.06652
G1 X128 Y115.48 E0.13437
G1 X129.52 Y115.48 E0.05056
G1 X129.52 Y119.52 E0.13437
G1 X128 Y119.52 E0.05056
G1 F2700 E-5
;MESH:tpeel2.STL
G0 F9000 X128 Y120.665
G0 X106.661 Y120.629
G0 X106.08 Y119.52
G0 X105.9 Y119.4
;TYPE:WALL-INNER
G1 F2700 E5
G1 F925.4 X105.6 Y119.4 E0.00998
G1 X105.6 Y115.6 E0.12639
G1 X105.9 Y115.6 E0.00998
G1 X105.9 Y119.4 E0.09503
G0 F9000 X106.3 Y119.8
;TYPE:WALL-OUTER
G1 F925.4 X105.2 Y119.8 E0.03659
G1 X105.2 Y115.2 E0.153
G1 X106.3 Y115.2 E0.03659
G1 X106.3 Y119.8 E0.153
G0 F9000 X105.7 Y119.318
G1 F2700 E-5
;MESH:NONMESH
G0 F300 X105.7 Y119.318 Z0.8
G0 F9000 X106.086 Y115.414
G0 X107.5 Y115.2
;TIME_ELAPSED:44.725921
;LAYER:3
M106 S255
;TYPE:SUPPORT
G1 F2700 E5
G1 F925.4 X129.8 Y115.2 E0.7417
G1 X129.8 Y119.8 E0.153
G1 X107.5 Y119.8 E0.7417
G1 X107.5 Y115.2 E0.153
G0 F9000 X108 Y115.48
G1 F925.4 X107.78 Y115.48 E0.00732
G1 X107.78 Y119.52 E0.13437
G1 X108 Y119.52 E0.00732
G1 X108 Y115.48 E0.13437
G1 X110 Y115.48 E0.06652
G1 X110 Y119.52 E0.13437
G1 X112 Y119.52 E0.06652
G1 X112 Y115.48 E0.13437
G1 X114 Y115.48 E0.06652
G1 X114 Y119.52 E0.13437
G1 X116 Y119.52 E0.06652
G1 X116 Y115.48 E0.13437
G1 X118 Y115.48 E0.06652
G1 X118 Y119.52 E0.13437
G1 X120 Y119.52 E0.06652
G1 X120 Y115.48 E0.13437
G1 X122 Y115.48 E0.06652
G1 X122 Y119.52 E0.13437
G1 X124 Y119.52 E0.06652
G1 X124 Y115.48 E0.13437
G1 X126 Y115.48 E0.06652
G1 X126 Y119.52 E0.13437
G1 X128 Y119.52 E0.06652
G1 X128 Y115.48 E0.13437
G1 X129.52 Y115.48 E0.05056
G1 X129.52 Y119.52 E0.13437
G1 X128 Y119.52 E0.05056
G1 F2700 E-5
;MESH:tpeel2.STL
G0 F9000 X128 Y120.665
G0 X106.661 Y120.629
G0 X106.08 Y119.52
G0 X105.9 Y119.4
;TYPE:WALL-INNER
G1 F2700 E5
G1 F925.4 X105.6 Y119.4 E0.00998
G1 X105.6 Y115.6 E0.12639
G1 X105.9 Y115.6 E0.00998
G1 X105.9 Y119.4 E0.09503
G0 F9000 X106.3 Y119.8
;TYPE:WALL-OUTER
G1 F925.4 X105.2 Y119.8 E0.03659
G1 X105.2 Y115.2 E0.153
G1 X106.3 Y115.2 E0.03659
G1 X106.3 Y119.8 E0.153
G0 F9000 X105.7 Y119.318
G1 F2700 E-5
;MESH:NONMESH
G0 F300 X105.7 Y119.318 Z1
G0 F9000 X106.086 Y115.414
G0 X107.5 Y115.2
;TIME_ELAPSED:56.543202
;LAYER:4
;TYPE:SUPPORT
G1 F2700 E5
G1 F925.4 X129.8 Y115.2 E0.7417
G1 X129.8 Y119.8 E0.153
G1 X107.5 Y119.8 E0.7417
G1 X107.5 Y115.2 E0.153
G0 F9000 X108 Y115.48
G1 F925.4 X107.78 Y115.48 E0.00732
G1 X107.78 Y119.52 E0.13437
G1 X108 Y119.52 E0.00732
G1 X108 Y115.48 E0.13437
G1 X110 Y115.48 E0.06652
G1 X110 Y119.52 E0.13437
G1 X112 Y119.52 E0.06652
G1 X112 Y115.48 E0.13437
G1 X114 Y115.48 E0.06652
G1 X114 Y119.52 E0.13437
G1 X116 Y119.52 E0.06652
G1 X116 Y115.48 E0.13437
G1 X118 Y115.48 E0.06652
G1 X118 Y119.52 E0.13437
G1 X120 Y119.52 E0.06652
G1 X120 Y115.48 E0.13437
G1 X122 Y115.48 E0.06652
G1 X122 Y119.52 E0.13437
G1 X124 Y119.52 E0.06652
G1 X124 Y115.48 E0.13437
G1 X126 Y115.48 E0.06652
G1 X126 Y119.52 E0.13437
G1 X128 Y119.52 E0.06652
G1 X128 Y115.48 E0.13437
G1 X129.52 Y115.48 E0.05056
G1 X129.52 Y119.52 E0.13437
G1 X128 Y119.52 E0.05056
G1 F2700 E-5
;MESH:tpeel2.STL
G0 F9000 X128 Y120.665
G0 X106.661 Y120.629
G0 X106.08 Y119.52
G0 X105.9 Y119.4
;TYPE:WALL-INNER
G1 F2700 E5
G1 F925.4 X105.6 Y119.4 E0.00998
G1 X105.6 Y115.6 E0.12639
G1 X105.9 Y115.6 E0.00998
G1 X105.9 Y119.4 E0.09503
G0 F9000 X106.3 Y119.8
;TYPE:WALL-OUTER
G1 F925.4 X105.2 Y119.8 E0.03659
G1 X105.2 Y115.2 E0.153
G1 X106.3 Y115.2 E0.03659
G1 X106.3 Y119.8 E0.153
G0 F9000 X105.7 Y119.318
G1 F2700 E-5
;MESH:NONMESH
G0 F300 X105.7 Y119.318 Z1.2
G0 F9000 X106.086 Y115.414
G0 X107.5 Y115.2
;TIME_ELAPSED:68.360484
;LAYER:5
;TYPE:SUPPORT
G1 F2700 E5
G1 F925.4 X129.8 Y115.2 E0.7417
G1 X129.8 Y119.8 E0.153
G1 X107.5 Y119.8 E0.7417
G1 X107.5 Y115.2 E0.153
G0 F9000 X108 Y115.48
G1 F925.4 X107.78 Y115.48 E0.00732
G1 X107.78 Y119.52 E0.13437
G1 X108 Y119.52 E0.00732
G1 X108 Y115.48 E0.13437
G1 X110 Y115.48 E0.06652
G1 X110 Y119.52 E0.13437
G1 X112 Y119.52 E0.06652
G1 X112 Y115.48 E0.13437
G1 X114 Y115.48 E0.06652
G1 X114 Y119.52 E0.13437
G1 X116 Y119.52 E0.06652
G1 X116 Y115.48 E0.13437
G1 X118 Y115.48 E0.06652
G1 X118 Y119.52 E0.13437
G1 X120 Y119.52 E0.06652
G1 X120 Y115.48 E0.13437
G1 X122 Y115.48 E0.06652
G1 X122 Y119.52 E0.13437
G1 X124 Y119.52 E0.06652
G1 X124 Y115.48 E0.13437
G1 X126 Y115.48 E0.06652
G1 X126 Y119.52 E0.13437
G1 X128 Y119.52 E0.06652
G1 X128 Y115.48 E0.13437
G1 X129.52 Y115.48 E0.05056
G1 X129.52 Y119.52 E0.13437
G1 X128 Y119.52 E0.05056
G1 F2700 E-5
;MESH:tpeel2.STL
G0 F9000 X128 Y120.665
G0 X106.661 Y120.629
G0 X106.08 Y119.52
G0 X105.9 Y119.4
;TYPE:WALL-INNER
G1 F2700 E5
G1 F925.4 X105.6 Y119.4 E0.00998
G1 X105.6 Y115.6 E0.12639
G1 X105.9 Y115.6 E0.00998
G1 X105.9 Y119.4 E0.09503
G0 F9000 X106.3 Y119.8
;TYPE:WALL-OUTER
G1 F925.4 X105.2 Y119.8 E0.03659
G1 X105.2 Y115.2 E0.153
G1 X106.3 Y115.2 E0.03659
G1 X106.3 Y119.8 E0.153
G0 F9000 X105.7 Y119.318
G1 F2700 E-5
;MESH:NONMESH
G0 F300 X105.7 Y119.318 Z1.4
G0 F9000 X106.086 Y115.414
G0 X107.5 Y115.2
;TIME_ELAPSED:80.177766
;LAYER:6
;TYPE:SUPPORT
G1 F2700 E5
G1 F925.4 X129.8 Y115.2 E0.7417
G1 X129.8 Y119.8 E0.153
G1 X107.5 Y119.8 E0.7417
G1 X107.5 Y115.2 E0.153
G0 F9000 X108 Y115.48
G1 F925.4 X107.78 Y115.48 E0.00732
G1 X107.78 Y119.52 E0.13437
G1 X108 Y119.52 E0.00732
G1 X108 Y115.48 E0.13437
G1 X110 Y115.48 E0.06652
G1 X110 Y119.52 E0.13437
G1 X112 Y119.52 E0.06652
G1 X112 Y115.48 E0.13437
G1 X114 Y115.48 E0.06652
G1 X114 Y119.52 E0.13437
G1 X116 Y119.52 E0.06652
G1 X116 Y115.48 E0.13437
G1 X118 Y115.48 E0.06652
G1 X118 Y119.52 E0.13437
G1 X120 Y119.52 E0.06652
G1 X120 Y115.48 E0.13437
G1 X122 Y115.48 E0.06652
G1 X122 Y119.52 E0.13437
G1 X124 Y119.52 E0.06652
G1 X124 Y115.48 E0.13437
G1 X126 Y115.48 E0.06652
G1 X126 Y119.52 E0.13437
G1 X128 Y119.52 E0.06652
G1 X128 Y115.48 E0.13437
G1 X129.52 Y115.48 E0.05056
G1 X129.52 Y119.52 E0.13437
G1 X128 Y119.52 E0.05056
G1 F2700 E-5
;MESH:tpeel2.STL
G0 F9000 X128 Y120.665
G0 X106.661 Y120.629
G0 X106.08 Y119.52
G0 X105.9 Y119.4
;TYPE:WALL-INNER
G1 F2700 E5
G1 F925.4 X105.6 Y119.4 E0.00998
G1 X105.6 Y115.6 E0.12639
G1 X105.9 Y115.6 E0.00998
G1 X105.9 Y119.4 E0.09503
G0 F9000 X106.3 Y119.8
;TYPE:WALL-OUTER
G1 F925.4 X105.2 Y119.8 E0.03659
G1 X105.2 Y115.2 E0.153
G1 X106.3 Y115.2 E0.03659
G1 X106.3 Y119.8 E0.153
G0 F9000 X105.7 Y119.318
G1 F2700 E-5
;MESH:NONMESH
G0 F300 X105.7 Y119.318 Z1.6
G0 F9000 X106.086 Y115.414
G0 X107.5 Y115.2
;TIME_ELAPSED:91.995048
;LAYER:7
;TYPE:SUPPORT
G1 F2700 E5
G1 F925.4 X129.8 Y115.2 E0.7417
G1 X129.8 Y119.8 E0.153
G1 X107.5 Y119.8 E0.7417
G1 X107.5 Y115.2 E0.153
G0 F9000 X108 Y115.48
G1 F925.4 X107.78 Y115.48 E0.00732
G1 X107.78 Y119.52 E0.13437
G1 X108 Y119.52 E0.00732
G1 X108 Y115.48 E0.13437
G1 X110 Y115.48 E0.06652
G1 X110 Y119.52 E0.13437
G1 X112 Y119.52 E0.06652
G1 X112 Y115.48 E0.13437
G1 X114 Y115.48 E0.06652
G1 X114 Y119.52 E0.13437
G1 X116 Y119.52 E0.06652
G1 X116 Y115.48 E0.13437
G1 X118 Y115.48 E0.06652
G1 X118 Y119.52 E0.13437
G1 X120 Y119.52 E0.06652
G1 X120 Y115.48 E0.13437
G1 X122 Y115.48 E0.06652
G1 X122 Y119.52 E0.13437
G1 X124 Y119.52 E0.06652
G1 X124 Y115.48 E0.13437
G1 X126 Y115.48 E0.06652
G1 X126 Y119.52 E0.13437
G1 X128 Y119.52 E0.06652
G1 X128 Y115.48 E0.13437
G1 X129.52 Y115.48 E0.05056
G1 X129.52 Y119.52 E0.13437
G1 X128 Y119.52 E0.05056
G1 F2700 E-5
;MESH:tpeel2.STL
G0 F9000 X128 Y120.665
G0 X106.661 Y120.629
G0 X106.08 Y119.52
G0 X105.9 Y119.4
;TYPE:WALL-INNER
G1 F2700 E5
G1 F925.4 X105.6 Y119.4 E0.00998
G1 X105.6 Y115.6 E0.12639
G1 X105.9 Y115.6 E0.00998
G1 X105.9 Y119.4 E0.09503
G0 F9000 X106.3 Y119.8
;TYPE:WALL-OUTER
G1 F925.4 X105.2 Y119.8 E0.03659
G1 X105.2 Y115.2 E0.153
G1 X106.3 Y115.2 E0.03659
G1 X106.3 Y119.8 E0.153
G0 F9000 X105.7 Y119.318
G1 F2700 E-5
;MESH:NONMESH
G0 F300 X105.7 Y119.318 Z1.8
G0 F9000 X106.086 Y115.414
G0 X107.5 Y115.2
;TIME_ELAPSED:103.812330
;LAYER:8
;TYPE:SUPPORT
G1 F2700 E5
G1 F925.4 X129.8 Y115.2 E0.7417
G1 X129.8 Y119.8 E0.153
G1 X107.5 Y119.8 E0.7417
G1 X107.5 Y115.2 E0.153
G0 F9000 X108 Y115.48
G1 F925.4 X107.78 Y115.48 E0.00732
G1 X107.78 Y119.52 E0.13437
G1 X108 Y119.52 E0.00732
G1 X108 Y115.48 E0.13437
G1 X110 Y115.48 E0.06652
G1 X110 Y119.52 E0.13437
G1 X112 Y119.52 E0.06652
G1 X112 Y115.48 E0.13437
G1 X114 Y115.48 E0.06652
G1 X114 Y119.52 E0.13437
G1 X116 Y119.52 E0.06652
G1 X116 Y115.48 E0.13437
G1 X118 Y115.48 E0.06652
G1 X118 Y119.52 E0.13437
G1 X120 Y119.52 E0.06652
G1 X120 Y115.48 E0.13437
G1 X122 Y115.48 E0.06652
G1 X122 Y119.52 E0.13437
G1 X124 Y119.52 E0.06652
G1 X124 Y115.48 E0.13437
G1 X126 Y115.48 E0.06652
G1 X126 Y119.52 E0.13437
G1 X128 Y119.52 E0.06652
G1 X128 Y115.48 E0.13437
G1 X129.52 Y115.48 E0.05056
G1 X129.52 Y119.52 E0.13437
G1 X128 Y119.52 E0.05056
G1 F2700 E-5
;MESH:tpeel2.STL
G0 F9000 X128 Y120.665
G0 X106.661 Y120.629
G0 X106.08 Y119.52
G0 X105.9 Y119.4
;TYPE:WALL-INNER
G1 F2700 E5
G1 F925.4 X105.6 Y119.4 E0.00998
G1 X105.6 Y115.6 E0.12639
G1 X105.9 Y115.6 E0.00998
G1 X105.9 Y119.4 E0.09503
G0 F9000 X106.3 Y119.8
;TYPE:WALL-OUTER
G1 F925.4 X105.2 Y119.8 E0.03659
G1 X105.2 Y115.2 E0.153
G1 X106.3 Y115.2 E0.03659
G1 X106.3 Y119.8 E0.153
G0 F9000 X105.7 Y119.318
G1 F2700 E-5
;MESH:NONMESH
G0 F300 X105.7 Y119.318 Z2
G0 F9000 X106.086 Y115.414
G0 X107.5 Y115.2
;TIME_ELAPSED:115.629611
;LAYER:9
;TYPE:SUPPORT
G1 F2700 E5
G1 F925.4 X129.8 Y115.2 E0.7417
G1 X129.8 Y119.8 E0.153
G1 X107.5 Y119.8 E0.7417
G1 X107.5 Y115.2 E0.153
G0 F9000 X108 Y115.48
G1 F925.4 X107.78 Y115.48 E0.00732
G1 X107.78 Y119.52 E0.13437
G1 X108 Y119.52 E0.00732
G1 X108 Y115.48 E0.13437
G1 X110 Y115.48 E0.06652
G1 X110 Y119.52 E0.13437
G1 X112 Y119.52 E0.06652
G1 X112 Y115.48 E0.13437
G1 X114 Y115.48 E0.06652
G1 X114 Y119.52 E0.13437
G1 X116 Y119.52 E0.06652
G1 X116 Y115.48 E0.13437
G1 X118 Y115.48 E0.06652
G1 X118 Y119.52 E0.13437
G1 X120 Y119.52 E0.06652
G1 X120 Y115.48 E0.13437
G1 X122 Y115.48 E0.06652
G1 X122 Y119.52 E0.13437
G1 X124 Y119.52 E0.06652
G1 X124 Y115.48 E0.13437
G1 X126 Y115.48 E0.06652
G1 X126 Y119.52 E0.13437
G1 X128 Y119.52 E0.06652
G1 X128 Y115.48 E0.13437
G1 X129.52 Y115.48 E0.05056
G1 X129.52 Y119.52 E0.13437
G1 X128 Y119.52 E0.05056
G1 F2700 E-5
;MESH:tpeel2.STL
G0 F9000 X128 Y120.665
G0 X106.661 Y120.629
G0 X106.08 Y119.52
G0 X105.9 Y119.4
;TYPE:WALL-INNER
G1 F2700 E5
G1 F925.4 X105.6 Y119.4 E0.00998
G1 X105.6 Y115.6 E0.12639
G1 X105.9 Y115.6 E0.00998
G1 X105.9 Y119.4 E0.09503
G0 F9000 X106.3 Y119.8
;TYPE:WALL-OUTER
G1 F925.4 X105.2 Y119.8 E0.03659
G1 X105.2 Y115.2 E0.153
G1 X106.3 Y115.2 E0.03659
G1 X106.3 Y119.8 E0.153
G0 F9000 X105.7 Y119.318
G1 F2700 E-5
;MESH:NONMESH
G0 F300 X105.7 Y119.318 Z2.2
G0 F9000 X106.086 Y115.414
G0 X107.5 Y115.2
;TIME_ELAPSED:127.446893
;LAYER:10
;TYPE:SUPPORT
G1 F2700 E5
G1 F925.4 X129.8 Y115.2 E0.7417
G1 X129.8 Y119.8 E0.153
G1 X107.5 Y119.8 E0.7417
G1 X107.5 Y115.2 E0.153
G0 F9000 X108 Y115.48
G1 F925.4 X107.78 Y115.48 E0.00732
G1 X107.78 Y119.52 E0.13437
G1 X108 Y119.52 E0.00732
G1 X108 Y115.48 E0.13437
G1 X110 Y115.48 E0.06652
G1 X110 Y119.52 E0.13437
G1 X112 Y119.52 E0.06652
G1 X112 Y115.48 E0.13437
G1 X114 Y115.48 E0.06652
G1 X114 Y119.52 E0.13437
G1 X116 Y119.52 E0.06652
G1 X116 Y115.48 E0.13437
G1 X118 Y115.48 E0.06652
G1 X118 Y119.52 E0.13437
G1 X120 Y119.52 E0.06652
G1 X120 Y115.48 E0.13437
G1 X122 Y115.48 E0.06652
G1 X122 Y119.52 E0.13437
G1 X124 Y119.52 E0.06652
G1 X124 Y115.48 E0.13437
G1 X126 Y115.48 E0.06652
G1 X126 Y119.52 E0.13437
G1 X128 Y119.52 E0.06652
G1 X128 Y115.48 E0.13437
G1 X129.52 Y115.48 E0.05056
G1 X129.52 Y119.52 E0.13437
G1 X128 Y119.52 E0.05056
G1 F2700 E-5
;MESH:tpeel2.STL
G0 F9000 X128 Y120.665
G0 X106.661 Y120.629
G0 X106.08 Y119.52
G0 X105.9 Y119.4
;TYPE:WALL-INNER
G1 F2700 E5
G1 F925.4 X105.6 Y119.4 E0.00998
G1 X105.6 Y115.6 E0.12639
G1 X105.9 Y115.6 E0.00998
G1 X105.9 Y119.4 E0.09503
G0 F9000 X106.3 Y119.8
;TYPE:WALL-OUTER
G1 F925.4 X105.2 Y119.8 E0.03659
