;FLAVOR:Marlin
;TIME:905
;Filament used: 1.01691m
;Layer height: 0.4
;MINX:98.91
;MINY:98.908
;MINZ:0.2
;MAXX:136.094
;MAXY:136.089
;MAXZ:21.8
;Generated with Cura_SteamEngine 4.7.1
M140 S50
M105
M190 S50
M104 S200
M105
M109 S200
M82 ;absolute extrusion mode
; Ender 3 Custom Start G-code
G92 E0 ; Reset Extruder
G28 ; Home all axes
G1 Z2.0 F3000 ; Move Z Axis up little to prevent scratching of Heat Bed
G1 X0.1 Y20 Z0.3 F5000.0 ; Move to start position
G1 X0.1 Y200.0 Z0.3 F1500.0 E15 ; Draw the first line
G1 X0.4 Y200.0 Z0.3 F5000.0 ; Move to side a little
G1 X0.4 Y20 Z0.3 F1500.0 E30 ; Draw the second line
G92 E0 ; Reset Extruder
G1 Z2.0 F3000 ; Move Z Axis up little to prevent scratching of Heat Bed
G1 X5 Y20 Z0.3 F5000.0 ; Move over to prevent blob squish
G92 E0
G92 E0
G1 F2700 E-5
;LAYER_COUNT:55
;LAYER:0
M107
G0 F6000 X104.464 Y104.249 Z0.2
;TYPE:SKIRT
G1 F2700 E0
G1 F1200 X104.933 Y103.803 E0.02153
G1 X105.417 Y103.369 E0.04315
G1 X105.629 Y103.19 E0.05238
G1 X105.815 Y103.036 E0.06041
G1 X105.95 Y102.927 E0.06618
G1 X106.379 Y102.598 E0.08416
G1 X106.608 Y102.431 E0.09359
G1 X106.861 Y102.252 E0.1039
G1 X107.059 Y102.116 E0.11188
G1 X107.557 Y101.793 E0.13163
G1 X108.029 Y101.505 E0.15002
G1 X108.82 Y101.066 E0.18011
G1 X109.431 Y100.759 E0.20285
G1 X109.809 Y100.578 E0.21679
G1 X110.046 Y100.47 E0.22545
G1 X110.376 Y100.326 E0.23743
G1 X110.484 Y100.281 E0.24132
G1 X110.956 Y100.097 E0.25817
G1 X111.308 Y99.969 E0.27063
G1 X111.653 Y99.85 E0.28276
G1 X111.8 Y99.802 E0.28791
G1 X112.271 Y99.66 E0.30427
G1 X112.678 Y99.547 E0.31832
G1 X113.015 Y99.459 E0.3299
G1 X113.339 Y99.38 E0.34099
G1 X113.655 Y99.308 E0.35177
G1 X113.857 Y99.265 E0.35864
G1 X114.548 Y99.141 E0.38199
G1 X114.902 Y99.089 E0.39389
G1 X115.219 Y99.047 E0.40453
G1 X115.449 Y99.02 E0.41223
G1 X115.793 Y98.985 E0.42373
G1 X116.167 Y98.953 E0.43622
G1 X116.743 Y98.919 E0.45541
G1 X117.089 Y98.911 E0.46692
G1 X117.397 Y98.908 E0.47716
G1 X117.942 Y98.916 E0.49529
G1 X118.594 Y98.942 E0.51699
G1 X119.291 Y98.992 E0.54024
G1 X119.397 Y99.003 E0.54378
G1 X119.91 Y99.068 E0.56098
G1 X120.339 Y99.133 E0.57541
G1 X120.751 Y99.204 E0.58932
G1 X121.37 Y99.322 E0.61028
G1 X122.264 Y99.531 E0.64081
G1 X122.777 Y99.674 E0.65852
G1 X123.622 Y99.947 E0.68806
G1 X123.91 Y100.053 E0.69827
G1 X124.26 Y100.188 E0.71074
G1 X124.702 Y100.368 E0.72662
G1 X125.125 Y100.551 E0.74195
G1 X125.276 Y100.62 E0.74747
G1 X125.661 Y100.805 E0.76167
G1 X126.077 Y101.015 E0.77717
G1 X126.432 Y101.202 E0.79052
G1 X126.782 Y101.395 E0.80381
G1 X127.162 Y101.615 E0.81842
G1 X127.248 Y101.667 E0.82176
G1 X127.639 Y101.915 E0.83716
G1 X127.871 Y102.069 E0.84642
G1 X128.127 Y102.244 E0.85674
G1 X128.344 Y102.397 E0.86557
G1 X128.791 Y102.73 E0.88411
G1 X129.138 Y103.002 E0.89877
G1 X129.424 Y103.233 E0.911
G1 X129.714 Y103.483 E0.92373
G1 X129.983 Y103.722 E0.9357
G1 X130.545 Y104.257 E0.96151
G1 X131.057 Y104.781 E0.98588
G1 X131.559 Y105.332 E1.01067
G1 X131.721 Y105.522 E1.01897
G1 X131.92 Y105.762 E1.02934
G1 X132.019 Y105.885 E1.03459
G1 X132.207 Y106.125 E1.04473
G1 X132.356 Y106.321 E1.05292
G1 X132.671 Y106.757 E1.07081
G1 X132.791 Y106.932 E1.07787
G1 X133.009 Y107.262 E1.09102
G1 X133.347 Y107.795 E1.11202
G1 X133.566 Y108.156 E1.12606
G1 X133.73 Y108.438 E1.13691
G1 X134.022 Y108.975 E1.15724
G1 X134.157 Y109.24 E1.16713
G1 X134.422 Y109.797 E1.18765
G1 X134.593 Y110.185 E1.20175
G1 X134.791 Y110.666 E1.21905
G1 X134.87 Y110.871 E1.22636
G1 X134.98 Y111.168 E1.23689
G1 X135.09 Y111.48 E1.24789
G1 X135.201 Y111.812 E1.25954
G1 X135.286 Y112.08 E1.26889
G1 X135.491 Y112.814 E1.29424
G1 X135.595 Y113.243 E1.30892
G1 X135.73 Y113.878 E1.33051
G1 X135.809 Y114.315 E1.34528
G1 X135.879 Y114.757 E1.36016
G1 X135.957 Y115.318 E1.379
G1 X136.027 Y115.96 E1.40048
G1 X136.05 Y116.249 E1.41013
G1 X136.081 Y116.831 E1.42951
G1 X136.091 Y117.209 E1.44209
G1 X136.094 Y117.606 E1.45529
G1 X136.092 Y117.814 E1.46221
G1 X136.061 Y118.541 E1.48641
G1 X136.009 Y119.226 E1.50926
G1 X135.945 Y119.841 E1.52983
G1 X135.911 Y120.097 E1.53842
G1 X135.838 Y120.57 E1.55433
G1 X135.766 Y120.976 E1.56805
G1 X135.578 Y121.836 E1.59733
G1 X135.411 Y122.475 E1.61929
G1 X135.281 Y122.932 E1.6351
G1 X135.208 Y123.169 E1.64335
G1 X134.995 Y123.793 E1.66528
G1 X134.83 Y124.233 E1.68091
G1 X134.699 Y124.566 E1.69281
G1 X134.633 Y124.726 E1.69856
G1 X134.424 Y125.199 E1.71576
G1 X134.237 Y125.598 E1.73042
G1 X133.803 Y126.43 E1.76163
G1 X133.788 Y126.453 E1.76254
G1 X133.56 Y126.852 E1.77783
G1 X133.339 Y127.22 E1.79211
G1 X133.127 Y127.559 E1.8054
G1 X132.913 Y127.889 E1.81849
G1 X132.748 Y128.133 E1.82828
G1 X132.501 Y128.483 E1.84253
G1 X132.418 Y128.596 E1.84719
G1 X132.171 Y128.919 E1.86072
G1 X132.01 Y129.122 E1.86934
G1 X131.767 Y129.419 E1.8821
G1 X131.526 Y129.702 E1.89446
G1 X131.186 Y130.082 E1.91142
G1 X130.956 Y130.328 E1.92262
G1 X130.732 Y130.561 E1.93337
G1 X130.616 Y130.678 E1.93885
G1 X130.235 Y131.044 E1.95642
G1 X129.854 Y131.393 E1.97361
G1 X129.442 Y131.752 E1.99178
G1 X129.136 Y132 E2.00488
G1 X128.804 Y132.26 E2.01891
G1 X128.049 Y132.802 E2.04982
G1 X127.362 Y133.252 E2.07714
G1 X126.954 Y133.507 E2.09314
G1 X126.816 Y133.589 E2.09848
G1 X126.49 Y133.775 E2.11096
G1 X126.224 Y133.921 E2.12105
G1 X125.541 Y134.266 E2.14651
G1 X125.32 Y134.368 E2.1546
G1 X124.999 Y134.51 E2.16628
G1 X124.503 Y134.72 E2.18419
G1 X124.101 Y134.881 E2.19859
G1 X123.868 Y134.969 E2.20688
G1 X123.355 Y135.148 E2.22495
G1 X123.265 Y135.177 E2.22809
G1 X122.888 Y135.291 E2.24119
G1 X122.217 Y135.481 E2.26439
G1 X121.441 Y135.67 E2.29095
G1 X121.053 Y135.75 E2.30413
G1 X120.496 Y135.85 E2.32295
G1 X120.398 Y135.865 E2.32625
G1 X120.066 Y135.911 E2.3374
G1 X119.738 Y135.951 E2.34839
G1 X119.325 Y135.994 E2.3622
G1 X118.693 Y136.047 E2.38329
G1 X117.964 Y136.083 E2.40757
G1 X117.616 Y136.089 E2.41914
G1 X117.092 Y136.086 E2.43657
G1 X116.664 Y136.073 E2.45081
G1 X115.787 Y136.011 E2.48006
G1 X115.48 Y135.977 E2.49033
G1 X115.057 Y135.922 E2.50452
G1 X114.471 Y135.834 E2.52423
G1 X114.045 Y135.761 E2.5386
G1 X113.683 Y135.692 E2.55086
G1 X113.011 Y135.542 E2.57376
G1 X112.855 Y135.502 E2.57912
G1 X112.383 Y135.37 E2.59542
G1 X111.979 Y135.247 E2.60946
G1 X111.416 Y135.059 E2.6292
G1 X110.87 Y134.86 E2.64853
G1 X110.51 Y134.721 E2.66137
G1 X110.384 Y134.67 E2.66589
G1 X109.999 Y134.506 E2.67981
G1 X109.561 Y134.309 E2.69578
G1 X108.858 Y133.962 E2.72186
G1 X108.52 Y133.78 E2.73462
G1 X108.135 Y133.563 E2.74932
G1 X107.971 Y133.466 E2.75566
G1 X107.623 Y133.251 E2.76927
G1 X107.343 Y133.071 E2.78034
G1 X107.04 Y132.869 E2.79245
G1 X106.762 Y132.677 E2.80369
G1 X106.281 Y132.325 E2.82351
G1 X105.967 Y132.082 E2.83672
G1 X105.569 Y131.759 E2.85377
G1 X105.374 Y131.593 E2.86228
G1 X105.128 Y131.377 E2.87317
G1 X104.899 Y131.17 E2.88344
G1 X104.515 Y130.807 E2.90101
G1 X104.303 Y130.596 E2.91096
G1 X104.104 Y130.392 E2.92044
G1 X103.917 Y130.196 E2.92945
G1 X103.524 Y129.762 E2.94892
G1 X103.314 Y129.517 E2.95966
G1 X103.031 Y129.173 E2.97447
G1 X102.825 Y128.912 E2.98553
G1 X102.409 Y128.349 E3.00881
G1 X102.027 Y127.796 E3.03117
G1 X101.546 Y127.034 E3.06114
G1 X101.292 Y126.593 E3.07807
G1 X101.115 Y126.273 E3.09023
G1 X100.943 Y125.95 E3.1024
G1 X100.746 Y125.562 E3.11687
G1 X100.606 Y125.265 E3.12779
G1 X100.485 Y124.997 E3.13757
G1 X100.282 Y124.517 E3.15491
G1 X100.159 Y124.206 E3.16603
G1 X99.976 Y123.709 E3.18365
G1 X99.871 Y123.401 E3.19447
G1 X99.671 Y122.749 E3.21715
G1 X99.466 Y121.998 E3.24305
G1 X99.295 Y121.273 E3.26782
G1 X99.239 Y120.995 E3.27725
G1 X99.18 Y120.684 E3.28778
G1 X99.123 Y120.321 E3.3
G1 X99.062 Y119.892 E3.31441
G1 X98.998 Y119.343 E3.3328
G1 X98.974 Y119.08 E3.34158
G1 X98.94 Y118.603 E3.35749
G1 X98.923 Y118.246 E3.36937
G1 X98.912 Y117.9 E3.38089
G1 X98.91 Y117.776 E3.38501
G1 X98.91 Y117.449 E3.39589
G1 X98.917 Y116.935 E3.41299
G1 X98.937 Y116.399 E3.43083
G1 X98.962 Y116.06 E3.44213
G1 X98.985 Y115.802 E3.45075
G1 X99.025 Y115.429 E3.46322
G1 X99.083 Y114.96 E3.47894
G1 X99.176 Y114.35 E3.49947
G1 X99.252 Y113.931 E3.51363
G1 X99.412 Y113.202 E3.53845
G1 X99.543 Y112.689 E3.55606
G1 X99.614 Y112.425 E3.56516
G1 X99.658 Y112.269 E3.57055
G1 X99.809 Y111.776 E3.5877
G1 X99.886 Y111.545 E3.59579
G1 X100.056 Y111.072 E3.61251
G1 X100.143 Y110.846 E3.62057
G1 X100.308 Y110.443 E3.63505
G1 X100.543 Y109.898 E3.65479
G1 X100.717 Y109.513 E3.66884
G1 X100.876 Y109.18 E3.68112
G1 X101.301 Y108.377 E3.71133
G1 X101.448 Y108.125 E3.72104
G1 X101.642 Y107.806 E3.73345
G1 X101.841 Y107.49 E3.74588
G1 X102.081 Y107.126 E3.76038
G1 X102.403 Y106.657 E3.7793
G1 X102.966 Y105.907 E3.81049
G1 X102.987 Y105.884 E3.81153
G1 X103.148 Y105.685 E3.82004
G1 X103.498 Y105.274 E3.83799
G1 X103.851 Y104.88 E3.85559
G1 X104.464 Y104.249 E3.88485
G0 F6000 X104.739 Y104.539
G1 F1200 X105.208 Y104.093 E3.90638
G1 X105.675 Y103.675 E3.92722
G1 X105.887 Y103.496 E3.93645
G1 X106.066 Y103.348 E3.94417
G1 X106.201 Y103.239 E3.94995
G1 X106.614 Y102.921 E3.96728
G1 X106.843 Y102.754 E3.97671
G1 X107.088 Y102.582 E3.98667
G1 X107.286 Y102.446 E3.99465
G1 X107.766 Y102.134 E4.0137
G1 X108.238 Y101.846 E4.03209
G1 X109 Y101.423 E4.06107
G1 X109.611 Y101.116 E4.08382
G1 X109.974 Y100.942 E4.09721
G1 X110.211 Y100.834 E4.10587
G1 X110.53 Y100.695 E4.11744
G1 X110.638 Y100.65 E4.12133
G1 X111.093 Y100.473 E4.13757
G1 X111.445 Y100.345 E4.15003
G1 X111.777 Y100.231 E4.1617
G1 X111.924 Y100.183 E4.16685
G1 X112.378 Y100.045 E4.18263
G1 X112.785 Y99.932 E4.19668
G1 X113.11 Y99.848 E4.20784
G1 X113.434 Y99.769 E4.21893
G1 X113.738 Y99.699 E4.22931
G1 X113.94 Y99.656 E4.23618
G1 X114.606 Y99.537 E4.25868
G1 X114.96 Y99.485 E4.27058
G1 X115.265 Y99.444 E4.28082
G1 X115.495 Y99.417 E4.28852
G1 X115.827 Y99.384 E4.29962
G1 X116.201 Y99.352 E4.3121
G1 X116.756 Y99.319 E4.33059
G1 X117.093 Y99.311 E4.34181
G1 X117.401 Y99.308 E4.35205
G1 X117.926 Y99.315 E4.36951
G1 X118.578 Y99.341 E4.39122
G1 X119.25 Y99.39 E4.41363
G1 X119.356 Y99.401 E4.41717
G1 X119.85 Y99.464 E4.43373
G1 X120.279 Y99.529 E4.44817
G1 X120.676 Y99.597 E4.46156
G1 X121.295 Y99.715 E4.48252
G1 X122.156 Y99.916 E4.51193
G1 X122.669 Y100.059 E4.52964
G1 X123.484 Y100.322 E4.55812
G1 X123.772 Y100.428 E4.56833
G1 X124.109 Y100.559 E4.58036
G1 X124.551 Y100.739 E4.59623
G1 X124.959 Y100.915 E4.61101
G1 X125.11 Y100.984 E4.61653
G1 X125.481 Y101.162 E4.63022
G1 X125.897 Y101.372 E4.64572
G1 X126.239 Y101.553 E4.65859
G1 X126.589 Y101.746 E4.67188
G1 X126.955 Y101.957 E4.68593
G1 X127.041 Y102.009 E4.68927
G1 X127.418 Y102.249 E4.70414
G1 X127.65 Y102.403 E4.7134
G1 X127.896 Y102.571 E4.72331
G1 X128.113 Y102.724 E4.73214
G1 X128.544 Y103.045 E4.75001
G1 X128.891 Y103.317 E4.76468
G1 X129.166 Y103.54 E4.77645
G1 X129.448 Y103.782 E4.78881
G1 X129.717 Y104.021 E4.80078
G1 X130.259 Y104.537 E4.82567
G1 X130.771 Y105.061 E4.85004
G1 X131.255 Y105.592 E4.87393
G1 X131.417 Y105.782 E4.88224
G1 X131.609 Y106.013 E4.89223
G1 X131.708 Y106.136 E4.89748
G1 X131.888 Y106.367 E4.90722
G1 X132.037 Y106.563 E4.91541
G1 X132.341 Y106.983 E4.93265
G1 X132.461 Y107.158 E4.93971
G1 X132.671 Y107.476 E4.95239
G1 X133.009 Y108.009 E4.97338
G1 X133.22 Y108.357 E4.98691
G1 X133.384 Y108.639 E4.99776
G1 X133.666 Y109.156 E5.01735
G1 X133.801 Y109.421 E5.02724
G1 X134.056 Y109.958 E5.04702
G1 X134.227 Y110.346 E5.06112
G1 X134.418 Y110.809 E5.07778
G1 X134.497 Y111.014 E5.08508
G1 X134.603 Y111.301 E5.09526
G1 X134.713 Y111.613 E5.10626
G1 X134.82 Y111.933 E5.11749
G1 X134.905 Y112.201 E5.12684
G1 X135.103 Y112.909 E5.15129
G1 X135.207 Y113.338 E5.16597
G1 X135.336 Y113.949 E5.18674
G1 X135.415 Y114.386 E5.20151
G1 X135.483 Y114.812 E5.21586
G1 X135.561 Y115.373 E5.2347
G1 X135.629 Y115.992 E5.25541
G1 X135.652 Y116.281 E5.26505
G1 X135.681 Y116.842 E5.28374
G1 X135.691 Y117.22 E5.29631
G1 X135.695 Y117.602 E5.30902
G1 X135.693 Y117.81 E5.31594
G1 X135.663 Y118.51 E5.33924
G1 X135.611 Y119.195 E5.36209
G1 X135.549 Y119.789 E5.38195
G1 X135.515 Y120.045 E5.39054
G1 X135.444 Y120.5 E5.40586
G1 X135.372 Y120.906 E5.41957
G1 X135.191 Y121.735 E5.4478
G1 X135.024 Y122.374 E5.46976
G1 X134.898 Y122.814 E5.48498
G1 X134.825 Y123.051 E5.49323
G1 X134.62 Y123.653 E5.51438
G1 X134.455 Y124.093 E5.53001
G1 X134.329 Y124.413 E5.54145
G1 X134.263 Y124.573 E5.54721
G1 X134.062 Y125.029 E5.56378
G1 X133.875 Y125.428 E5.57844
G1 X133.449 Y126.244 E5.60906
G1 X133.436 Y126.264 E5.60985
G1 X133.213 Y126.654 E5.62479
G1 X133 Y127.008 E5.63853
G1 X132.788 Y127.347 E5.65183
G1 X132.582 Y127.665 E5.66443
G1 X132.417 Y127.909 E5.67423
G1 X132.179 Y128.246 E5.68795
G1 X132.096 Y128.359 E5.69262
G1 X131.858 Y128.671 E5.70567
G1 X131.697 Y128.874 E5.71428
G1 X131.462 Y129.16 E5.7266
G1 X131.221 Y129.443 E5.73896
G1 X130.894 Y129.809 E5.75528
G1 X130.664 Y130.055 E5.76649
G1 X130.448 Y130.279 E5.77683
G1 X130.332 Y130.396 E5.78231
G1 X129.965 Y130.749 E5.79925
G1 X129.584 Y131.098 E5.81644
G1 X129.187 Y131.444 E5.83395
G1 X128.89 Y131.685 E5.84667
G1 X128.558 Y131.945 E5.8607
G1 X127.83 Y132.467 E5.89049
G1 X127.143 Y132.917 E5.91781
G1 X126.75 Y133.163 E5.93323
G1 X126.612 Y133.245 E5.93857
G1 X126.297 Y133.424 E5.95062
G1 X126.031 Y133.57 E5.96071
G1 X125.373 Y133.902 E5.98522
G1 X125.152 Y134.004 E5.99332
G1 X124.843 Y134.141 E6.00456
G1 X124.347 Y134.351 E6.02248
G1 X123.959 Y134.506 E6.03637
G1 X123.726 Y134.594 E6.04466
G1 X123.232 Y134.767 E6.06207
G1 X123.142 Y134.796 E6.06521
G1 X122.779 Y134.906 E6.07783
G1 X122.108 Y135.096 E6.10102
G1 X121.361 Y135.279 E6.1266
G1 X120.973 Y135.359 E6.13978
G1 X120.436 Y135.455 E6.15792
G1 X120.338 Y135.47 E6.16122
G1 X120.017 Y135.514 E6.172
G1 X119.689 Y135.554 E6.18299
G1 X119.292 Y135.595 E6.19626
G1 X118.66 Y135.648 E6.21735
G1 X117.957 Y135.683 E6.24077
G1 X117.609 Y135.689 E6.25234
G1 X117.104 Y135.686 E6.26914
G1 X116.676 Y135.673 E6.28338
G1 X115.831 Y135.614 E6.31155
G1 X115.524 Y135.58 E6.32183
G1 X115.117 Y135.526 E6.33548
G1 X114.531 Y135.438 E6.35519
G1 X114.12 Y135.369 E6.36905
G1 X113.758 Y135.3 E6.38131
G1 X113.11 Y135.155 E6.40339
G1 X112.954 Y135.115 E6.40875
G1 X112.5 Y134.987 E6.42444
G1 X112.096 Y134.864 E6.43849
G1 X111.553 Y134.683 E6.45752
G1 X111.007 Y134.484 E6.47685
G1 X110.66 Y134.351 E6.48921
G1 X110.534 Y134.3 E6.49373
G1 X110.163 Y134.141 E6.50716
G1 X109.725 Y133.944 E6.52313
G1 X109.048 Y133.61 E6.54824
G1 X108.71 Y133.428 E6.56101
G1 X108.339 Y133.219 E6.57517
G1 X108.175 Y133.122 E6.58151
G1 X107.839 Y132.914 E6.59465
G1 X107.559 Y132.734 E6.60572
G1 X107.267 Y132.54 E6.61738
G1 X106.989 Y132.348 E6.62862
G1 X106.526 Y132.009 E6.64771
G1 X106.212 Y131.766 E6.66091
G1 X105.828 Y131.454 E6.67737
G1 X105.633 Y131.288 E6.68589
G1 X105.396 Y131.081 E6.69635
G1 X105.167 Y130.874 E6.70662
G1 X104.797 Y130.523 E6.72358
G1 X104.585 Y130.312 E6.73353
G1 X104.394 Y130.116 E6.74263
G1 X104.207 Y129.92 E6.75164
G1 X103.828 Y129.501 E6.77043
G1 X103.618 Y129.256 E6.78117
G1 X103.345 Y128.925 E6.79544
G1 X103.139 Y128.664 E6.8065
G1 X102.739 Y128.122 E6.8289
G1 X102.357 Y127.569 E6.85125
G1 X101.893 Y126.834 E6.88016
G1 X101.639 Y126.393 E6.89709
G1 X101.468 Y126.085 E6.90881
G1 X101.296 Y125.762 E6.92098
G1 X101.105 Y125.386 E6.93501
G1 X100.971 Y125.101 E6.94548
G1 X100.85 Y124.833 E6.95526
G1 X100.654 Y124.369 E6.97201
G1 X100.531 Y124.058 E6.98314
G1 X100.355 Y123.58 E7.00008
G1 X100.25 Y123.272 E7.0109
G1 X100.057 Y122.643 E7.03279
G1 X99.852 Y121.892 E7.05868
G1 X99.687 Y121.194 E7.08253
G1 X99.631 Y120.916 E7.09197
G1 X99.574 Y120.614 E7.10219
G1 X99.519 Y120.264 E7.11397
G1 X99.458 Y119.835 E7.12838
G1 X99.396 Y119.306 E7.1461
G1 X99.372 Y119.043 E7.15488
G1 X99.34 Y118.584 E7.17019
G1 X99.323 Y118.227 E7.18207
G1 X99.312 Y117.894 E7.19315
G1 X99.31 Y117.77 E7.19728
G1 X99.31 Y117.455 E7.20776
G1 X99.317 Y116.941 E7.22485
G1 X99.337 Y116.424 E7.24206
G1 X99.361 Y116.096 E7.253
G1 X99.384 Y115.838 E7.26162
G1 X99.422 Y115.478 E7.27366
G1 X99.48 Y115.009 E7.28937
G1 X99.57 Y114.422 E7.30913
G1 X99.645 Y114.004 E7.32325
G1 X99.8 Y113.301 E7.34719
G1 X99.931 Y112.788 E7.3648
G1 X99.999 Y112.534 E7.37355
G1 X100.043 Y112.378 E7.37894
G1 X100.189 Y111.903 E7.39547
G1 X100.266 Y111.672 E7.40357
G1 X100.43 Y111.216 E7.41968
G1 X100.517 Y110.99 E7.42774
G1 X100.675 Y110.601 E7.4417
G1 X100.91 Y110.056 E7.46144
G1 X101.078 Y109.686 E7.47496
G1 X101.237 Y109.353 E7.48723
G1 X101.647 Y108.579 E7.51636
G1 X101.794 Y108.327 E7.52607
G1 X101.98 Y108.019 E7.53804
G1 X102.179 Y107.703 E7.55046
G1 X102.41 Y107.352 E7.56443
G1 X102.732 Y106.883 E7.58335
G1 X103.241 Y106.208 E7.61147
G1 X103.286 Y106.148 E7.61397
G1 X103.305 Y106.127 E7.61491
G1 X103.459 Y105.937 E7.62304
G1 X103.796 Y105.541 E7.64034
G1 X104.149 Y105.147 E7.65793
G1 X104.739 Y104.539 E7.68611
G0 F6000 X105.015 Y104.829
G1 F1200 X105.484 Y104.383 E7.70764
G1 X105.933 Y103.98 E7.7277
G1 X106.145 Y103.801 E7.73693
G1 X106.317 Y103.659 E7.74435
G1 X106.452 Y103.55 E7.75012
G1 X106.85 Y103.245 E7.7668
G1 X107.079 Y103.078 E7.77623
G1 X107.314 Y102.911 E7.78581
G1 X107.512 Y102.775 E7.7938
G1 X107.974 Y102.476 E7.81211
G1 X108.446 Y102.188 E7.8305
G1 X109.18 Y101.781 E7.85841
G1 X109.791 Y101.474 E7.88116
G1 X110.14 Y101.306 E7.89404
G1 X110.377 Y101.198 E7.9027
G1 X110.684 Y101.065 E7.91383
G1 X110.792 Y101.02 E7.91772
G1 X111.229 Y100.849 E7.93333
G1 X111.581 Y100.721 E7.94579
G1 X111.901 Y100.611 E7.95704
G1 X112.048 Y100.563 E7.96218
G1 X112.485 Y100.431 E7.97737
G1 X112.892 Y100.318 E7.99142
G1 X113.205 Y100.236 E8.00218
G1 X113.529 Y100.157 E8.01327
G1 X113.821 Y100.091 E8.02323
G1 X114.023 Y100.048 E8.03009
G1 X114.665 Y99.932 E8.05179
G1 X115.019 Y99.88 E8.06369
G1 X115.312 Y99.842 E8.07352
G1 X115.542 Y99.815 E8.08122
G1 X115.861 Y99.782 E8.09189
G1 X116.235 Y99.75 E8.10437
G1 X116.769 Y99.719 E8.12217
G1 X117.097 Y99.71 E8.13308
G1 X117.405 Y99.707 E8.14332
G1 X117.91 Y99.715 E8.16012
G1 X118.562 Y99.741 E8.18182
G1 X119.209 Y99.787 E8.2034
G1 X119.315 Y99.798 E8.20694
G1 X119.79 Y99.859 E8.22287
G1 X120.219 Y99.924 E8.2373
G1 X120.601 Y99.989 E8.25019
G1 X121.22 Y100.107 E8.27115
G1 X122.049 Y100.302 E8.29947
G1 X122.562 Y100.445 E8.31719
G1 X123.346 Y100.698 E8.34459
G1 X123.634 Y100.804 E8.35479
G1 X123.958 Y100.929 E8.36635
G1 X124.4 Y101.109 E8.38222
G1 X124.792 Y101.279 E8.39643
G1 X124.943 Y101.348 E8.40195
G1 X125.301 Y101.519 E8.41515
G1 X125.717 Y101.729 E8.43065
G1 X126.045 Y101.903 E8.443
G1 X126.395 Y102.096 E8.45629
G1 X126.748 Y102.3 E8.46985
G1 X126.834 Y102.352 E8.47319
G1 X127.197 Y102.582 E8.48749
G1 X127.429 Y102.736 E8.49675
G1 X127.666 Y102.898 E8.5063
G1 X127.883 Y103.051 E8.51513
G1 X128.298 Y103.359 E8.53232
G1 X128.645 Y103.631 E8.54698
G1 X128.965 Y103.893 E8.56074
G1 X129.183 Y104.081 E8.57031
G1 X129.452 Y104.32 E8.58228
G1 X129.973 Y104.817 E8.60623
G1 X130.485 Y105.341 E8.63059
G1 X130.951 Y105.851 E8.65357
G1 X131.113 Y106.041 E8.66188
G1 X131.297 Y106.264 E8.67149
G1 X131.396 Y106.387 E8.67674
G1 X131.57 Y106.609 E8.68612
G1 X131.719 Y106.805 E8.69431
G1 X132.011 Y107.21 E8.71092
G1 X132.131 Y107.385 E8.71798
G1 X132.333 Y107.69 E8.73014
G1 X132.671 Y108.223 E8.75114
G1 X132.874 Y108.558 E8.76416
G1 X133.038 Y108.84 E8.77501
G1 X133.31 Y109.338 E8.79389
G1 X133.445 Y109.603 E8.80378
G1 X133.69 Y110.119 E8.82278
G1 X133.861 Y110.507 E8.83688
G1 X134.045 Y110.953 E8.85293
G1 X134.124 Y111.158 E8.86023
G1 X134.226 Y111.434 E8.87002
G1 X134.336 Y111.746 E8.88102
G1 X134.439 Y112.054 E8.89183
G1 X134.524 Y112.322 E8.90118
G1 X134.714 Y113.003 E8.92469
G1 X134.818 Y113.432 E8.93937
G1 X134.942 Y114.02 E8.95936
G1 X135.021 Y114.457 E8.97413
G1 X135.087 Y114.867 E8.98794
G1 X135.165 Y115.428 E9.00678
G1 X135.23 Y116.024 E9.02672
G1 X135.253 Y116.313 E9.03637
G1 X135.281 Y116.852 E9.05432
G1 X135.291 Y117.23 E9.06689
G1 X135.295 Y117.598 E9.07913
G1 X135.293 Y117.806 E9.08605
G1 X135.264 Y118.48 E9.10849
G1 X135.212 Y119.165 E9.13134
G1 X135.152 Y119.736 E9.15044
G1 X135.118 Y119.992 E9.15902
G1 X135.05 Y120.43 E9.17377
G1 X134.978 Y120.836 E9.18748
G1 X134.804 Y121.634 E9.21465
G1 X134.637 Y122.273 E9.23661
G1 X134.516 Y122.697 E9.25128
G1 X134.443 Y122.934 E9.25953
G1 X134.246 Y123.512 E9.27984
G1 X134.081 Y123.952 E9.29547
G1 X133.959 Y124.261 E9.30652
G1 X133.893 Y124.421 E9.31227
G1 X133.7 Y124.86 E9.32822
G1 X133.513 Y125.259 E9.34288
G1 X133.094 Y126.059 E9.37292
G1 X133.073 Y126.092 E9.37422
G1 X132.865 Y126.455 E9.38813
G1 X132.661 Y126.796 E9.40135
G1 X132.449 Y127.135 E9.41465
G1 X132.25 Y127.441 E9.42679
G1 X132.085 Y127.685 E9.43658
G1 X131.857 Y128.009 E9.44976
G1 X131.774 Y128.122 E9.45442
G1 X131.545 Y128.422 E9.46698
G1 X131.384 Y128.625 E9.47559
G1 X131.158 Y128.9 E9.48743
G1 X130.917 Y129.183 E9.4998
G1 X130.602 Y129.536 E9.51553
G1 X130.372 Y129.782 E9.52673
G1 X130.164 Y129.997 E9.53668
G1 X130.048 Y130.114 E9.54216
G1 X129.695 Y130.454 E9.55846
G1 X129.314 Y130.803 E9.57565
G1 X128.932 Y131.136 E9.5925
G1 X128.643 Y131.371 E9.60489
G1 X128.311 Y131.631 E9.61892
G1 X127.611 Y132.132 E9.64755
G1 X126.924 Y132.582 E9.67486
G1 X126.545 Y132.819 E9.68973
G1 X126.407 Y132.901 E9.69507
G1 X126.105 Y133.074 E9.70665
G1 X125.839 Y133.22 E9.71674
G1 X125.205 Y133.539 E9.74035
G1 X124.984 Y133.641 E9.74844
G1 X124.687 Y133.773 E9.75925
G1 X124.191 Y133.983 E9.77717
G1 X123.818 Y134.132 E9.79052
G1 X123.585 Y134.22 E9.79881
G1 X123.109 Y134.386 E9.81558
G1 X123.019 Y134.415 E9.81872
G1 X122.67 Y134.521 E9.83085
G1 X121.999 Y134.711 E9.85405
G1 X121.28 Y134.887 E9.87867
G1 X120.892 Y134.967 E9.89184
G1 X120.375 Y135.06 E9.90931
G1 X120.277 Y135.075 E9.91261
G1 X119.969 Y135.117 E9.92295
G1 X119.641 Y135.157 E9.93394
G1 X119.258 Y135.196 E9.94675
G1 X118.626 Y135.249 E9.96784
G1 X117.95 Y135.283 E9.99035
G1 X117.602 Y135.289 E10.00193
G1 X117.116 Y135.286 E10.01809
G1 X116.688 Y135.273 E10.03234
G1 X115.875 Y135.216 E10.05944
G1 X115.568 Y135.182 E10.06972
G1 X115.176 Y135.131 E10.08286
G1 X114.59 Y135.043 E10.10257
G1 X114.195 Y134.976 E10.1159
G1 X113.833 Y134.907 E10.12815
G1 X113.21 Y134.767 E10.14939
G1 X113.054 Y134.727 E10.15475
G1 X112.616 Y134.605 E10.16987
G1 X112.212 Y134.482 E10.18392
G1 X111.69 Y134.307 E10.20223
G1 X111.144 Y134.108 E10.22156
G1 X110.81 Y133.98 E10.23345
G1 X110.684 Y133.929 E10.23798
G1 X110.327 Y133.776 E10.25089
G1 X109.889 Y133.579 E10.26687
G1 X109.237 Y133.258 E10.29104
G1 X108.899 Y133.076 E10.30381
G1 X108.542 Y132.874 E10.31745
G1 X108.378 Y132.777 E10.32379
G1 X108.055 Y132.578 E10.33641
G1 X107.775 Y132.398 E10.34748
G1 X107.494 Y132.211 E10.3587
G1 X107.216 Y132.019 E10.36994
G1 X106.77 Y131.693 E10.38831
G1 X106.456 Y131.45 E10.40152
G1 X106.087 Y131.15 E10.41734
G1 X105.892 Y130.984 E10.42585
G1 X105.664 Y130.784 E10.43594
G1 X105.435 Y130.577 E10.44621
G1 X105.08 Y130.24 E10.46249
G1 X104.868 Y130.029 E10.47244
G1 X104.683 Y129.84 E10.48123
G1 X104.496 Y129.644 E10.49024
G1 X104.132 Y129.241 E10.50831
G1 X103.922 Y128.996 E10.51904
G1 X103.659 Y128.677 E10.53279
G1 X103.453 Y128.416 E10.54385
G1 X103.068 Y127.894 E10.56542
G1 X102.686 Y127.341 E10.58778
G1 X102.239 Y126.635 E10.61557
G1 X101.985 Y126.194 E10.6325
G1 X101.821 Y125.897 E10.64378
G1 X101.649 Y125.574 E10.65595
G1 X101.465 Y125.211 E10.66949
G1 X101.336 Y124.936 E10.67959
G1 X101.215 Y124.668 E10.68937
G1 X101.026 Y124.222 E10.70548
G1 X100.903 Y123.911 E10.7166
G1 X100.734 Y123.451 E10.7329
G1 X100.629 Y123.143 E10.74373
G1 X100.443 Y122.538 E10.76478
G1 X100.238 Y121.787 E10.79067
G1 X100.079 Y121.115 E10.81364
G1 X100.023 Y120.837 E10.82307
G1 X99.968 Y120.545 E10.83295
G1 X99.915 Y120.208 E10.8443
G1 X99.854 Y119.779 E10.85871
G1 X99.794 Y119.27 E10.87576
G1 X99.77 Y119.007 E10.88454
G1 X99.74 Y118.565 E10.89928
G1 X99.723 Y118.208 E10.91117
G1 X99.712 Y117.887 E10.92185
G1 X99.71 Y117.763 E10.92597
G1 X99.71 Y117.46 E10.93605
G1 X99.717 Y116.946 E10.95315
G1 X99.736 Y116.449 E10.96969
G1 X99.759 Y116.131 E10.98029
G1 X99.782 Y115.873 E10.98891
G1 X99.819 Y115.527 E11.00048
G1 X99.877 Y115.058 E11.0162
G1 X99.963 Y114.493 E11.03521
G1 X100.039 Y114.076 E11.04931
G1 X100.187 Y113.4 E11.07232
G1 X100.318 Y112.887 E11.08993
G1 X100.384 Y112.642 E11.09837
G1 X100.428 Y112.486 E11.10376
G1 X100.568 Y112.029 E11.11966
G1 X100.645 Y111.798 E11.12776
G1 X100.803 Y111.36 E11.14325
G1 X100.89 Y111.134 E11.1513
G1 X101.043 Y110.759 E11.16477
G1 X101.278 Y110.214 E11.18451
G1 X101.439 Y109.858 E11.19751
G1 X101.598 Y109.525 E11.20978
G1 X101.992 Y108.781 E11.23778
G1 X102.139 Y108.529 E11.24749
G1 X102.319 Y108.233 E11.25901
G1 X102.518 Y107.917 E11.27143
G1 X102.74 Y107.579 E11.28488
G1 X103.062 Y107.11 E11.3038
G1 X103.552 Y106.461 E11.33085
G1 X103.55 Y106.459 E11.33094
G1 X103.769 Y106.189 E11.3425
G1 X104.094 Y105.808 E11.35916
G1 X104.447 Y105.414 E11.37676
G1 X105.015 Y104.829 E11.40387
G1 F2700 E6.40387
;MESH:Vase v1.stl
G0 F6000 X109.389 Y115.894
G0 X110.436 Y116.197
G0 X110.801 Y118.846
G0 X111.096 Y119.883
G0 X111.658 Y120.992
G0 X112.243 Y122.126
;TYPE:WALL-INNER
G1 F2700 E11.40387
G1 F1200 X112.016 Y121.854 E11.41566
G1 X111.961 Y121.786 E11.41857
G1 X111.685 Y121.404 E11.43424
G1 X111.648 Y121.347 E11.4365
G1 X111.396 Y120.933 E11.45262
G1 X111.369 Y120.884 E11.45448
G1 X111.15 Y120.453 E11.47056
G1 X111.083 Y120.299 E11.47615
G1 X110.939 Y119.949 E11.48874
G1 X110.909 Y119.868 E11.49161
G1 X110.77 Y119.439 E11.50661
G1 X110.636 Y118.888 E11.52547
G1 X110.621 Y118.808 E11.52818
G1 X110.548 Y118.342 E11.54386
G1 X110.539 Y118.258 E11.54667
G1 X110.508 Y117.87 E11.55962
G1 X110.503 Y117.791 E11.56225
G1 X110.5 Y117.709 E11.56498
G1 X110.499 Y117.336 E11.57739
G1 X110.505 Y117.167 E11.58301
G1 X110.535 Y116.778 E11.59599
G1 X110.542 Y116.709 E11.5983
G1 X110.614 Y116.229 E11.61444
G1 X110.629 Y116.145 E11.61728
G1 X110.736 Y115.689 E11.63286
G1 X110.754 Y115.623 E11.63513
G1 X110.895 Y115.173 E11.65082
G1 X110.928 Y115.083 E11.654
G1 X111.1 Y114.657 E11.66928
G1 X111.137 Y114.575 E11.67228
G1 X111.344 Y114.161 E11.68767
G1 X111.39 Y114.077 E11.69086
G1 X111.626 Y113.687 E11.70602
G1 X111.674 Y113.615 E11.7089
G1 X111.96 Y113.216 E11.72522
G1 X111.995 Y113.172 E11.72709
G1 X112.297 Y112.812 E11.74272
G1 X112.349 Y112.756 E11.74526
G1 X112.672 Y112.427 E11.7606
G1 X112.745 Y112.36 E11.76389
G1 X113.095 Y112.055 E11.77934
G1 X113.475 Y111.768 E11.79517
G1 X113.612 Y111.677 E11.80064
G1 X113.935 Y111.471 E11.81339
G1 X114.01 Y111.427 E11.81628
G1 X114.422 Y111.209 E11.83178
G1 X114.497 Y111.173 E11.83455
G1 X114.934 Y110.983 E11.8504
G1 X114.999 Y110.958 E11.85271
G1 X115.456 Y110.801 E11.86879
G1 X115.519 Y110.782 E11.87097
G1 X115.901 Y110.683 E11.8841
G1 X116.059 Y110.647 E11.88949
G1 X116.451 Y110.576 E11.90274
G1 X116.524 Y110.564 E11.9052
G1 X116.598 Y110.555 E11.90768
G1 X116.942 Y110.521 E11.91918
G1 X117.076 Y110.51 E11.92365
G1 X117.161 Y110.506 E11.92648
G1 X117.545 Y110.497 E11.93925
G1 X117.715 Y110.501 E11.94491
G1 X118.1 Y110.523 E11.95774
G1 X118.173 Y110.529 E11.96017
G1 X118.652 Y110.592 E11.97624
G1 X118.721 Y110.604 E11.97857
G1 X119.191 Y110.704 E11.99455
G1 X119.255 Y110.721 E11.99675
G1 X119.732 Y110.861 E12.01329
G1 X119.786 Y110.88 E12.01519
G1 X120.235 Y111.053 E12.0312
G1 X120.304 Y111.082 E12.03369
G1 X120.729 Y111.286 E12.04937
G1 X120.808 Y111.328 E12.05234
G1 X121.216 Y111.563 E12.068
G1 X121.667 Y111.871 E12.08617
G1 X121.729 Y111.918 E12.08875
G1 X122.084 Y112.206 E12.10396
G1 X122.148 Y112.264 E12.10683
G1 X122.466 Y112.562 E12.12133
G1 X122.549 Y112.649 E12.12533
G1 X122.778 Y112.9 E12.13663
G1 X122.885 Y113.022 E12.14202
G1 X123.162 Y113.377 E12.157
G1 X123.195 Y113.424 E12.15891
G1 X123.466 Y113.832 E12.1752
G1 X123.5 Y113.887 E12.17735
G1 X123.729 Y114.299 E12.19303
G1 X123.764 Y114.37 E12.19566
G1 X123.97 Y114.819 E12.21209
G1 X124.131 Y115.252 E12.22746
G1 X124.178 Y115.394 E12.23243
G1 X124.286 Y115.776 E12.24564
G1 X124.307 Y115.857 E12.24842
G1 X124.326 Y115.939 E12.25122
G1 X124.399 Y116.307 E12.2637
G1 X124.428 Y116.486 E12.26973
G1 X124.472 Y116.855 E12.28209
G1 X124.485 Y117.019 E12.28756
G1 X124.504 Y117.5 E12.30357
G1 X124.487 Y117.966 E12.31908
G1 X124.477 Y118.096 E12.32342
G1 X124.423 Y118.558 E12.33889
G1 X124.321 Y119.086 E12.35677
G1 X124.303 Y119.157 E12.35921
G1 X124.181 Y119.599 E12.37446
G1 X124.156 Y119.675 E12.37712
G1 X124.028 Y120.033 E12.38977
G1 X123.973 Y120.173 E12.39477
G1 X123.782 Y120.595 E12.41018
G1 X123.714 Y120.725 E12.41506
G1 X123.521 Y121.076 E12.42838
G1 X123.487 Y121.134 E12.43061
G1 X123.236 Y121.516 E12.44582
G1 X123.153 Y121.632 E12.45056
G1 X122.913 Y121.941 E12.46357
G1 X122.869 Y121.995 E12.46589
G1 X122.499 Y122.403 E12.48421
G1 X122.106 Y122.774 E12.50219
G1 X121.698 Y123.105 E12.51966
G1 X121.652 Y123.139 E12.52156
G1 X121.254 Y123.411 E12.5376
G1 X121.208 Y123.44 E12.5394
G1 X120.796 Y123.679 E12.55525
G1 X120.662 Y123.746 E12.56023
G1 X120.324 Y123.909 E12.57271
G1 X120.183 Y123.966 E12.57777
G1 X119.811 Y124.111 E12.59105
G1 X119.297 Y124.27 E12.60894
G1 X119.253 Y124.281 E12.61045
G1 X118.785 Y124.384 E12.62639
G1 X118.637 Y124.408 E12.63138
G1 X118.26 Y124.461 E12.64404
G1 X118.185 Y124.469 E12.64655
G1 X117.718 Y124.498 E12.66211
G1 X117.642 Y124.501 E12.66464
G1 X117.179 Y124.495 E12.68004
G1 X117.045 Y124.488 E12.6845
G1 X116.657 Y124.45 E12.69747
G1 X116.503 Y124.43 E12.70264
G1 X116.137 Y124.367 E12.71499
G1 X115.969 Y124.332 E12.7207
G1 X115.523 Y124.219 E12.736
G1 X115.01 Y124.045 E12.75402
G1 X114.53 Y123.841 E12.77136
G1 X114.457 Y123.807 E12.77404
G1 X114.049 Y123.593 E12.78936
G1 X113.993 Y123.561 E12.79151
G1 X113.598 Y123.314 E12.807
G1 X113.536 Y123.273 E12.80948
G1 X113.535 Y123.274 E12.80952
G1 X113.117 Y122.961 E12.82689
G1 X113.052 Y122.907 E12.8297
G1 X112.704 Y122.602 E12.84509
G1 X112.651 Y122.551 E12.84754
G1 X112.317 Y122.209 E12.86344
G1 X112.243 Y122.126 E12.86714
G0 F6000 X111.967 Y122.419
;TYPE:WALL-OUTER
G1 F1200 X111.709 Y122.11 E12.88053
G1 X111.65 Y122.037 E12.88365
G1 X111.597 Y121.967 E12.88657
G1 X111.36 Y121.638 E12.90005
G1 X111.313 Y121.566 E12.90291
G1 X111.054 Y121.141 E12.91947
G1 X111.012 Y121.065 E12.92236
G1 X110.787 Y120.622 E12.93888
G1 X110.716 Y120.459 E12.9448
G1 X110.562 Y120.084 E12.95828
G1 X110.533 Y120.003 E12.96114
G1 X110.382 Y119.539 E12.97737
G1 X110.244 Y118.973 E12.99675
G1 X110.227 Y118.879 E12.99992
G1 X110.15 Y118.385 E13.01655
G1 X110.141 Y118.301 E13.01936
G1 X110.109 Y117.902 E13.03268
G1 X110.103 Y117.806 E13.03587
G1 X110.1 Y117.724 E13.0386
G1 X110.099 Y117.321 E13.05201
G1 X110.106 Y117.136 E13.05817
G1 X110.137 Y116.738 E13.07144
G1 X110.146 Y116.649 E13.07442
G1 X110.22 Y116.159 E13.0909
G1 X110.235 Y116.075 E13.09374
G1 X110.35 Y115.585 E13.11048
G1 X110.372 Y115.503 E13.1133
G1 X110.519 Y115.035 E13.12962
G1 X110.552 Y114.945 E13.13281
G1 X110.735 Y114.492 E13.14906
G1 X110.772 Y114.41 E13.15205
G1 X110.993 Y113.969 E13.16845
G1 X111.039 Y113.885 E13.17164
G1 X111.293 Y113.465 E13.18797
G1 X111.341 Y113.393 E13.19084
G1 X111.635 Y112.983 E13.20762
G1 X111.688 Y112.915 E13.21049
G1 X111.944 Y112.609 E13.22376
G1 X112.003 Y112.541 E13.22676
G1 X112.063 Y112.476 E13.2297
G1 X112.409 Y112.123 E13.24614
G1 X112.41 Y112.124 E13.24618
G1 X112.476 Y112.064 E13.24915
G1 X112.784 Y111.795 E13.26275
G1 X112.783 Y111.794 E13.2628
G1 X112.85 Y111.739 E13.26568
G1 X112.921 Y111.684 E13.26867
G1 X113.239 Y111.445 E13.2819
G1 X113.397 Y111.34 E13.28821
G1 X113.733 Y111.126 E13.30146
G1 X113.808 Y111.082 E13.30435
G1 X114.246 Y110.85 E13.32084
G1 X114.332 Y110.808 E13.32402
G1 X114.779 Y110.614 E13.34023
G1 X114.869 Y110.58 E13.34343
G1 X115.331 Y110.421 E13.35968
G1 X115.415 Y110.396 E13.36259
G1 X115.812 Y110.293 E13.37623
G1 X115.982 Y110.254 E13.38204
G1 X116.381 Y110.183 E13.39552
G1 X116.476 Y110.167 E13.39872
G1 X116.558 Y110.157 E13.40147
G1 X116.908 Y110.122 E13.41317
G1 X117.049 Y110.11 E13.41787
G1 X117.144 Y110.106 E13.42104
G1 X117.545 Y110.097 E13.43438
G1 X117.724 Y110.101 E13.44033
G1 X118.132 Y110.124 E13.45392
G1 X118.218 Y110.131 E13.45679
G1 X118.704 Y110.195 E13.4731
G1 X118.79 Y110.21 E13.476
G1 X119.283 Y110.315 E13.49276
G1 X119.368 Y110.337 E13.49569
G1 X119.845 Y110.477 E13.51222
G1 X119.919 Y110.503 E13.51483
G1 X120.39 Y110.684 E13.53161
G1 X120.471 Y110.718 E13.53453
G1 X120.91 Y110.929 E13.55073
G1 X120.995 Y110.974 E13.55393
G1 X121.426 Y111.223 E13.57049
G1 X121.492 Y111.266 E13.57311
G1 X121.909 Y111.552 E13.58993
G1 X121.971 Y111.599 E13.59251
G1 X122.354 Y111.91 E13.60892
G1 X122.422 Y111.972 E13.61198
G1 X122.72 Y112.252 E13.62558
G1 X122.721 Y112.251 E13.62563
G1 X122.844 Y112.379 E13.63153
G1 X123.115 Y112.676 E13.64491
G1 X123.114 Y112.677 E13.64495
G1 X123.177 Y112.749 E13.64814
G1 X123.178 Y112.748 E13.64818
G1 X123.477 Y113.131 E13.66434
G1 X123.528 Y113.203 E13.66728
G1 X123.807 Y113.623 E13.68405
G1 X123.848 Y113.69 E13.68666
G1 X124.088 Y114.122 E13.7031
G1 X124.128 Y114.203 E13.7061
G1 X124.334 Y114.652 E13.72253
G1 X124.367 Y114.735 E13.7255
G1 X124.506 Y115.114 E13.73893
G1 X124.563 Y115.285 E13.74493
G1 X124.673 Y115.675 E13.7584
G1 X124.697 Y115.767 E13.76157
G1 X124.716 Y115.849 E13.76437
G1 X124.794 Y116.243 E13.77772
G1 X124.823 Y116.422 E13.78376
G1 X124.871 Y116.824 E13.79722
G1 X124.885 Y117.003 E13.80319
G1 X124.905 Y117.5 E13.81974
G1 X124.886 Y117.982 E13.83578
G1 X124.881 Y118.068 E13.83865
G1 X124.874 Y118.142 E13.84112
G1 X124.828 Y118.543 E13.85454
G1 X124.817 Y118.623 E13.85723
G1 X124.804 Y118.702 E13.85989
G1 X124.726 Y119.1 E13.87338
G1 X124.709 Y119.184 E13.87623
G1 X124.691 Y119.255 E13.87867
G1 X124.561 Y119.724 E13.89485
G1 X124.536 Y119.8 E13.89752
G1 X124.4 Y120.179 E13.91091
G1 X124.341 Y120.329 E13.91627
G1 X124.137 Y120.779 E13.9327
G1 X124.065 Y120.918 E13.93791
G1 X123.872 Y121.269 E13.95123
G1 X123.831 Y121.338 E13.9539
G1 X123.564 Y121.745 E13.97009
G1 X123.518 Y121.811 E13.97277
G1 X123.469 Y121.877 E13.9755
G1 X123.222 Y122.195 E13.98889
G1 X123.171 Y122.257 E13.99156
G1 X123.118 Y122.318 E13.99425
G1 X122.787 Y122.681 E14.01059
G1 X122.381 Y123.065 E14.02918
G1 X122.319 Y123.117 E14.03187
G1 X121.934 Y123.428 E14.04833
G1 X121.878 Y123.469 E14.05064
G1 X121.476 Y123.744 E14.06684
G1 X121.409 Y123.786 E14.06947
G1 X121.058 Y123.99 E14.08297
G1 X120.983 Y124.032 E14.08583
G1 X120.842 Y124.103 E14.09108
G1 X120.474 Y124.28 E14.10466
G1 X120.328 Y124.339 E14.1099
G1 X119.956 Y124.484 E14.12318
G1 X119.875 Y124.511 E14.12602
G1 X119.414 Y124.652 E14.14205
G1 X119.339 Y124.672 E14.14463
G1 X118.861 Y124.777 E14.16091
G1 X118.702 Y124.803 E14.16627
G1 X118.304 Y124.859 E14.17964
G1 X118.226 Y124.867 E14.18225
G1 X117.733 Y124.898 E14.19868
G1 X117.652 Y124.901 E14.20137
G1 X117.174 Y124.895 E14.21727
G1 X117.008 Y124.886 E14.2228
G1 X116.605 Y124.847 E14.23627
G1 X116.451 Y124.827 E14.24143
G1 X116.055 Y124.759 E14.2548
G1 X115.887 Y124.724 E14.2605
G1 X115.418 Y124.605 E14.2766
G1 X115.265 Y124.555 E14.28195
G1 X114.881 Y124.424 E14.29545
G1 X114.815 Y124.398 E14.2978
G1 X114.361 Y124.204 E14.31423
G1 X114.288 Y124.17 E14.3169
G1 X113.863 Y123.947 E14.33287
G1 X113.788 Y123.905 E14.33573
G1 X113.377 Y123.648 E14.35185
G1 X113.315 Y123.607 E14.35432
G1 X113.245 Y123.557 E14.35718
G1 X112.861 Y123.269 E14.37315
G1 X112.796 Y123.215 E14.37596
G1 X112.434 Y122.898 E14.39196
G1 X112.373 Y122.839 E14.39478
G1 X112.031 Y122.489 E14.41106
G1 X111.968 Y122.418 E14.41422
G1 X111.967 Y122.419 E14.41426
G0 F6000 X112.066 Y121.851
G0 X112.265 Y121.541
;TYPE:SKIN
G1 F1200 X112.007 Y121.184 E14.42891
G1 X111.978 Y121.139 E14.4307
G1 X111.734 Y120.738 E14.44631
G1 X111.711 Y120.696 E14.4479
G1 X111.502 Y120.285 E14.46324
G1 X111.44 Y120.143 E14.46839
G1 X111.3 Y119.801 E14.48068
G1 X111.278 Y119.74 E14.48284
G1 X111.143 Y119.325 E14.49735
G1 X111.022 Y118.825 E14.51446
G1 X111.005 Y118.736 E14.51748
G1 X110.934 Y118.282 E14.53276
G1 X110.927 Y118.217 E14.53493
G1 X110.902 Y117.918 E14.54491
G1 X110.89 Y117.695 E14.55234
G1 X110.889 Y117.35 E14.56382
G1 X110.895 Y117.181 E14.56944
G1 X110.923 Y116.817 E14.58158
G1 X110.928 Y116.767 E14.58325
G1 X110.998 Y116.297 E14.59906
G1 X111.009 Y116.234 E14.60119
G1 X111.112 Y115.792 E14.61628
G1 X111.126 Y115.74 E14.61807
G1 X111.261 Y115.307 E14.63316
G1 X111.301 Y115.198 E14.63702
G1 X111.455 Y114.817 E14.65069
G1 X111.486 Y114.749 E14.65317
G1 X111.693 Y114.335 E14.66857
G1 X111.724 Y114.279 E14.6707
G1 X111.956 Y113.896 E14.68559
G1 X111.986 Y113.851 E14.68739
G1 X112.266 Y113.459 E14.70341
G1 X112.584 Y113.077 E14.71994
G1 X112.628 Y113.029 E14.72211
G1 X112.951 Y112.7 E14.73744
G1 X113.001 Y112.654 E14.7397
G1 X113.331 Y112.367 E14.75425
G1 X113.707 Y112.083 E14.76992
G1 X113.822 Y112.006 E14.77452
G1 X114.14 Y111.804 E14.78706
G1 X114.201 Y111.768 E14.78941
G1 X114.599 Y111.557 E14.80439
G1 X114.667 Y111.524 E14.80691
G1 X115.082 Y111.344 E14.82195
G1 X115.133 Y111.325 E14.82376
G1 X115.591 Y111.167 E14.83988
G1 X115.999 Y111.061 E14.8539
G1 X116.129 Y111.031 E14.85834
G1 X116.556 Y110.954 E14.87277
G1 X116.645 Y110.943 E14.87575
G1 X116.981 Y110.909 E14.88698
G1 X117.094 Y110.9 E14.89075
G1 X117.179 Y110.896 E14.89358
G1 X117.545 Y110.887 E14.90576
G1 X117.693 Y110.891 E14.91068
G1 X118.131 Y110.916 E14.92528
G1 X118.584 Y110.976 E14.94047
G1 X118.639 Y110.986 E14.94233
G1 X119.123 Y111.089 E14.95879
G1 X119.603 Y111.229 E14.97542
G1 X119.651 Y111.246 E14.97711
G1 X120.116 Y111.425 E14.99369
G1 X120.546 Y111.631 E15.00955
G1 X120.619 Y111.67 E15.0123
G1 X121.013 Y111.896 E15.02741
G1 X121.44 Y112.188 E15.04461
G1 X121.483 Y112.221 E15.04641
G1 X121.838 Y112.509 E15.06162
G1 X122.199 Y112.847 E15.07807
G1 X122.488 Y113.16 E15.09224
G1 X122.487 Y113.161 E15.09228
G1 X122.584 Y113.271 E15.09716
G1 X122.842 Y113.601 E15.11109
G1 X122.872 Y113.644 E15.11284
G1 X123.159 Y114.076 E15.13009
G1 X123.383 Y114.48 E15.14545
G1 X123.409 Y114.532 E15.14738
G1 X123.615 Y114.981 E15.16382
G1 X123.761 Y115.375 E15.17779
G1 X123.805 Y115.509 E15.18248
G1 X123.9 Y115.844 E15.19406
G1 X123.927 Y115.946 E15.19757
G1 X123.945 Y116.022 E15.20017
G1 X124.014 Y116.37 E15.21197
G1 X124.039 Y116.525 E15.21719
G1 X124.088 Y116.936 E15.23096
G1 X124.095 Y117.035 E15.23426
G1 X124.114 Y117.5 E15.24974
G1 X124.097 Y117.946 E15.26458
G1 X124.09 Y118.043 E15.26782
G1 X124.037 Y118.499 E15.28309
G1 X123.94 Y119.001 E15.30009
G1 X123.927 Y119.053 E15.30187
G1 X123.807 Y119.488 E15.31688
G1 X123.789 Y119.544 E15.31884
G1 X123.665 Y119.891 E15.3311
G1 X123.618 Y120.013 E15.33544
G1 X123.436 Y120.414 E15.35009
G1 X123.372 Y120.538 E15.35473
G1 X123.197 Y120.857 E15.36683
G1 X123.155 Y120.929 E15.36961
G1 X122.918 Y121.289 E15.38394
G1 X122.84 Y121.398 E15.3884
G1 X122.58 Y121.733 E15.4025
G1 X122.214 Y122.137 E15.42064
G1 X121.86 Y122.471 E15.43682
G1 X121.459 Y122.796 E15.45399
G1 X121.42 Y122.825 E15.45561
G1 X121.046 Y123.081 E15.47068
G1 X121 Y123.11 E15.47249
G1 X120.616 Y123.332 E15.48724
G1 X120.489 Y123.396 E15.49197
G1 X120.158 Y123.556 E15.5042
G1 X119.69 Y123.74 E15.52093
G1 X119.163 Y123.902 E15.53926
G1 X118.709 Y124.001 E15.55472
G1 X118.579 Y124.023 E15.5591
G1 X118.219 Y124.073 E15.57119
G1 X118.161 Y124.079 E15.57313
G1 X117.632 Y124.111 E15.59076
G1 X117.199 Y124.105 E15.60516
G1 X117.065 Y124.098 E15.60962
G1 X116.694 Y124.062 E15.62202
G1 X116.568 Y124.046 E15.62625
G1 X116.217 Y123.985 E15.6381
G1 X116.049 Y123.95 E15.6438
G1 X115.628 Y123.843 E15.65825
G1 X115.152 Y123.682 E15.67496
G1 X114.682 Y123.482 E15.69195
G1 X114.63 Y123.458 E15.69386
G1 X114.242 Y123.254 E15.70844
G1 X114.2 Y123.23 E15.71005
G1 X113.74 Y122.941 E15.72811
G1 X113.359 Y122.655 E15.74396
G1 X113.305 Y122.61 E15.7463
G1 X112.975 Y122.321 E15.76089
G1 X112.922 Y122.27 E15.76333
G1 X112.596 Y121.936 E15.77886
G1 X112.543 Y121.876 E15.78152
G1 X112.265 Y121.541 E15.796
G0 F6000 X112.037 Y121.704
G0 X113.27 Y122.938
G0 X113.535 Y122.586
G1 F1200 X112.386 Y121.437 E15.85004
G0 F6000 X112.029 Y121.693
G0 X111.222 Y120.298
G0 X111.58 Y120.066
G1 F1200 X114.924 Y123.409 E16.00731
G0 F6000 X115.8 Y123.72
G1 F1200 X111.275 Y119.194 E16.22018
G0 F6000 X111.126 Y118.48
G1 F1200 X116.52 Y123.874 E16.4739
G0 F6000 X117.152 Y123.94
G1 F1200 X111.058 Y117.846 E16.76054
G0 F6000 X111.051 Y117.273
G1 F1200 X117.721 Y123.943 E17.07427
G0 F6000 X118.249 Y123.906
G1 F1200 X111.092 Y116.748 E17.41094
G0 F6000 X111.167 Y116.258
G1 F1200 X118.738 Y123.829 E17.76706
G0 F6000 X119.197 Y123.723
G1 F1200 X111.274 Y115.8 E18.13973
G0 F6000 X111.408 Y115.368
G1 F1200 X119.63 Y123.59 E18.52647
G0 F6000 X120.036 Y123.43
G1 F1200 X111.568 Y114.962 E18.92478
G0 F6000 X111.749 Y114.578
G1 F1200 X120.42 Y123.249 E19.33264
G0 F6000 X120.785 Y123.047
G1 F1200 X111.949 Y114.212 E19.74823
G0 F6000 X112.169 Y113.866
G1 F1200 X121.13 Y122.827 E20.16973
G0 F6000 X121.458 Y122.589
G1 F1200 X112.407 Y113.538 E20.59546
G0 F6000 X112.664 Y113.23
G1 F1200 X121.77 Y122.335 E21.02375
G0 F6000 X122.061 Y122.061
G1 F1200 X112.939 Y112.939 E21.45283
G0 F6000 X113.231 Y112.665
G1 F1200 X122.333 Y121.768 E21.88098
G0 F6000 X122.59 Y121.459
G1 F1200 X113.54 Y112.409 E22.30666
G0 F6000 X113.866 Y112.169
G1 F1200 X122.829 Y121.132 E22.72826
G0 F6000 X123.052 Y120.789
G1 F1200 X114.211 Y111.948 E23.14411
G0 F6000 X114.577 Y111.749
G1 F1200 X123.252 Y120.424 E23.55215
G0 F6000 X123.431 Y120.037
G1 F1200 X114.964 Y111.57 E23.95042
G0 F6000 X115.371 Y111.411
G1 F1200 X123.588 Y119.629 E24.33694
G0 F6000 X123.721 Y119.195
G1 F1200 X115.803 Y111.278 E24.70936
G0 F6000 X116.261 Y111.169
G1 F1200 X123.828 Y118.737 E25.06531
G0 F6000 X123.904 Y118.248
G1 F1200 X116.75 Y111.093 E25.40183
G0 F6000 X117.276 Y111.053
G1 F1200 X123.945 Y117.722 E25.71552
G0 F6000 X123.938 Y117.15
G1 F1200 X117.849 Y111.061 E26.00193
G0 F6000 X118.477 Y111.123
G1 F1200 X123.876 Y116.522 E26.25588
G0 F6000 X123.721 Y115.801
G1 F1200 X119.196 Y111.277 E26.4687
G0 F6000 X120.061 Y111.576
G1 F1200 X123.415 Y114.93 E26.62646
G0 F6000 X123.815 Y114.748
G0 X122.935 Y113.267
G0 X122.588 Y113.537
G1 F1200 X121.459 Y112.408 E26.67957
G0 F6000 X121.68 Y112.136
;MESH:NONMESH
G0 F300 X121.68 Y112.136 Z0.6
G0 F6000 X121.737 Y112.067
G0 X123.022 Y113.475
G0 X123.609 Y114.441
G0 X124.121 Y115.819
G0 X124.314 Y117.025
G0 X124.294 Y118.101
G0 X124.131 Y119.081
G0 X123.818 Y120.101
G0 X123.097 Y121.416
G0 X122.375 Y122.285
G0 X121.562 Y122.989
G0 X120.585 Y123.593
G0 X119.473 Y124.015
G0 X117.421 Y124.599
G0 X117.419 Y124.719
;TIME_ELAPSED:48.992504
;LAYER:1
M106 S85
;TYPE:WALL-INNER
;MESH:Vase v1.stl
G1 F1350 X117.379 Y124.716 E26.68224
G1 X117.141 Y124.71 E26.69807
G1 X116.886 Y124.693 E26.71508
G1 X116.849 Y124.688 E26.71756
G1 X116.624 Y124.667 E26.73259
G1 X116.356 Y124.628 E26.75061
G1 X116.105 Y124.583 E26.76757
G1 X116.061 Y124.572 E26.77059
G1 X115.832 Y124.524 E26.78615
G1 X115.801 Y124.515 E26.7883
G1 X115.578 Y124.459 E26.80359
G1 X115.315 Y124.381 E26.82184
G1 X115.078 Y124.302 E26.83846
G1 X115.046 Y124.287 E26.84081
G1 X114.814 Y124.201 E26.85727
G1 X114.581 Y124.104 E26.87406
G1 X114.546 Y124.086 E26.87667
G1 X114.33 Y123.987 E26.89248
G1 X114.1 Y123.869 E26.90968
G1 X114.071 Y123.851 E26.91195
G1 X113.859 Y123.734 E26.92805
G1 X113.649 Y123.607 E26.94438
G1 X113.41 Y123.448 E26.96347
G1 X113.19 Y123.291 E26.98145
G1 X112.999 Y123.146 E26.9974
G1 X112.966 Y123.116 E27.00037
G1 X112.788 Y122.972 E27.0156
G1 X112.761 Y122.946 E27.01809
G1 X112.589 Y122.792 E27.03345
G1 X112.565 Y122.767 E27.03576
G1 X112.401 Y122.612 E27.05077
G1 X112.372 Y122.579 E27.05369
G1 X112.198 Y122.4 E27.0703
G1 X112.169 Y122.365 E27.07332
G1 X111.984 Y122.158 E27.09179
G1 X111.817 Y121.953 E27.10938
G1 X111.641 Y121.72 E27.1288
G1 X111.61 Y121.673 E27.13255
G1 X111.455 Y121.449 E27.15067
G1 X111.315 Y121.227 E27.16812
G1 X111.288 Y121.176 E27.17196
G1 X111.159 Y120.953 E27.1891
G1 X111.023 Y120.691 E27.20874
G1 X110.905 Y120.438 E27.22731
G1 X110.785 Y120.152 E27.24794
G1 X110.681 Y119.873 E27.26774
G1 X110.591 Y119.595 E27.28718
G1 X110.517 Y119.334 E27.30523
G1 X110.503 Y119.27 E27.30959
G1 X110.444 Y119.035 E27.3257
G1 X110.436 Y118.985 E27.32907
G1 X110.385 Y118.729 E27.34644
G1 X110.34 Y118.431 E27.36648
G1 X110.309 Y118.153 E27.38509
G1 X110.289 Y117.858 E27.40476
G1 X110.289 Y117.817 E27.40749
G1 X110.28 Y117.57 E27.42393
G1 X110.282 Y117.519 E27.42732
G1 X110.284 Y117.259 E27.44462
G1 X110.287 Y117.226 E27.44682
G1 X110.3 Y116.965 E27.46421
G1 X110.305 Y116.934 E27.4663
G1 X110.327 Y116.678 E27.48339
G1 X110.369 Y116.376 E27.50367
G1 X110.418 Y116.094 E27.52271
G1 X110.478 Y115.82 E27.54137
G1 X110.493 Y115.771 E27.54478
G1 X110.562 Y115.5 E27.56338
G1 X110.635 Y115.261 E27.58
G1 X110.658 Y115.2 E27.58434
G1 X110.748 Y114.943 E27.60245
G1 X110.847 Y114.692 E27.6204
G1 X110.866 Y114.654 E27.62323
G1 X110.973 Y114.413 E27.64077
G1 X110.992 Y114.379 E27.64336
G1 X111.101 Y114.155 E27.65993
G1 X111.249 Y113.889 E27.68018
G1 X111.388 Y113.655 E27.69828
G1 X111.423 Y113.606 E27.70229
G1 X111.559 Y113.395 E27.71899
G1 X111.733 Y113.154 E27.73876
G1 X111.757 Y113.127 E27.74116
G1 X111.922 Y112.915 E27.75903
G1 X112.113 Y112.693 E27.77852
G1 X112.307 Y112.484 E27.79748
G1 X112.341 Y112.453 E27.80054
G1 X112.52 Y112.272 E27.81748
G1 X112.733 Y112.077 E27.83669
G1 X112.769 Y112.049 E27.83972
G1 X112.958 Y111.888 E27.85624
G1 X112.999 Y111.858 E27.85962
G1 X113.192 Y111.705 E27.876
G1 X113.227 Y111.683 E27.87875
G1 X113.427 Y111.538 E27.89518
G1 X113.686 Y111.369 E27.91575
G1 X113.923 Y111.227 E27.93413
G1 X113.973 Y111.202 E27.93785
G1 X114.213 Y111.072 E27.95601
G1 X114.471 Y110.945 E27.97514
G1 X114.724 Y110.834 E27.99352
G1 X114.771 Y110.817 E27.99684
G1 X115.008 Y110.724 E28.01378
G1 X115.295 Y110.624 E28.03399
G1 X115.556 Y110.546 E28.05211
G1 X115.861 Y110.469 E28.07304
G1 X115.899 Y110.462 E28.07561
G1 X116.159 Y110.405 E28.09331
G1 X116.433 Y110.359 E28.1118
G1 X116.733 Y110.321 E28.13191
G1 X116.99 Y110.298 E28.14908
G1 X117.325 Y110.282 E28.17139
G1 X117.361 Y110.283 E28.17378
G1 X117.615 Y110.281 E28.19068
G1 X117.659 Y110.284 E28.19361
G1 X117.911 Y110.292 E28.21038
G1 X117.952 Y110.296 E28.21312
G1 X118.199 Y110.313 E28.22959
G1 X118.504 Y110.35 E28.25003
G1 X118.539 Y110.357 E28.2524
G1 X118.789 Y110.396 E28.26924
G1 X119.081 Y110.456 E28.28907
G1 X119.12 Y110.467 E28.29176
G1 X119.367 Y110.526 E28.30865
G1 X119.65 Y110.607 E28.32823
G1 X119.929 Y110.701 E28.34782
G1 X120.219 Y110.812 E28.36847
G1 X120.477 Y110.922 E28.38713
G1 X120.732 Y111.044 E28.40594
G1 X120.781 Y111.071 E28.40966
G1 X120.994 Y111.182 E28.42563
G1 X121.038 Y111.209 E28.42907
G1 X121.25 Y111.33 E28.44531
G1 X121.505 Y111.492 E28.4654
G1 X121.54 Y111.518 E28.4683
G1 X121.74 Y111.657 E28.4845
G1 X121.98 Y111.839 E28.50454
G1 X122.226 Y112.042 E28.52576
G1 X122.438 Y112.233 E28.54474
G1 X122.461 Y112.257 E28.54695
G1 X122.648 Y112.437 E28.56422
G1 X122.671 Y112.463 E28.56652
G1 X122.848 Y112.649 E28.5836
G1 X122.874 Y112.681 E28.58635
G1 X123.036 Y112.864 E28.6026
G1 X123.226 Y113.101 E28.62281
G1 X123.403 Y113.342 E28.6427
G1 X123.555 Y113.567 E28.66076
G1 X123.725 Y113.843 E28.68233
G1 X123.865 Y114.093 E28.70139
G1 X123.992 Y114.341 E28.71992
G1 X124.122 Y114.625 E28.7407
G1 X124.137 Y114.664 E28.74348
G1 X124.236 Y114.901 E28.76056
G1 X124.247 Y114.935 E28.76294
G1 X124.339 Y115.186 E28.78072
G1 X124.347 Y115.217 E28.78285
G1 X124.421 Y115.445 E28.7988
G1 X124.502 Y115.74 E28.81915
G1 X124.509 Y115.779 E28.82178
G1 X124.569 Y116.032 E28.83908
G1 X124.575 Y116.07 E28.84164
G1 X124.62 Y116.307 E28.85769
G1 X124.663 Y116.601 E28.87745
G1 X124.694 Y116.904 E28.89771
G1 X124.713 Y117.202 E28.91758
G1 X124.721 Y117.491 E28.93681
G1 X124.719 Y117.618 E28.94526
G1 X124.701 Y118.023 E28.97222
G1 X124.677 Y118.288 E28.98992
G1 X124.671 Y118.324 E28.99235
G1 X124.641 Y118.565 E29.00851
G1 X124.6 Y118.806 E29.02477
G1 X124.589 Y118.854 E29.02804
G1 X124.547 Y119.07 E29.04268
G1 X124.483 Y119.334 E29.06075
G1 X124.471 Y119.371 E29.06334
G1 X124.41 Y119.591 E29.07853
G1 X124.397 Y119.625 E29.08095
G1 X124.328 Y119.846 E29.09635
G1 X124.316 Y119.876 E29.0985
G1 X124.243 Y120.081 E29.11297
G1 X124.222 Y120.128 E29.1164
G1 X124.14 Y120.334 E29.13115
G1 X124.034 Y120.57 E29.14836
G1 X124.011 Y120.614 E29.15166
G1 X123.915 Y120.812 E29.1663
G1 X123.891 Y120.854 E29.16951
G1 X123.785 Y121.054 E29.18457
G1 X123.763 Y121.088 E29.18726
G1 X123.648 Y121.287 E29.20255
G1 X123.631 Y121.31 E29.20446
G1 X123.508 Y121.505 E29.21979
G1 X123.484 Y121.535 E29.22235
G1 X123.358 Y121.721 E29.23729
G1 X123.2 Y121.932 E29.25483
G1 X123.022 Y122.15 E29.27355
G1 X122.856 Y122.341 E29.29038
G1 X122.668 Y122.541 E29.30864
G1 X122.488 Y122.72 E29.32553
G1 X122.454 Y122.749 E29.3285
G1 X122.281 Y122.908 E29.34413
G1 X122.256 Y122.928 E29.34626
G1 X122.084 Y123.078 E29.36144
G1 X122.056 Y123.097 E29.36369
G1 X121.884 Y123.238 E29.37849
G1 X121.852 Y123.258 E29.381
G1 X121.653 Y123.405 E29.39745
G1 X121.44 Y123.549 E29.41456
G1 X121.214 Y123.691 E29.43231
G1 X121.185 Y123.706 E29.43448
G1 X120.987 Y123.822 E29.44975
G1 X120.96 Y123.834 E29.45171
G1 X120.734 Y123.953 E29.4687
G1 X120.515 Y124.059 E29.48489
G1 X120.474 Y124.076 E29.48784
G1 X120.28 Y124.163 E29.50198
G1 X120.008 Y124.269 E29.5214
G1 X119.781 Y124.35 E29.53744
G1 X119.732 Y124.364 E29.54083
G1 X119.524 Y124.43 E29.55534
G1 X119.48 Y124.44 E29.55834
G1 X119.267 Y124.501 E29.57308
G1 X119.226 Y124.508 E29.57585
G1 X118.989 Y124.565 E29.59206
G1 X118.733 Y124.613 E29.60939
G1 X118.476 Y124.653 E29.62669
G1 X118.437 Y124.656 E29.62929
G1 X118.215 Y124.684 E29.64418
G1 X118.172 Y124.686 E29.64704
G1 X117.96 Y124.705 E29.6612
G1 X117.909 Y124.706 E29.66459
G1 X117.677 Y124.717 E29.68004
G1 X117.644 Y124.716 E29.68224
G1 X117.419 Y124.719 E29.69721
G0 F7500 X117.411 Y125.119
;TYPE:WALL-OUTER
G1 F1350 X117.362 Y125.116 E29.70047
G1 X117.128 Y125.11 E29.71604
G1 X116.844 Y125.091 E29.73498
G1 X116.802 Y125.085 E29.7378
G1 X116.567 Y125.063 E29.7535
G1 X116.294 Y125.023 E29.77185
G1 X116.017 Y124.974 E29.79057
G1 X115.97 Y124.962 E29.79379
G1 X115.734 Y124.912 E29.80984
G1 X115.696 Y124.901 E29.81247
G1 X115.47 Y124.844 E29.82798
G1 X115.202 Y124.765 E29.84656
G1 X114.928 Y124.673 E29.86579
G1 X114.893 Y124.657 E29.86835
G1 X114.669 Y124.574 E29.88424
G1 X114.413 Y124.467 E29.9027
G1 X114.372 Y124.446 E29.90576
G1 X114.164 Y124.351 E29.92097
G1 X113.904 Y124.218 E29.9404
G1 X113.87 Y124.197 E29.94306
G1 X113.666 Y124.085 E29.95854
G1 X113.427 Y123.94 E29.97713
G1 X113.188 Y123.781 E29.99623
G1 X112.958 Y123.617 E30.01502
G1 X112.74 Y123.451 E30.03325
G1 X112.705 Y123.419 E30.0364
G1 X112.517 Y123.266 E30.05252
G1 X112.489 Y123.239 E30.05511
G1 X112.31 Y123.079 E30.07108
G1 X112.283 Y123.051 E30.07367
G1 X112.108 Y122.885 E30.08972
G1 X112.078 Y122.851 E30.09273
G1 X111.9 Y122.668 E30.10971
G1 X111.865 Y122.625 E30.1134
G1 X111.686 Y122.425 E30.13126
G1 X111.498 Y122.194 E30.15107
G1 X111.31 Y121.945 E30.17182
G1 X111.278 Y121.896 E30.17572
G1 X111.126 Y121.677 E30.19345
G1 X110.968 Y121.425 E30.21323
G1 X110.939 Y121.372 E30.21725
G1 X110.806 Y121.142 E30.23493
G1 X110.668 Y120.875 E30.25492
G1 X110.536 Y120.593 E30.27563
G1 X110.416 Y120.307 E30.29626
G1 X110.306 Y120.013 E30.31714
G1 X110.29 Y119.96 E30.32083
G1 X110.207 Y119.708 E30.33848
G1 X110.196 Y119.664 E30.34149
G1 X110.126 Y119.42 E30.35838
G1 X110.113 Y119.361 E30.3624
G1 X110.053 Y119.117 E30.37911
G1 X110.043 Y119.058 E30.38309
G1 X109.993 Y118.807 E30.40012
G1 X109.945 Y118.491 E30.42138
G1 X109.91 Y118.181 E30.44213
G1 X109.889 Y117.87 E30.46287
G1 X109.889 Y117.824 E30.46593
G1 X109.88 Y117.571 E30.48277
G1 X109.882 Y117.511 E30.48676
G1 X109.884 Y117.245 E30.50445
G1 X109.888 Y117.199 E30.50753
G1 X109.901 Y116.934 E30.52517
G1 X109.907 Y116.89 E30.52813
G1 X109.929 Y116.629 E30.54555
G1 X109.938 Y116.579 E30.54893
G1 X109.972 Y116.323 E30.56611
G1 X110.027 Y116.007 E30.58745
G1 X110.038 Y115.964 E30.5904
G1 X110.092 Y115.713 E30.60748
G1 X110.108 Y115.662 E30.61103
G1 X110.174 Y115.402 E30.62888
G1 X110.261 Y115.118 E30.64864
G1 X110.282 Y115.063 E30.65255
G1 X110.37 Y114.811 E30.67031
G1 X110.481 Y114.529 E30.69047
G1 X110.505 Y114.482 E30.69398
G1 X110.614 Y114.237 E30.71181
G1 X110.636 Y114.196 E30.71491
G1 X110.75 Y113.963 E30.73217
G1 X110.775 Y113.92 E30.73547
G1 X110.898 Y113.696 E30.75247
G1 X111.056 Y113.432 E30.77294
G1 X111.091 Y113.382 E30.777
G1 X111.229 Y113.17 E30.79383
G1 X111.42 Y112.905 E30.81556
G1 X111.449 Y112.872 E30.81848
G1 X111.613 Y112.661 E30.83625
G1 X111.81 Y112.432 E30.85635
G1 X112.023 Y112.203 E30.87715
G1 X112.061 Y112.167 E30.88063
G1 X112.25 Y111.976 E30.89851
G1 X112.284 Y111.947 E30.90148
G1 X112.474 Y111.772 E30.91866
G1 X112.514 Y111.74 E30.92207
G1 X112.707 Y111.576 E30.93892
G1 X112.756 Y111.54 E30.94296
G1 X112.958 Y111.38 E30.96011
G1 X113.002 Y111.352 E30.96358
G1 X113.208 Y111.203 E30.98049
G1 X113.467 Y111.034 E31.00106
G1 X113.738 Y110.872 E31.02206
G1 X113.788 Y110.847 E31.02578
G1 X114.022 Y110.72 E31.04349
G1 X114.303 Y110.582 E31.06432
G1 X114.572 Y110.464 E31.08386
G1 X114.63 Y110.443 E31.08796
G1 X114.871 Y110.348 E31.10519
G1 X115.168 Y110.245 E31.1261
G1 X115.458 Y110.158 E31.14624
G1 X115.771 Y110.079 E31.16772
G1 X115.819 Y110.07 E31.17096
G1 X116.073 Y110.014 E31.18827
G1 X116.383 Y109.962 E31.20918
G1 X116.683 Y109.924 E31.22929
G1 X116.971 Y109.898 E31.24853
G1 X117.313 Y109.882 E31.2713
G1 X117.363 Y109.883 E31.27463
G1 X117.62 Y109.881 E31.29172
G1 X117.676 Y109.884 E31.29545
G1 X117.933 Y109.892 E31.31256
G1 X117.985 Y109.897 E31.31603
G1 X118.238 Y109.915 E31.33291
G1 X118.557 Y109.954 E31.35428
G1 X118.606 Y109.963 E31.3576
G1 X118.87 Y110.004 E31.37537
G1 X119.162 Y110.064 E31.3952
G1 X119.218 Y110.079 E31.39906
G1 X119.473 Y110.14 E31.4165
G1 X119.521 Y110.155 E31.41984
G1 X119.773 Y110.226 E31.43726
G1 X119.82 Y110.243 E31.44058
G1 X120.072 Y110.327 E31.45825
G1 X120.362 Y110.438 E31.47891
G1 X120.65 Y110.561 E31.49974
G1 X120.919 Y110.69 E31.51959
G1 X120.97 Y110.718 E31.52346
G1 X121.193 Y110.834 E31.54018
G1 X121.244 Y110.866 E31.54418
G1 X121.468 Y110.994 E31.56134
G1 X121.513 Y111.024 E31.56494
G1 X121.731 Y111.161 E31.58207
G1 X121.774 Y111.193 E31.58563
G1 X121.982 Y111.338 E31.6025
G1 X122.235 Y111.53 E31.62363
G1 X122.481 Y111.733 E31.64484
G1 X122.713 Y111.942 E31.66562
G1 X122.744 Y111.974 E31.66858
G1 X122.936 Y112.159 E31.68631
G1 X122.966 Y112.193 E31.68933
G1 X123.149 Y112.386 E31.70702
G1 X123.178 Y112.421 E31.71005
G1 X123.348 Y112.614 E31.72716
G1 X123.548 Y112.864 E31.74845
G1 X123.725 Y113.105 E31.76834
G1 X123.9 Y113.364 E31.78914
G1 X123.93 Y113.415 E31.79307
G1 X124.065 Y113.632 E31.81007
G1 X124.221 Y113.911 E31.83134
G1 X124.36 Y114.183 E31.85165
G1 X124.381 Y114.232 E31.8552
G1 X124.49 Y114.466 E31.87237
G1 X124.509 Y114.516 E31.87593
G1 X124.611 Y114.761 E31.89358
G1 X124.625 Y114.804 E31.89659
G1 X124.717 Y115.055 E31.91437
G1 X124.73 Y115.1 E31.91749
G1 X124.807 Y115.339 E31.93419
G1 X124.893 Y115.653 E31.95585
G1 X124.901 Y115.697 E31.95883
G1 X124.962 Y115.957 E31.97659
G1 X124.969 Y116.002 E31.97962
G1 X125.016 Y116.249 E31.99634
G1 X125.061 Y116.556 E32.01698
G1 X125.066 Y116.617 E32.02106
G1 X125.094 Y116.875 E32.03832
G1 X125.096 Y116.927 E32.04178
G1 X125.113 Y117.192 E32.05944
G1 X125.121 Y117.497 E32.07974
G1 X125.119 Y117.636 E32.08899
G1 X125.1 Y118.052 E32.11669
G1 X125.094 Y118.106 E32.1203
G1 X125.075 Y118.339 E32.13585
G1 X125.067 Y118.384 E32.13889
G1 X125.038 Y118.615 E32.15438
G1 X124.992 Y118.887 E32.17273
G1 X124.98 Y118.938 E32.17622
G1 X124.937 Y119.162 E32.19139
G1 X124.923 Y119.213 E32.19491
G1 X124.868 Y119.442 E32.21057
G1 X124.855 Y119.484 E32.2135
G1 X124.793 Y119.708 E32.22896
G1 X124.776 Y119.754 E32.23222
G1 X124.705 Y119.982 E32.24811
G1 X124.689 Y120.02 E32.25085
G1 X124.613 Y120.235 E32.26602
G1 X124.591 Y120.284 E32.26959
G1 X124.508 Y120.493 E32.28455
G1 X124.485 Y120.541 E32.28809
G1 X124.393 Y120.748 E32.30316
G1 X124.367 Y120.796 E32.30679
G1 X124.268 Y121.001 E32.32193
G1 X124.241 Y121.048 E32.32554
G1 X124.131 Y121.255 E32.34113
G1 X124.106 Y121.295 E32.34427
G1 X123.988 Y121.498 E32.35989
G1 X123.963 Y121.533 E32.36275
G1 X123.837 Y121.732 E32.37842
G1 X123.809 Y121.769 E32.38151
G1 X123.678 Y121.961 E32.39697
G1 X123.51 Y122.185 E32.41559
G1 X123.332 Y122.403 E32.43431
G1 X123.148 Y122.615 E32.45299
G1 X122.951 Y122.825 E32.47214
G1 X122.922 Y122.852 E32.47478
G1 X122.761 Y123.013 E32.48992
G1 X122.72 Y123.048 E32.49351
G1 X122.546 Y123.209 E32.50928
G1 X122.512 Y123.236 E32.51217
G1 X122.335 Y123.39 E32.52777
G1 X122.298 Y123.416 E32.53078
G1 X122.118 Y123.563 E32.54624
G1 X122.079 Y123.588 E32.54932
G1 X121.891 Y123.727 E32.56487
G1 X121.653 Y123.888 E32.58399
G1 X121.615 Y123.91 E32.58691
G1 X121.413 Y124.038 E32.60282
G1 X121.378 Y124.056 E32.60543
G1 X121.171 Y124.178 E32.62142
G1 X121.135 Y124.194 E32.62404
G1 X120.921 Y124.307 E32.64014
G1 X120.673 Y124.427 E32.65846
G1 X120.631 Y124.444 E32.66148
G1 X120.426 Y124.536 E32.67642
G1 X120.152 Y124.643 E32.69599
G1 X120.111 Y124.656 E32.69885
G1 X119.9 Y124.732 E32.71377
G1 X119.847 Y124.747 E32.71743
G1 X119.619 Y124.819 E32.73334
G1 X119.578 Y124.828 E32.73613
G1 X119.358 Y124.891 E32.75135
G1 X119.308 Y124.9 E32.75473
G1 X119.074 Y124.956 E32.77074
G1 X118.807 Y125.006 E32.78881
G1 X118.523 Y125.05 E32.80793
G1 X118.48 Y125.054 E32.8108
G1 X118.255 Y125.082 E32.82588
G1 X118.201 Y125.085 E32.82948
G1 X117.974 Y125.105 E32.84464
G1 X117.922 Y125.106 E32.8481
G1 X117.688 Y125.117 E32.86368
G1 X117.642 Y125.116 E32.86674
G1 X117.411 Y125.119 E32.88211
G0 F7500 X117.421 Y124.68
G0 X117.428 Y124.329
;TYPE:SKIN
G1 F1350 X117.4 Y124.326 E32.88398
G1 X117.167 Y124.32 E32.89949
G1 X116.916 Y124.303 E32.91622
G1 X116.895 Y124.3 E32.91763
G1 X116.678 Y124.281 E32.93212
G1 X116.413 Y124.242 E32.94994
G1 X116.192 Y124.202 E32.96488
G1 X115.916 Y124.143 E32.98365
G1 X115.689 Y124.085 E32.99924
G1 X115.426 Y124.007 E33.01749
G1 X115.22 Y123.938 E33.03194
G1 X115.196 Y123.927 E33.0337
G1 X114.95 Y123.835 E33.05117
G1 X114.746 Y123.75 E33.06587
G1 X114.717 Y123.735 E33.06804
G1 X114.492 Y123.632 E33.0845
G1 X114.293 Y123.53 E33.09937
G1 X114.27 Y123.515 E33.1012
G1 X114.054 Y123.396 E33.11761
G1 X113.875 Y123.288 E33.13151
G1 X113.631 Y123.126 E33.151
G1 X113.416 Y122.973 E33.16855
G1 X113.25 Y122.848 E33.18237
G1 X113.22 Y122.82 E33.1851
G1 X113.052 Y122.684 E33.19948
G1 X112.867 Y122.518 E33.21601
G1 X112.684 Y122.344 E33.23281
G1 X112.66 Y122.315 E33.23532
G1 X112.493 Y122.144 E33.25121
G1 X112.275 Y121.898 E33.27308
G1 X112.154 Y121.75 E33.2858
G1 X111.953 Y121.484 E33.30797
G1 X111.785 Y121.241 E33.32763
G1 X111.652 Y121.03 E33.34422
G1 X111.629 Y120.986 E33.34752
G1 X111.506 Y120.773 E33.36388
G1 X111.369 Y120.511 E33.38355
G1 X111.258 Y120.273 E33.40102
G1 X111.144 Y120.001 E33.42064
G1 X111.049 Y119.745 E33.4388
G1 X110.962 Y119.475 E33.45767
G1 X110.892 Y119.227 E33.47481
G1 X110.883 Y119.182 E33.47786
G1 X110.825 Y118.95 E33.49377
G1 X110.82 Y118.918 E33.49593
G1 X110.771 Y118.671 E33.51268
G1 X110.726 Y118.373 E33.53272
G1 X110.697 Y118.11 E33.55033
G1 X110.679 Y117.831 E33.56892
G1 X110.67 Y117.57 E33.5863
G1 X110.672 Y117.529 E33.58903
G1 X110.674 Y117.278 E33.60572
G1 X110.69 Y117.001 E33.62418
G1 X110.693 Y116.983 E33.62539
G1 X110.713 Y116.732 E33.64214
G1 X110.753 Y116.442 E33.66162
G1 X110.799 Y116.177 E33.67951
G1 X110.855 Y115.919 E33.69707
G1 X110.869 Y115.877 E33.70001
G1 X110.938 Y115.604 E33.71875
G1 X111 Y115.399 E33.73299
G1 X111.025 Y115.333 E33.73769
G1 X111.114 Y115.078 E33.75565
G1 X111.202 Y114.852 E33.77179
G1 X111.218 Y114.821 E33.77411
G1 X111.322 Y114.588 E33.79108
G1 X111.338 Y114.559 E33.79328
G1 X111.452 Y114.326 E33.81054
G1 X111.584 Y114.088 E33.82864
G1 X111.713 Y113.871 E33.84544
G1 X111.746 Y113.825 E33.8492
G1 X111.881 Y113.615 E33.86581
G1 X112.037 Y113.399 E33.88353
G1 X112.056 Y113.378 E33.88542
G1 X112.23 Y113.155 E33.90423
G1 X112.404 Y112.953 E33.92197
G1 X112.578 Y112.766 E33.93896
G1 X112.613 Y112.733 E33.94216
G1 X112.79 Y112.554 E33.9589
G1 X112.983 Y112.377 E33.97632
G1 X113.207 Y112.189 E33.99578
G1 X113.235 Y112.169 E33.99806
G1 X113.419 Y112.023 E34.01369
G1 X113.443 Y112.008 E34.01557
G1 X113.656 Y111.854 E34.03306
G1 X113.866 Y111.717 E34.04974
G1 X114.124 Y111.562 E34.06976
G1 X114.392 Y111.418 E34.08999
G1 X114.627 Y111.302 E34.10743
G1 X114.86 Y111.2 E34.12435
G1 X115.143 Y111.09 E34.14454
G1 X115.406 Y110.998 E34.16308
G1 X115.66 Y110.922 E34.18071
G1 X115.937 Y110.852 E34.19972
G1 X116.231 Y110.787 E34.21975
G1 X116.49 Y110.745 E34.2372
G1 X116.775 Y110.708 E34.25632
G1 X117.009 Y110.688 E34.27194
G1 X117.333 Y110.672 E34.29352
G1 X117.357 Y110.673 E34.29512
G1 X117.593 Y110.671 E34.31082
G1 X117.64 Y110.674 E34.31395
G1 X117.896 Y110.682 E34.33099
G1 X118.158 Y110.702 E34.34847
G1 X118.47 Y110.741 E34.36938
G1 X118.728 Y110.782 E34.38676
G1 X118.994 Y110.837 E34.40483
G1 X119.021 Y110.845 E34.4067
G1 X119.269 Y110.904 E34.42366
G1 X119.522 Y110.976 E34.44116
G1 X119.797 Y111.069 E34.46047
G1 X120.08 Y111.177 E34.48062
G1 X120.324 Y111.28 E34.49824
G1 X120.545 Y111.386 E34.51454
G1 X120.801 Y111.521 E34.53379
G1 X121.057 Y111.669 E34.55346
G1 X121.278 Y111.81 E34.5709
G1 X121.504 Y111.967 E34.58921
G1 X121.744 Y112.149 E34.60924
G1 X121.965 Y112.332 E34.62833
G1 X122.165 Y112.512 E34.64623
G1 X122.184 Y112.532 E34.64806
G1 X122.366 Y112.707 E34.66486
G1 X122.559 Y112.912 E34.68359
G1 X122.575 Y112.932 E34.68529
G1 X122.738 Y113.116 E34.70164
G1 X122.922 Y113.345 E34.72119
G1 X123.08 Y113.56 E34.73893
G1 X123.227 Y113.779 E34.75648
G1 X123.38 Y114.026 E34.77581
G1 X123.521 Y114.278 E34.79502
G1 X123.637 Y114.503 E34.81185
G1 X123.762 Y114.776 E34.83183
G1 X123.87 Y115.036 E34.85056
G1 X123.878 Y115.061 E34.8523
G1 X123.964 Y115.294 E34.86882
G1 X123.973 Y115.326 E34.87103
G1 X124.047 Y115.557 E34.88717
G1 X124.122 Y115.826 E34.90575
G1 X124.127 Y115.858 E34.9079
G1 X124.189 Y116.122 E34.92594
G1 X124.234 Y116.364 E34.94231
G1 X124.275 Y116.64 E34.96087
G1 X124.304 Y116.929 E34.9802
G1 X124.323 Y117.213 E34.99913
G1 X124.331 Y117.485 E35.01723
G1 X124.329 Y117.601 E35.02495
G1 X124.311 Y118.006 E35.05192
G1 X124.292 Y118.228 E35.06674
G1 X124.285 Y118.266 E35.06931
G1 X124.255 Y118.508 E35.08553
G1 X124.22 Y118.718 E35.09969
G1 X124.207 Y118.774 E35.10351
G1 X124.168 Y118.978 E35.11733
G1 X124.109 Y119.222 E35.13403
G1 X124.097 Y119.257 E35.13649
G1 X124.039 Y119.469 E35.15111
G1 X124.028 Y119.497 E35.15311
G1 X123.96 Y119.715 E35.1683
G1 X123.881 Y119.935 E35.18385
G1 X123.781 Y120.182 E35.20158
G1 X123.689 Y120.388 E35.21659
G1 X123.662 Y120.438 E35.22037
G1 X123.575 Y120.621 E35.23384
G1 X123.549 Y120.667 E35.23736
G1 X123.448 Y120.856 E35.25161
G1 X123.321 Y121.072 E35.26828
G1 X123.194 Y121.272 E35.28404
G1 X123.169 Y121.304 E35.28674
G1 X123.04 Y121.495 E35.30207
G1 X122.888 Y121.698 E35.31894
G1 X122.728 Y121.894 E35.33577
G1 X122.571 Y122.074 E35.35166
G1 X122.393 Y122.264 E35.36898
G1 X122.224 Y122.432 E35.38483
G1 X122.195 Y122.456 E35.38734
G1 X122.031 Y122.609 E35.40226
G1 X122.007 Y122.628 E35.40429
G1 X121.845 Y122.768 E35.41854
G1 X121.821 Y122.785 E35.42049
G1 X121.656 Y122.921 E35.43472
G1 X121.632 Y122.936 E35.4366
G1 X121.428 Y123.086 E35.45344
G1 X121.207 Y123.235 E35.47117
G1 X121.027 Y123.348 E35.48531
G1 X120.805 Y123.477 E35.50239
G1 X120.79 Y123.483 E35.50346
G1 X120.564 Y123.602 E35.52045
G1 X120.355 Y123.703 E35.5359
G1 X120.138 Y123.8 E35.55171
G1 X119.871 Y123.904 E35.57077
G1 X119.669 Y123.976 E35.58503
G1 X119.421 Y124.053 E35.60231
G1 X119.382 Y124.062 E35.60497
G1 X119.187 Y124.119 E35.61848
G1 X119.149 Y124.126 E35.62105
G1 X118.923 Y124.18 E35.63651
G1 X118.665 Y124.229 E35.65398
G1 X118.426 Y124.265 E35.67006
G1 X118.197 Y124.294 E35.68541
G1 X118.145 Y124.296 E35.68887
G1 X117.945 Y124.315 E35.70224
G1 X117.896 Y124.316 E35.7055
G1 X117.67 Y124.327 E35.72055
G1 X117.648 Y124.326 E35.72201
G1 X117.428 Y124.329 E35.73665
G0 F7500 X117.402 Y124.607
G0 X119.227 Y124.335
G0 X120.447 Y123.903
G0 X121.558 Y123.263
G0 X121.838 Y123.024
G0 X123.035 Y121.959
G0 X122.695 Y121.68
G1 F1350 X121.69 Y122.685 E35.83119
G0 F7500 X121.969 Y123.026
G0 X120.403 Y123.987
G0 X120.225 Y123.584
G1 F1350 X123.585 Y120.225 E36.14724
G0 F7500 X123.909 Y119.335
G1 F1350 X119.337 Y123.907 E36.57734
G0 F7500 X118.6 Y124.078
G1 F1350 X124.076 Y118.603 E37.09244
G0 F7500 X124.151 Y117.961
G1 F1350 X117.961 Y124.151 E37.67476
G0 F7500 X117.382 Y124.165
G1 F1350 X124.166 Y117.381 E38.31296
G0 F7500 X124.134 Y116.847
G1 F1350 X116.847 Y124.134 E38.99847
G0 F7500 X116.349 Y124.066
G1 F1350 X124.066 Y116.349 E39.72444
G0 F7500 X123.968 Y115.882
G1 F1350 X115.882 Y123.968 E40.48512
G0 F7500 X115.442 Y123.842
G1 F1350 X123.84 Y115.444 E41.27516
G0 F7500 X123.692 Y115.027
G1 F1350 X115.025 Y123.693 E42.09045
G0 F7500 X114.633 Y123.52
G1 F1350 X123.519 Y114.634 E42.92639
G0 F7500 X123.326 Y114.261
G1 F1350 X114.26 Y123.327 E43.77926
G0 F7500 X113.906 Y123.115
G1 F1350 X123.116 Y113.905 E44.64568
G0 F7500 X122.887 Y113.569
G1 F1350 X113.569 Y122.886 E45.52221
G0 F7500 X113.251 Y122.639
G1 F1350 X122.639 Y113.25 E46.40543
G0 F7500 X122.374 Y112.951
G1 F1350 X112.95 Y122.374 E47.29193
G0 F7500 X112.667 Y122.091
G1 F1350 X122.093 Y112.666 E48.17862
G0 F7500 X121.794 Y112.398
G1 F1350 X112.399 Y121.794 E49.0625
G0 F7500 X112.15 Y121.477
G1 F1350 X121.479 Y112.148 E49.94011
G0 F7500 X121.145 Y111.916
G1 F1350 X111.915 Y121.146 E50.80841
G0 F7500 X111.703 Y120.793
G1 F1350 X120.795 Y111.701 E51.66373
G0 F7500 X120.425 Y111.505
G1 F1350 X111.505 Y120.425 E52.50287
G0 F7500 X111.331 Y120.033
G1 F1350 X120.034 Y111.331 E53.32155
G0 F7500 X119.621 Y111.178
G1 F1350 X111.177 Y119.621 E54.11586
G0 F7500 X111.047 Y119.186
G1 F1350 X119.185 Y111.048 E54.88143
G0 F7500 X118.723 Y110.944
G1 F1350 X110.945 Y118.722 E55.61314
G0 F7500 X110.871 Y118.231
G1 F1350 X118.231 Y110.871 E56.30553
G0 F7500 X117.701 Y110.835
G1 F1350 X110.835 Y117.701 E56.95144
G0 F7500 X110.843 Y117.127
G1 F1350 X117.129 Y110.841 E57.54278
G0 F7500 X116.501 Y110.904
G1 F1350 X110.905 Y116.5 E58.06922
G0 F7500 X111.057 Y115.782
G1 F1350 X115.785 Y111.054 E58.514
G0 F7500 X114.931 Y111.343
G1 F1350 X111.342 Y114.931 E58.85159
G0 F7500 X110.934 Y114.771
G0 X111.68 Y113.417
G0 X112.035 Y113.673
G1 F1350 X113.663 Y112.045 E59.00474
G0 F7500 X113.458 Y111.763
;MESH:NONMESH
G0 F300 X113.458 Y111.763 Z1
G0 F7500 X113.406 Y111.689
G0 X112.058 Y113.019
G0 X111.25 Y114.239
G0 X110.728 Y115.542
G0 X110.471 Y116.98
G0 X110.509 Y118.405
G0 X110.841 Y119.813
G0 X111.463 Y121.141
G0 X112.327 Y122.287
G0 X113.289 Y123.152
G0 X114.409 Y123.835
G0 X115.389 Y124.205
G0 X117.683 Y124.817
G0 X117.679 Y124.965
;TIME_ELAPSED:74.296988
;LAYER:2
M106 S170
;TYPE:WALL-INNER
;MESH:Vase v1.stl
G1 F1500 X117.631 Y124.964 E59.00793
G1 X117.41 Y124.967 E59.02264
G1 X117.124 Y124.958 E59.04167
G1 X116.86 Y124.94 E59.05927
G1 X116.581 Y124.911 E59.07793
G1 X116.536 Y124.903 E59.08097
G1 X116.328 Y124.875 E59.09493
G1 X116.263 Y124.862 E59.09934
G1 X116.037 Y124.822 E59.11461
G1 X115.992 Y124.811 E59.11769
G1 X115.772 Y124.765 E59.13264
G1 X115.509 Y124.697 E59.15071
G1 X115.234 Y124.615 E59.1698
G1 X114.987 Y124.532 E59.18713
G1 X114.718 Y124.429 E59.20629
G1 X114.468 Y124.324 E59.22433
G1 X114.228 Y124.213 E59.24192
G1 X114.179 Y124.186 E59.24564
G1 X113.981 Y124.086 E59.2604
G1 X113.743 Y123.953 E59.27854
G1 X113.503 Y123.807 E59.29722
G1 X113.28 Y123.659 E59.31503
G1 X113.043 Y123.49 E59.33439
G1 X112.843 Y123.339 E59.35106
G1 X112.798 Y123.298 E59.35511
G1 X112.626 Y123.157 E59.3699
G1 X112.586 Y123.119 E59.37357
G1 X112.414 Y122.967 E59.38884
G1 X112.219 Y122.78 E59.40681
G1 X112.013 Y122.564 E59.42667
G1 X111.798 Y122.321 E59.44825
G1 X111.606 Y122.084 E59.46854
G1 X111.441 Y121.865 E59.48678
G1 X111.397 Y121.799 E59.49206
G1 X111.257 Y121.599 E59.5083
G1 X111.227 Y121.548 E59.51223
G1 X111.087 Y121.327 E59.52964
G1 X110.944 Y121.078 E59.54874
G1 X110.916 Y121.02 E59.55302
G1 X110.803 Y120.804 E59.56924
G1 X110.779 Y120.75 E59.57317
G1 X110.673 Y120.528 E59.58953
G1 X110.651 Y120.471 E59.5936
G1 X110.552 Y120.238 E59.61044
G1 X110.535 Y120.188 E59.61395
G1 X110.452 Y119.967 E59.62965
G1 X110.357 Y119.678 E59.64989
G1 X110.268 Y119.362 E59.67173
G1 X110.203 Y119.087 E59.69053
G1 X110.191 Y119.018 E59.69518
G1 X110.139 Y118.76 E59.71269
G1 X110.096 Y118.478 E59.73167
G1 X110.091 Y118.416 E59.7358
G1 X110.064 Y118.181 E59.75154
G1 X110.042 Y117.873 E59.77208
G1 X110.033 Y117.568 E59.79238
G1 X110.035 Y117.499 E59.79697
G1 X110.037 Y117.25 E59.81353
G1 X110.053 Y116.944 E59.83392
G1 X110.08 Y116.652 E59.85342
G1 X110.091 Y116.592 E59.85748
G1 X110.124 Y116.339 E59.87445
G1 X110.173 Y116.054 E59.89369
G1 X110.238 Y115.757 E59.91391
G1 X110.258 Y115.689 E59.91863
G1 X110.321 Y115.441 E59.93565
G1 X110.406 Y115.166 E59.9548
G1 X110.431 Y115.1 E59.95949
G1 X110.511 Y114.869 E59.97575
G1 X110.534 Y114.817 E59.97954
G1 X110.62 Y114.596 E59.99531
G1 X110.65 Y114.532 E60.00001
G1 X110.756 Y114.293 E60.0174
G1 X110.892 Y114.02 E60.03769
G1 X111.025 Y113.779 E60.056
G1 X111.19 Y113.506 E60.07722
G1 X111.347 Y113.267 E60.09624
G1 X111.532 Y113.01 E60.11731
G1 X111.575 Y112.959 E60.12175
G1 X111.725 Y112.766 E60.13801
G1 X111.768 Y112.718 E60.14229
G1 X111.929 Y112.528 E60.15886
G1 X111.969 Y112.487 E60.16267
G1 X112.136 Y112.304 E60.17915
G1 X112.177 Y112.265 E60.18291
G1 X112.34 Y112.101 E60.19829
G1 X112.395 Y112.053 E60.20315
G1 X112.581 Y111.882 E60.21996
G1 X112.622 Y111.849 E60.22346
G1 X112.806 Y111.691 E60.23959
G1 X113.05 Y111.503 E60.26008
G1 X113.101 Y111.469 E60.26416
G1 X113.304 Y111.322 E60.28083
G1 X113.543 Y111.166 E60.29982
G1 X113.609 Y111.129 E60.30485
G1 X113.804 Y111.011 E60.32001
G1 X113.872 Y110.976 E60.3251
G1 X114.1 Y110.851 E60.3424
G1 X114.359 Y110.725 E60.36155
G1 X114.654 Y110.595 E60.383
G1 X114.92 Y110.491 E60.402
G1 X115.206 Y110.393 E60.42211
G1 X115.273 Y110.374 E60.42674
G1 X115.494 Y110.306 E60.44212
G1 X115.798 Y110.229 E60.46298
G1 X115.862 Y110.217 E60.46731
G1 X116.101 Y110.165 E60.48358
G1 X116.4 Y110.113 E60.50377
G1 X116.462 Y110.107 E60.50792
G1 X116.69 Y110.076 E60.52322
G1 X117.007 Y110.049 E60.54439
G1 X117.322 Y110.035 E60.56536
G1 X117.378 Y110.036 E60.56909
G1 X117.621 Y110.033 E60.58525
G1 X117.683 Y110.037 E60.58938
G1 X117.934 Y110.045 E60.60609
G1 X118.232 Y110.068 E60.62597
G1 X118.291 Y110.076 E60.62993
G1 X118.532 Y110.103 E60.64606
G1 X118.835 Y110.152 E60.66648
G1 X118.896 Y110.166 E60.67064
G1 X119.148 Y110.216 E60.68773
G1 X119.43 Y110.286 E60.70706
G1 X119.488 Y110.304 E60.7111
G1 X119.73 Y110.373 E60.72784
G1 X120.004 Y110.465 E60.74707
G1 X120.072 Y110.492 E60.75194
G1 X120.298 Y110.575 E60.76795
G1 X120.354 Y110.601 E60.77206
G1 X120.573 Y110.695 E60.78791
G1 X120.86 Y110.831 E60.80904
G1 X121.125 Y110.971 E60.82897
G1 X121.179 Y111.004 E60.83318
G1 X121.391 Y111.125 E60.84942
G1 X121.44 Y111.159 E60.85339
G1 X121.661 Y111.299 E60.87079
G1 X121.88 Y111.451 E60.88852
G1 X121.947 Y111.504 E60.89421
G1 X122.127 Y111.637 E60.90909
G1 X122.185 Y111.688 E60.91423
G1 X122.374 Y111.842 E60.93045
G1 X122.421 Y111.886 E60.93473
G1 X122.607 Y112.051 E60.95127
G1 X122.646 Y112.091 E60.95499
G1 X122.817 Y112.255 E60.97075
G1 X122.86 Y112.304 E60.97509
G1 X123.022 Y112.473 E60.99066
G1 X123.072 Y112.532 E60.9958
G1 X123.233 Y112.714 E61.01197
G1 X123.268 Y112.761 E61.01586
G1 X123.432 Y112.965 E61.03328
G1 X123.603 Y113.196 E61.05239
G1 X123.636 Y113.249 E61.05655
G1 X123.778 Y113.454 E61.07314
G1 X123.807 Y113.505 E61.07704
G1 X123.925 Y113.693 E61.0918
G1 X124.088 Y113.984 E61.11399
G1 X124.111 Y114.032 E61.11753
G1 X124.223 Y114.248 E61.13372
G1 X124.247 Y114.305 E61.13783
G1 X124.353 Y114.533 E61.15456
G1 X124.466 Y114.809 E61.1744
G1 X124.57 Y115.096 E61.1947
G1 X124.588 Y115.157 E61.19893
G1 X124.662 Y115.386 E61.21494
G1 X124.74 Y115.674 E61.23479
G1 X124.812 Y115.987 E61.25615
G1 X124.866 Y116.279 E61.27591
G1 X124.911 Y116.588 E61.29668
G1 X124.942 Y116.892 E61.31701
G1 X124.944 Y116.947 E61.32067
G1 X124.961 Y117.192 E61.337
G1 X124.969 Y117.488 E61.3567
G1 X124.965 Y117.672 E61.36894
G1 X124.947 Y118.05 E61.39412
G1 X124.941 Y118.102 E61.3976
G1 X124.924 Y118.308 E61.41135
G1 X124.888 Y118.585 E61.42993
G1 X124.842 Y118.861 E61.44854
G1 X124.829 Y118.919 E61.4525
G1 X124.788 Y119.126 E61.46653
G1 X124.772 Y119.186 E61.47066
G1 X124.72 Y119.407 E61.48577
G1 X124.705 Y119.454 E61.48905
G1 X124.647 Y119.664 E61.50354
G1 X124.628 Y119.718 E61.50735
G1 X124.562 Y119.925 E61.5218
G1 X124.468 Y120.184 E61.54013
G1 X124.364 Y120.44 E61.55851
G1 X124.34 Y120.491 E61.56226
G1 X124.252 Y120.692 E61.57685
G1 X124.133 Y120.929 E61.5945
G1 X123.996 Y121.181 E61.61358
G1 X123.859 Y121.415 E61.63161
G1 X123.828 Y121.46 E61.63525
G1 X123.705 Y121.654 E61.65053
G1 X123.56 Y121.863 E61.66745
G1 X123.388 Y122.092 E61.6865
G1 X123.215 Y122.306 E61.70481
G1 X123.178 Y122.345 E61.70838
G1 X123.039 Y122.508 E61.72263
G1 X122.836 Y122.724 E61.74235
G1 X122.662 Y122.897 E61.75867
G1 X122.448 Y123.092 E61.77793
G1 X122.246 Y123.265 E61.79562
G1 X122.024 Y123.441 E61.81447
G1 X121.98 Y123.471 E61.81801
G1 X121.806 Y123.6 E61.83242
G1 X121.567 Y123.763 E61.85166
G1 X121.528 Y123.786 E61.85467
G1 X121.338 Y123.906 E61.86962
G1 X121.295 Y123.929 E61.87287
G1 X121.106 Y124.04 E61.88745
G1 X121.056 Y124.063 E61.89111
G1 X120.866 Y124.166 E61.90548
G1 X120.812 Y124.19 E61.90942
G1 X120.604 Y124.291 E61.9248
G1 X120.366 Y124.395 E61.94207
G1 X120.307 Y124.417 E61.94626
G1 X120.1 Y124.5 E61.9611
G1 X120.051 Y124.516 E61.96453
G1 X119.837 Y124.592 E61.97963
G1 X119.579 Y124.672 E61.9976
G1 X119.325 Y124.74 E62.01509
G1 X119.047 Y124.804 E62.03407
G1 X118.773 Y124.857 E62.05263
G1 X118.509 Y124.899 E62.07042
G1 X118.451 Y124.904 E62.07429
G1 X118.238 Y124.931 E62.08857
G1 X118.179 Y124.934 E62.0925
G1 X117.96 Y124.952 E62.10712
G1 X117.679 Y124.965 E62.12583
G0 F9000 X117.692 Y125.365
;TYPE:WALL-OUTER
G1 F1500 X117.63 Y125.364 E62.12995
G1 X117.403 Y125.367 E62.14506
G1 X117.109 Y125.358 E62.16462
G1 X116.819 Y125.338 E62.18396
G1 X116.533 Y125.308 E62.20309
G1 X116.475 Y125.298 E62.207
G1 X116.251 Y125.268 E62.22204
G1 X116.188 Y125.255 E62.22632
G1 X115.96 Y125.215 E62.24171
G1 X115.903 Y125.201 E62.24562
G1 X115.68 Y125.154 E62.26078
G1 X115.405 Y125.083 E62.27967
G1 X115.12 Y124.998 E62.29945
G1 X114.844 Y124.906 E62.31881
G1 X114.575 Y124.803 E62.33797
G1 X114.313 Y124.693 E62.35687
G1 X114.051 Y124.572 E62.37607
G1 X113.993 Y124.54 E62.38047
G1 X113.794 Y124.44 E62.39529
G1 X113.535 Y124.295 E62.41503
G1 X113.295 Y124.149 E62.43372
G1 X113.048 Y123.985 E62.45344
G1 X112.811 Y123.816 E62.47281
G1 X112.585 Y123.645 E62.49166
G1 X112.537 Y123.602 E62.49594
G1 X112.357 Y123.454 E62.51145
G1 X112.315 Y123.414 E62.5153
G1 X112.142 Y123.261 E62.53067
G1 X111.942 Y123.069 E62.54911
G1 X111.713 Y122.829 E62.57118
G1 X111.498 Y122.586 E62.59276
G1 X111.295 Y122.336 E62.61418
G1 X111.256 Y122.282 E62.61861
G1 X111.107 Y122.086 E62.63499
G1 X111.066 Y122.024 E62.63993
G1 X110.919 Y121.813 E62.65704
G1 X110.886 Y121.757 E62.66136
G1 X110.749 Y121.541 E62.67838
G1 X110.589 Y121.261 E62.69983
G1 X110.56 Y121.202 E62.7042
G1 X110.445 Y120.984 E62.7206
G1 X110.415 Y120.916 E62.72554
G1 X110.305 Y120.684 E62.74262
G1 X110.281 Y120.623 E62.74698
G1 X110.181 Y120.388 E62.76397
G1 X110.159 Y120.324 E62.76847
G1 X110.072 Y120.093 E62.78489
G1 X109.972 Y119.789 E62.80618
G1 X109.953 Y119.717 E62.81114
G1 X109.883 Y119.471 E62.82815
G1 X109.811 Y119.168 E62.84887
G1 X109.798 Y119.091 E62.85406
G1 X109.747 Y118.84 E62.8711
G1 X109.699 Y118.524 E62.89236
G1 X109.693 Y118.456 E62.8969
G1 X109.664 Y118.203 E62.91384
G1 X109.661 Y118.136 E62.9183
G1 X109.642 Y117.893 E62.93452
G1 X109.641 Y117.815 E62.9397
G1 X109.633 Y117.571 E62.95594
G1 X109.635 Y117.492 E62.9612
G1 X109.637 Y117.247 E62.9775
G1 X109.642 Y117.17 E62.98263
G1 X109.653 Y116.926 E62.99888
G1 X109.684 Y116.595 E63.02099
G1 X109.695 Y116.532 E63.02525
G1 X109.727 Y116.287 E63.04168
G1 X109.782 Y115.968 E63.06322
G1 X109.85 Y115.659 E63.08426
G1 X109.872 Y115.584 E63.08946
G1 X109.933 Y115.343 E63.106
G1 X110.031 Y115.027 E63.12801
G1 X110.054 Y114.965 E63.13241
G1 X110.136 Y114.728 E63.14909
G1 X110.164 Y114.664 E63.15374
G1 X110.253 Y114.436 E63.17002
G1 X110.286 Y114.366 E63.17517
G1 X110.39 Y114.131 E63.19226
G1 X110.534 Y113.842 E63.21374
G1 X110.683 Y113.572 E63.23425
G1 X110.856 Y113.286 E63.25649
G1 X111.026 Y113.028 E63.27704
G1 X111.073 Y112.965 E63.28227
G1 X111.213 Y112.768 E63.29834
G1 X111.263 Y112.708 E63.30354
G1 X111.414 Y112.514 E63.31989
G1 X111.466 Y112.456 E63.32508
G1 X111.627 Y112.265 E63.34169
G1 X111.677 Y112.213 E63.34649
G1 X111.85 Y112.024 E63.36354
G1 X111.897 Y111.979 E63.36786
G1 X112.069 Y111.806 E63.38409
G1 X112.128 Y111.755 E63.38928
G1 X112.316 Y111.581 E63.40632
G1 X112.368 Y111.54 E63.41072
G1 X112.557 Y111.378 E63.42728
G1 X112.616 Y111.334 E63.43218
G1 X112.817 Y111.178 E63.4491
G1 X112.872 Y111.141 E63.45351
G1 X113.069 Y110.998 E63.46971
G1 X113.338 Y110.823 E63.49105
G1 X113.407 Y110.784 E63.49633
G1 X113.615 Y110.658 E63.5125
G1 X113.685 Y110.622 E63.51774
G1 X113.909 Y110.5 E63.53471
G1 X114.198 Y110.359 E63.5561
G1 X114.493 Y110.229 E63.57754
G1 X114.784 Y110.115 E63.59833
G1 X115.092 Y110.009 E63.62
G1 X115.162 Y109.99 E63.62482
G1 X115.396 Y109.918 E63.64111
G1 X115.708 Y109.839 E63.66252
G1 X115.782 Y109.825 E63.66753
G1 X116.021 Y109.773 E63.6838
G1 X116.343 Y109.717 E63.70554
G1 X116.416 Y109.71 E63.71042
G1 X116.656 Y109.677 E63.72653
G1 X116.98 Y109.649 E63.74817
G1 X117.056 Y109.647 E63.75322
G1 X117.308 Y109.635 E63.77001
G1 X117.378 Y109.636 E63.77466
G1 X117.624 Y109.633 E63.79103
G1 X117.7 Y109.637 E63.79609
G1 X117.954 Y109.645 E63.81299
G1 X118.268 Y109.669 E63.83394
G1 X118.341 Y109.679 E63.83884
G1 X118.596 Y109.708 E63.85592
G1 X118.909 Y109.759 E63.87701
G1 X118.979 Y109.775 E63.88179
G1 X119.225 Y109.823 E63.89846
G1 X119.54 Y109.901 E63.92005
G1 X119.603 Y109.921 E63.92444
G1 X119.839 Y109.988 E63.94076
G1 X120.149 Y110.092 E63.96251
G1 X120.216 Y110.119 E63.96732
G1 X120.452 Y110.206 E63.98405
G1 X120.516 Y110.235 E63.98872
G1 X120.744 Y110.333 E64.00523
G1 X121.042 Y110.474 E64.02716
G1 X121.099 Y110.506 E64.03151
G1 X121.316 Y110.619 E64.04779
G1 X121.382 Y110.659 E64.05292
G1 X121.6 Y110.784 E64.06964
G1 X121.659 Y110.824 E64.07438
G1 X121.875 Y110.961 E64.09139
G1 X122.128 Y111.137 E64.11189
G1 X122.19 Y111.186 E64.11715
G1 X122.384 Y111.33 E64.13322
G1 X122.444 Y111.383 E64.13855
G1 X122.633 Y111.537 E64.15476
G1 X122.69 Y111.59 E64.15994
G1 X122.872 Y111.751 E64.17611
G1 X122.927 Y111.807 E64.18133
G1 X123.112 Y111.985 E64.19841
G1 X123.155 Y112.034 E64.20274
G1 X123.329 Y112.216 E64.21949
G1 X123.375 Y112.271 E64.22426
G1 X123.544 Y112.462 E64.24123
G1 X123.584 Y112.515 E64.24564
G1 X123.744 Y112.714 E64.26263
G1 X123.782 Y112.768 E64.26702
G1 X123.928 Y112.962 E64.28317
G1 X123.97 Y113.029 E64.28843
G1 X124.11 Y113.231 E64.30478
G1 X124.149 Y113.297 E64.30988
G1 X124.277 Y113.502 E64.32596
G1 X124.315 Y113.572 E64.33125
G1 X124.441 Y113.795 E64.34829
G1 X124.469 Y113.854 E64.35264
G1 X124.581 Y114.069 E64.36876
G1 X124.612 Y114.141 E64.37398
G1 X124.716 Y114.364 E64.39035
G1 X124.842 Y114.673 E64.41254
G1 X124.951 Y114.974 E64.43384
G1 X124.97 Y115.039 E64.43834
G1 X125.046 Y115.273 E64.45471
G1 X125.13 Y115.584 E64.47614
G1 X125.202 Y115.897 E64.4975
G1 X125.262 Y116.221 E64.51942
G1 X125.309 Y116.542 E64.541
G1 X125.314 Y116.607 E64.54534
G1 X125.342 Y116.862 E64.5624
G1 X125.344 Y116.928 E64.5668
G1 X125.361 Y117.182 E64.58373
G1 X125.369 Y117.496 E64.60462
G1 X125.365 Y117.691 E64.6176
G1 X125.347 Y118.07 E64.64284
G1 X125.339 Y118.141 E64.64759
G1 X125.321 Y118.36 E64.66221
G1 X125.283 Y118.651 E64.68173
G1 X125.236 Y118.933 E64.70075
G1 X125.22 Y119.002 E64.70546
G1 X125.179 Y119.215 E64.71989
G1 X125.16 Y119.285 E64.72471
G1 X125.106 Y119.511 E64.74017
G1 X125.089 Y119.566 E64.744
G1 X125.03 Y119.78 E64.75877
G1 X125.008 Y119.844 E64.76327
G1 X124.941 Y120.054 E64.77793
G1 X124.916 Y120.119 E64.78256
G1 X124.843 Y120.324 E64.79704
G1 X124.815 Y120.39 E64.80181
G1 X124.734 Y120.593 E64.81635
G1 X124.704 Y120.657 E64.82105
G1 X124.614 Y120.861 E64.83588
G1 X124.485 Y121.12 E64.85513
G1 X124.344 Y121.38 E64.8748
G1 X124.312 Y121.432 E64.87886
G1 X124.196 Y121.63 E64.89413
G1 X124.163 Y121.679 E64.89806
G1 X124.039 Y121.875 E64.91349
G1 X123.88 Y122.103 E64.93198
G1 X123.699 Y122.344 E64.95203
G1 X123.521 Y122.564 E64.97085
G1 X123.477 Y122.611 E64.97513
G1 X123.335 Y122.778 E64.98972
G1 X123.285 Y122.829 E64.99447
G1 X123.128 Y122.998 E65.00981
G1 X122.931 Y123.193 E65.02825
G1 X122.708 Y123.396 E65.04831
G1 X122.494 Y123.579 E65.06704
G1 X122.263 Y123.762 E65.08664
G1 X122.212 Y123.797 E65.09076
G1 X122.031 Y123.931 E65.10574
G1 X121.786 Y124.098 E65.12546
G1 X121.737 Y124.127 E65.12925
G1 X121.542 Y124.251 E65.14462
G1 X121.489 Y124.279 E65.14861
G1 X121.292 Y124.394 E65.16378
G1 X121.238 Y124.42 E65.16777
G1 X121.041 Y124.526 E65.18265
G1 X120.981 Y124.553 E65.18703
G1 X120.772 Y124.654 E65.20247
G1 X120.519 Y124.765 E65.22085
G1 X120.451 Y124.79 E65.22567
G1 X120.242 Y124.874 E65.24065
G1 X120.182 Y124.894 E65.24486
G1 X119.972 Y124.969 E65.25969
G1 X119.691 Y125.056 E65.27926
G1 X119.415 Y125.13 E65.29827
G1 X119.129 Y125.196 E65.31779
G1 X118.849 Y125.25 E65.33676
G1 X118.556 Y125.296 E65.35649
G1 X118.496 Y125.302 E65.3605
G1 X118.279 Y125.329 E65.37505
G1 X118.208 Y125.333 E65.37978
G1 X117.989 Y125.352 E65.3944
G1 X117.918 Y125.354 E65.39912
G1 X117.692 Y125.365 E65.41418
G0 F9000 X117.685 Y124.926
G0 X117.669 Y124.575
;TYPE:SKIN
G1 F1500 X117.633 Y124.574 E65.41657
G1 X117.416 Y124.577 E65.43101
G1 X117.151 Y124.568 E65.44865
G1 X116.887 Y124.55 E65.46625
G1 X116.642 Y124.525 E65.48263
G1 X116.597 Y124.517 E65.48567
G1 X116.399 Y124.492 E65.49895
G1 X116.336 Y124.478 E65.50324
G1 X116.109 Y124.439 E65.51856
G1 X116.079 Y124.431 E65.52063
G1 X115.86 Y124.384 E65.53553
G1 X115.606 Y124.319 E65.55297
G1 X115.359 Y124.245 E65.57012
G1 X115.112 Y124.162 E65.58745
G1 X114.843 Y124.059 E65.60661
G1 X114.642 Y123.975 E65.6211
G1 X114.399 Y123.862 E65.63893
G1 X114.361 Y123.841 E65.64182
G1 X114.172 Y123.745 E65.65592
G1 X113.934 Y123.612 E65.67406
G1 X113.713 Y123.478 E65.69125
G1 X113.501 Y123.337 E65.70818
G1 X113.274 Y123.175 E65.72674
G1 X113.087 Y123.034 E65.74231
G1 X113.053 Y123.003 E65.74538
G1 X112.874 Y122.855 E65.76083
G1 X112.678 Y122.68 E65.7783
G1 X112.496 Y122.505 E65.7951
G1 X112.301 Y122.3 E65.81392
G1 X112.09 Y122.062 E65.83508
G1 X111.908 Y121.838 E65.85428
G1 X111.76 Y121.64 E65.87072
G1 X111.719 Y121.579 E65.87561
G1 X111.582 Y121.383 E65.89152
G1 X111.561 Y121.346 E65.89435
G1 X111.416 Y121.118 E65.91232
G1 X111.292 Y120.9 E65.929
G1 X111.265 Y120.844 E65.93314
G1 X111.155 Y120.636 E65.94879
G1 X111.134 Y120.588 E65.95228
G1 X111.035 Y120.382 E65.96748
G1 X111.012 Y120.324 E65.97163
G1 X110.911 Y120.086 E65.98883
G1 X110.902 Y120.058 E65.99079
G1 X110.817 Y119.83 E66.00697
G1 X110.731 Y119.565 E66.0255
G1 X110.644 Y119.256 E66.04686
G1 X110.583 Y118.997 E66.06456
G1 X110.575 Y118.946 E66.06799
G1 X110.521 Y118.682 E66.08592
G1 X110.482 Y118.42 E66.10354
G1 X110.479 Y118.379 E66.10627
G1 X110.451 Y118.126 E66.1232
G1 X110.432 Y117.854 E66.14134
G1 X110.423 Y117.579 E66.15965
G1 X110.425 Y117.506 E66.1645
G1 X110.427 Y117.27 E66.1802
G1 X110.443 Y116.964 E66.20059
G1 X110.464 Y116.722 E66.21674
G1 X110.477 Y116.652 E66.22148
G1 X110.508 Y116.405 E66.23804
G1 X110.554 Y116.138 E66.25606
G1 X110.616 Y115.854 E66.2754
G1 X110.634 Y115.792 E66.27969
G1 X110.694 Y115.556 E66.29589
G1 X110.775 Y115.293 E66.3142
G1 X110.798 Y115.232 E66.31853
G1 X110.874 Y115.012 E66.33402
G1 X110.895 Y114.967 E66.33732
G1 X110.973 Y114.762 E66.35191
G1 X111.005 Y114.694 E66.35691
G1 X111.109 Y114.459 E66.374
G1 X111.237 Y114.202 E66.3931
G1 X111.363 Y113.974 E66.41043
G1 X111.516 Y113.72 E66.43016
G1 X111.663 Y113.495 E66.44803
G1 X111.831 Y113.261 E66.4672
G1 X111.878 Y113.204 E66.47211
G1 X112.033 Y113.006 E66.48884
G1 X112.062 Y112.974 E66.49171
G1 X112.216 Y112.793 E66.50752
G1 X112.424 Y112.568 E66.5279
G1 X112.599 Y112.394 E66.54432
G1 X112.835 Y112.178 E66.5656
G1 X112.871 Y112.149 E66.56867
G1 X113.052 Y111.994 E66.58453
G1 X113.282 Y111.817 E66.60383
G1 X113.324 Y111.789 E66.60719
G1 X113.525 Y111.643 E66.62371
G1 X113.742 Y111.501 E66.64097
G1 X113.805 Y111.466 E66.64576
G1 X113.983 Y111.358 E66.65961
G1 X114.055 Y111.321 E66.66499
G1 X114.27 Y111.202 E66.68134
G1 X114.517 Y111.082 E66.69961
G1 X114.812 Y110.952 E66.72105
G1 X115.047 Y110.86 E66.73784
G1 X115.329 Y110.763 E66.75768
G1 X115.383 Y110.749 E66.76139
G1 X115.59 Y110.684 E66.77582
G1 X115.871 Y110.613 E66.7951
G1 X116.176 Y110.548 E66.81584
G1 X116.452 Y110.499 E66.83449
G1 X116.506 Y110.495 E66.83809
G1 X116.737 Y110.462 E66.85362
G1 X117.025 Y110.439 E66.87283
G1 X117.332 Y110.425 E66.89328
G1 X117.376 Y110.426 E66.8962
G1 X117.6 Y110.423 E66.91111
G1 X117.664 Y110.427 E66.91537
G1 X117.922 Y110.435 E66.93254
G1 X118.183 Y110.454 E66.94995
G1 X118.243 Y110.463 E66.95399
G1 X118.482 Y110.49 E66.96999
G1 X118.76 Y110.535 E66.98872
G1 X118.814 Y110.548 E66.99241
G1 X119.059 Y110.595 E67.00901
G1 X119.317 Y110.659 E67.02669
G1 X119.376 Y110.678 E67.03081
G1 X119.614 Y110.746 E67.04728
G1 X119.87 Y110.832 E67.06524
G1 X119.933 Y110.857 E67.06975
G1 X120.15 Y110.936 E67.08511
G1 X120.193 Y110.957 E67.0883
G1 X120.412 Y111.051 E67.10415
G1 X120.693 Y111.184 E67.12483
G1 X120.922 Y111.304 E67.14203
G1 X120.981 Y111.34 E67.14663
G1 X121.183 Y111.455 E67.16209
G1 X121.223 Y111.484 E67.16537
G1 X121.453 Y111.629 E67.18346
G1 X121.648 Y111.764 E67.19924
G1 X121.711 Y111.814 E67.20459
G1 X121.887 Y111.945 E67.21918
G1 X121.933 Y111.986 E67.22328
G1 X122.107 Y112.127 E67.23818
G1 X122.344 Y112.34 E67.25938
G1 X122.371 Y112.368 E67.26196
G1 X122.528 Y112.518 E67.27641
G1 X122.724 Y112.725 E67.29537
G1 X122.94 Y112.973 E67.31725
G1 X123.118 Y113.197 E67.33628
G1 X123.28 Y113.416 E67.3544
G1 X123.31 Y113.464 E67.35817
G1 X123.443 Y113.655 E67.37365
G1 X123.472 Y113.706 E67.37755
G1 X123.585 Y113.884 E67.39158
G1 X123.741 Y114.162 E67.41278
G1 X123.761 Y114.204 E67.41588
G1 X123.869 Y114.413 E67.43152
G1 X123.89 Y114.462 E67.43507
G1 X123.992 Y114.681 E67.45114
G1 X124.099 Y114.942 E67.46991
G1 X124.199 Y115.218 E67.48943
G1 X124.288 Y115.497 E67.50891
G1 X124.36 Y115.762 E67.52718
G1 X124.428 Y116.058 E67.54738
G1 X124.48 Y116.336 E67.5662
G1 X124.523 Y116.627 E67.58576
G1 X124.552 Y116.905 E67.60436
G1 X124.554 Y116.968 E67.60855
G1 X124.571 Y117.219 E67.62528
G1 X124.579 Y117.48 E67.64265
G1 X124.575 Y117.653 E67.65417
G1 X124.559 Y118.006 E67.67767
G1 X124.553 Y118.064 E67.68155
G1 X124.538 Y118.258 E67.69449
G1 X124.504 Y118.521 E67.71213
G1 X124.462 Y118.774 E67.72919
G1 X124.447 Y118.839 E67.73363
G1 X124.408 Y119.038 E67.74712
G1 X124.394 Y119.091 E67.75077
G1 X124.345 Y119.298 E67.76492
G1 X124.331 Y119.343 E67.76805
G1 X124.279 Y119.534 E67.78122
G1 X124.258 Y119.593 E67.78539
G1 X124.192 Y119.8 E67.79984
G1 X124.107 Y120.037 E67.81659
G1 X124.011 Y120.274 E67.8336
G1 X123.985 Y120.329 E67.83764
G1 X123.903 Y120.517 E67.85129
G1 X123.79 Y120.742 E67.86804
G1 X123.659 Y120.984 E67.88634
G1 X123.527 Y121.21 E67.90375
G1 X123.502 Y121.245 E67.90661
G1 X123.38 Y121.439 E67.92186
G1 X123.248 Y121.629 E67.93725
G1 X123.084 Y121.846 E67.95534
G1 X122.913 Y122.057 E67.97341
G1 X122.887 Y122.084 E67.9759
G1 X122.754 Y122.241 E67.98959
G1 X122.561 Y122.447 E68.00837
G1 X122.393 Y122.614 E68.02412
G1 X122.189 Y122.8 E68.04249
G1 X122.004 Y122.959 E68.05871
G1 X121.792 Y123.127 E68.07671
G1 X121.754 Y123.153 E68.07977
G1 X121.574 Y123.286 E68.09466
G1 X121.359 Y123.433 E68.11198
G1 X121.325 Y123.453 E68.11461
G1 X121.141 Y123.569 E68.12908
G1 X120.931 Y123.691 E68.14523
G1 X120.881 Y123.714 E68.14889
G1 X120.693 Y123.816 E68.16312
G1 X120.434 Y123.94 E68.18222
G1 X120.224 Y124.032 E68.19747
G1 X120.167 Y124.052 E68.20149
G1 X119.963 Y124.135 E68.21614
G1 X119.925 Y124.147 E68.21879
G1 X119.714 Y124.222 E68.23369
G1 X119.474 Y124.296 E68.25039
G1 X119.231 Y124.361 E68.26713
G1 X118.959 Y124.424 E68.2857
G1 X118.756 Y124.464 E68.29946
G1 X118.448 Y124.513 E68.32021
G1 X118.41 Y124.516 E68.32274
G1 X118.219 Y124.541 E68.33556
G1 X118.153 Y124.544 E68.33995
G1 X117.942 Y124.562 E68.35404
G1 X117.669 Y124.575 E68.37222
G0 F9000 X117.662 Y124.854
G0 X115.806 Y124.597
G0 X114.539 Y124.168
G0 X113.374 Y123.516
G0 X112.534 Y122.82
G0 X111.442 Y121.672
G0 X111.804 Y121.42
G1 F1500 X113.579 Y123.195 E68.5392
G0 F9000 X113.322 Y123.553
G0 X114.655 Y124.283
G0 X114.827 Y123.878
G1 F1500 X111.121 Y120.172 E68.88784
G0 F9000 X110.826 Y119.311
G1 F1500 X115.688 Y124.173 E69.34523
G0 F9000 X116.41 Y124.329
G1 F1500 X110.668 Y118.588 E69.88535
G0 F9000 X110.599 Y117.953
G1 F1500 X117.044 Y124.398 E70.49166
G0 F9000 X117.625 Y124.413
G1 F1500 X110.585 Y117.373 E71.15394
G0 F9000 X110.614 Y116.836
G1 F1500 X118.159 Y124.382 E71.86377
G0 F9000 X118.658 Y124.315
G1 F1500 X110.681 Y116.338 E72.6142
G0 F9000 X110.778 Y115.869
G1 F1500 X119.128 Y124.219 E73.39972
G0 F9000 X119.571 Y124.097
G1 F1500 X110.9 Y115.425 E74.21548
G0 F9000 X111.049 Y115.009
G1 F1500 X119.99 Y123.95 E75.05659
G0 F9000 X120.389 Y123.783
G1 F1500 X111.215 Y114.609 E75.91963
G0 F9000 X111.402 Y114.23
G1 F1500 X120.765 Y123.593 E76.80044
G0 F9000 X121.125 Y123.388
G1 F1500 X111.609 Y113.872 E77.69565
G0 F9000 X111.833 Y113.53
G1 F1500 X121.466 Y123.163 E78.60186
G0 F9000 X121.79 Y122.922
G1 F1500 X112.076 Y113.207 E79.51574
G0 F9000 X112.333 Y112.899
G1 F1500 X122.098 Y122.664 E80.43437
G0 F9000 X122.39 Y122.39
G1 F1500 X112.608 Y112.608 E81.3546
G0 F9000 X112.9 Y112.335
G1 F1500 X122.664 Y122.098 E82.27309
G0 F9000 X122.922 Y121.791
G1 F1500 X113.207 Y112.076 E83.18702
G0 F9000 X113.532 Y111.835
G1 F1500 X123.165 Y121.468 E84.09323
G0 F9000 X123.39 Y121.127
G1 F1500 X113.873 Y111.611 E84.98849
G0 F9000 X114.233 Y111.404
G1 F1500 X123.594 Y120.766 E85.86916
G0 F9000 X123.783 Y120.389
G1 F1500 X114.609 Y111.215 E86.73219
G0 F9000 X115.007 Y111.047
G1 F1500 X123.952 Y119.992 E87.57368
G0 F9000 X124.096 Y119.571
G1 F1500 X115.427 Y110.901 E88.38926
G0 F9000 X115.869 Y110.778
G1 F1500 X124.22 Y119.129 E89.17487
G0 F9000 X124.318 Y118.661
G1 F1500 X116.338 Y110.682 E89.92553
G0 F9000 X116.836 Y110.614
G1 F1500 X124.385 Y118.162 E90.63565
G0 F9000 X124.415 Y117.627
G1 F1500 X117.374 Y110.585 E91.29807
G0 F9000 X117.951 Y110.597
G1 F1500 X124.398 Y117.044 E91.90456
G0 F9000 X124.327 Y116.408
G1 F1500 X118.588 Y110.669 E92.44445
G0 F9000 X119.31 Y110.824
G1 F1500 X124.173 Y115.688 E92.90198
G0 F9000 X123.878 Y114.827
G1 F1500 X120.174 Y111.123 E93.25043
G0 F9000 X120.347 Y110.719
G0 X121.664 Y111.436
G0 X121.413 Y111.797
G1 F1500 X123.192 Y113.575 E93.41774
G0 F9000 X123.482 Y113.377
;MESH:NONMESH
G0 F300 X123.482 Y113.377 Z1.4
G0 F9000 X123.556 Y113.327
G0 X124.306 Y114.867
G0 X124.633 Y116.004
G0 X124.79 Y117.197
G0 X124.72 Y118.555
G0 X124.402 Y119.865
G0 X123.849 Y121.094
G0 X123.051 Y122.231
G0 X122.141 Y123.13
G0 X120.98 Y123.91
G0 X120.015 Y124.329
G0 X117.684 Y125.066
G0 X117.684 Y125.181
;TIME_ELAPSED:98.896829
;LAYER:3
M106 S255
;TYPE:WALL-INNER
;MESH:Vase v1.stl
G1 F1500 X117.645 Y125.18 E93.42034
G1 X117.409 Y125.183 E93.43604
G1 X117.363 Y125.18 E93.4391
G1 X117.121 Y125.173 E93.45521
G1 X116.843 Y125.154 E93.47374
G1 X116.558 Y125.124 E93.49281
G1 X116.289 Y125.087 E93.51087
G1 X116.01 Y125.037 E93.52972
G1 X115.962 Y125.025 E93.53302
G1 X115.731 Y124.976 E93.54872
G1 X115.44 Y124.902 E93.5687
G1 X115.411 Y124.892 E93.57074
G1 X115.188 Y124.827 E93.58619
G1 X115.142 Y124.81 E93.58945
G1 X114.897 Y124.728 E93.60664
G1 X114.657 Y124.638 E93.62369
G1 X114.608 Y124.616 E93.62726
G1 X114.397 Y124.528 E93.64247
G1 X114.347 Y124.503 E93.64619
G1 X114.135 Y124.407 E93.66167
G1 X113.879 Y124.276 E93.6808
G1 X113.842 Y124.254 E93.68366
G1 X113.62 Y124.131 E93.70054
G1 X113.399 Y123.997 E93.71774
G1 X113.148 Y123.83 E93.73779
G1 X112.922 Y123.669 E93.75625
G1 X112.702 Y123.5 E93.7747
G1 X112.48 Y123.316 E93.79388
G1 X112.451 Y123.288 E93.79656
G1 X112.276 Y123.134 E93.81207
G1 X112.241 Y123.099 E93.81536
G1 X112.075 Y122.941 E93.83061
G1 X112.035 Y122.898 E93.83451
G1 X111.857 Y122.715 E93.8515
G1 X111.82 Y122.669 E93.85542
G1 X111.644 Y122.474 E93.8729
G1 X111.613 Y122.434 E93.87626
G1 X111.441 Y122.223 E93.89437
G1 X111.266 Y121.99 E93.91376
G1 X111.084 Y121.727 E93.93503
G1 X111.051 Y121.672 E93.9393
G1 X110.911 Y121.453 E93.95659
G1 X110.886 Y121.406 E93.96013
G1 X110.761 Y121.193 E93.97656
G1 X110.735 Y121.137 E93.98066
G1 X110.612 Y120.905 E93.99813
G1 X110.59 Y120.854 E94.00183
G1 X110.476 Y120.615 E94.01944
G1 X110.458 Y120.568 E94.02279
G1 X110.358 Y120.335 E94.03966
G1 X110.244 Y120.025 E94.06163
G1 X110.143 Y119.717 E94.08319
G1 X110.065 Y119.435 E94.10265
G1 X110.053 Y119.379 E94.10646
G1 X109.993 Y119.136 E94.12311
G1 X109.983 Y119.076 E94.12716
G1 X109.931 Y118.819 E94.1446
G1 X109.881 Y118.489 E94.1668
G1 X109.849 Y118.202 E94.18601
G1 X109.846 Y118.143 E94.18994
G1 X109.826 Y117.888 E94.20696
G1 X109.826 Y117.83 E94.21081
G1 X109.817 Y117.572 E94.22799
G1 X109.819 Y117.513 E94.23191
G1 X109.821 Y117.246 E94.24968
G1 X109.825 Y117.203 E94.25255
G1 X109.839 Y116.917 E94.2716
G1 X109.867 Y116.621 E94.29137
G1 X109.875 Y116.573 E94.29461
G1 X109.911 Y116.304 E94.31266
G1 X109.962 Y116.014 E94.33225
G1 X110.029 Y115.705 E94.35328
G1 X110.113 Y115.386 E94.37523
G1 X110.203 Y115.093 E94.39562
G1 X110.305 Y114.806 E94.41588
G1 X110.426 Y114.5 E94.43777
G1 X110.447 Y114.457 E94.44095
G1 X110.553 Y114.218 E94.45834
G1 X110.579 Y114.169 E94.46203
G1 X110.686 Y113.948 E94.47836
G1 X110.719 Y113.892 E94.48269
G1 X110.84 Y113.669 E94.49956
G1 X110.872 Y113.618 E94.50357
G1 X111.01 Y113.387 E94.52147
G1 X111.183 Y113.125 E94.54235
G1 X111.365 Y112.873 E94.56303
G1 X111.396 Y112.836 E94.56624
G1 X111.559 Y112.627 E94.58387
G1 X111.775 Y112.375 E94.60595
G1 X111.974 Y112.16 E94.62544
G1 X112.013 Y112.124 E94.62897
G1 X112.207 Y111.93 E94.64722
G1 X112.422 Y111.732 E94.66666
G1 X112.47 Y111.695 E94.6707
G1 X112.664 Y111.53 E94.68764
G1 X112.714 Y111.493 E94.69177
G1 X112.92 Y111.33 E94.70925
G1 X112.963 Y111.301 E94.7127
G1 X113.162 Y111.158 E94.729
G1 X113.22 Y111.122 E94.73354
G1 X113.444 Y110.974 E94.7514
G1 X113.725 Y110.809 E94.77308
G1 X113.979 Y110.67 E94.79234
G1 X114.034 Y110.645 E94.79636
G1 X114.262 Y110.533 E94.81325
G1 X114.549 Y110.406 E94.83413
G1 X114.603 Y110.386 E94.83796
G1 X114.859 Y110.285 E94.85627
G1 X115.146 Y110.185 E94.87648
G1 X115.193 Y110.173 E94.87971
G1 X115.446 Y110.097 E94.89728
G1 X115.756 Y110.017 E94.91858
G1 X116.062 Y109.952 E94.93939
G1 X116.354 Y109.903 E94.95909
G1 X116.69 Y109.86 E94.98162
G1 X116.984 Y109.834 E95.00125
G1 X117.314 Y109.819 E95.02323
G1 X117.359 Y109.82 E95.02622
G1 X117.619 Y109.818 E95.04352
G1 X117.937 Y109.83 E95.06468
G1 X117.987 Y109.835 E95.06803
G1 X118.256 Y109.855 E95.08597
G1 X118.568 Y109.892 E95.10687
G1 X118.878 Y109.941 E95.12775
G1 X118.924 Y109.952 E95.13089
G1 X119.179 Y110.002 E95.14818
G1 X119.495 Y110.08 E95.16983
G1 X119.768 Y110.158 E95.18872
G1 X119.834 Y110.182 E95.19339
G1 X120.086 Y110.266 E95.21106
G1 X120.379 Y110.376 E95.23188
G1 X120.668 Y110.5 E95.2528
G1 X120.713 Y110.523 E95.25616
G1 X120.942 Y110.631 E95.273
G1 X121.223 Y110.78 E95.29416
G1 X121.274 Y110.811 E95.29813
G1 X121.496 Y110.938 E95.31514
G1 X121.541 Y110.968 E95.31874
G1 X121.765 Y111.11 E95.33638
G1 X122.021 Y111.287 E95.35708
G1 X122.062 Y111.321 E95.36063
G1 X122.277 Y111.482 E95.37849
G1 X122.515 Y111.678 E95.399
G1 X122.549 Y111.712 E95.4022
G1 X122.764 Y111.903 E95.42133
G1 X122.786 Y111.926 E95.42345
G1 X122.968 Y112.102 E95.44029
G1 X123.187 Y112.334 E95.46151
G1 X123.223 Y112.378 E95.4653
G1 X123.388 Y112.564 E95.48184
G1 X123.594 Y112.822 E95.5038
G1 X123.785 Y113.081 E95.5252
G1 X123.956 Y113.336 E95.54563
G1 X123.982 Y113.38 E95.54903
G1 X124.126 Y113.611 E95.56713
G1 X124.144 Y113.646 E95.56975
G1 X124.274 Y113.875 E95.58727
G1 X124.417 Y114.154 E95.60812
G1 X124.436 Y114.199 E95.61137
G1 X124.553 Y114.456 E95.63016
G1 X124.668 Y114.736 E95.65029
G1 X124.682 Y114.778 E95.65324
G1 X124.775 Y115.033 E95.67129
G1 X124.868 Y115.32 E95.69136
G1 X124.88 Y115.372 E95.69491
G1 X124.952 Y115.634 E95.71299
G1 X125.022 Y115.93 E95.73322
G1 X125.077 Y116.23 E95.75351
G1 X125.123 Y116.547 E95.77482
G1 X125.157 Y116.875 E95.79675
G1 X125.176 Y117.175 E95.81675
G1 X125.184 Y117.492 E95.83784
G1 X125.182 Y117.637 E95.84749
G1 X125.178 Y117.781 E95.85707
G1 X125.164 Y118.05 E95.87499
G1 X125.157 Y118.107 E95.87881
G1 X125.137 Y118.337 E95.89417
G1 X125.101 Y118.617 E95.91295
G1 X125.053 Y118.903 E95.93224
G1 X125.043 Y118.947 E95.93524
G1 X124.998 Y119.174 E95.95063
G1 X124.985 Y119.223 E95.954
G1 X124.932 Y119.445 E95.96919
G1 X124.916 Y119.498 E95.97287
G1 X124.858 Y119.711 E95.98755
G1 X124.837 Y119.771 E95.99178
G1 X124.767 Y119.991 E96.00714
G1 X124.674 Y120.252 E96.02557
G1 X124.651 Y120.302 E96.02923
G1 X124.558 Y120.537 E96.04604
G1 X124.449 Y120.777 E96.06358
G1 X124.426 Y120.82 E96.06682
G1 X124.32 Y121.035 E96.08277
G1 X124.184 Y121.289 E96.10193
G1 X124.044 Y121.525 E96.12019
G1 X123.89 Y121.766 E96.13921
G1 X123.865 Y121.798 E96.14191
G1 X123.727 Y122.001 E96.15824
G1 X123.566 Y122.215 E96.17606
G1 X123.379 Y122.446 E96.19583
G1 X123.208 Y122.642 E96.21313
G1 X122.992 Y122.871 E96.23407
G1 X122.807 Y123.056 E96.25147
G1 X122.766 Y123.091 E96.25506
G1 X122.593 Y123.253 E96.27082
G1 X122.375 Y123.437 E96.2898
G1 X122.164 Y123.605 E96.30774
G1 X122.119 Y123.636 E96.31138
G1 X121.922 Y123.783 E96.32773
G1 X121.89 Y123.803 E96.33024
G1 X121.697 Y123.935 E96.34579
G1 X121.656 Y123.958 E96.34892
G1 X121.452 Y124.089 E96.36505
G1 X121.213 Y124.227 E96.3834
G1 X121.171 Y124.247 E96.3865
G1 X120.95 Y124.363 E96.4031
G1 X120.913 Y124.38 E96.40581
G1 X120.701 Y124.485 E96.42155
G1 X120.66 Y124.501 E96.42447
G1 X120.437 Y124.6 E96.4407
G1 X120.403 Y124.612 E96.4431
G1 X120.172 Y124.703 E96.45962
G1 X119.924 Y124.791 E96.47712
G1 X119.871 Y124.805 E96.48077
G1 X119.645 Y124.877 E96.49655
G1 X119.601 Y124.887 E96.49955
G1 X119.361 Y124.953 E96.51611
G1 X119.098 Y125.015 E96.53408
G1 X119.05 Y125.023 E96.53732
G1 X118.819 Y125.069 E96.55299
G1 X118.543 Y125.111 E96.57156
G1 X118.49 Y125.116 E96.5751
G1 X118.258 Y125.145 E96.59065
G1 X117.98 Y125.168 E96.60921
G1 X117.928 Y125.169 E96.61267
G1 X117.684 Y125.181 E96.62892
G0 F9000 X117.697 Y125.581
;TYPE:WALL-OUTER
G1 F1500 X117.644 Y125.58 E96.63244
G1 X117.405 Y125.583 E96.64834
G1 X117.347 Y125.58 E96.65221
G1 X117.106 Y125.573 E96.66824
G1 X116.802 Y125.552 E96.68852
G1 X116.516 Y125.522 E96.70764
G1 X116.219 Y125.481 E96.72759
G1 X115.922 Y125.428 E96.74766
G1 X115.871 Y125.415 E96.75116
G1 X115.632 Y125.364 E96.76741
G1 X115.339 Y125.289 E96.78753
G1 X115.293 Y125.274 E96.79075
G1 X115.06 Y125.206 E96.8069
G1 X115.009 Y125.187 E96.81052
G1 X114.771 Y125.108 E96.8272
G1 X114.498 Y125.005 E96.84661
G1 X114.449 Y124.983 E96.85018
G1 X114.231 Y124.892 E96.8659
G1 X114.176 Y124.865 E96.86997
G1 X113.949 Y124.762 E96.88655
G1 X113.908 Y124.739 E96.88968
G1 X113.685 Y124.626 E96.90631
G1 X113.643 Y124.601 E96.90956
G1 X113.426 Y124.481 E96.92606
G1 X113.177 Y124.33 E96.94543
G1 X112.926 Y124.163 E96.96548
G1 X112.682 Y123.989 E96.98542
G1 X112.452 Y123.813 E97.00468
G1 X112.408 Y123.775 E97.00855
G1 X112.216 Y123.617 E97.02509
G1 X112.181 Y123.584 E97.02829
G1 X112.003 Y123.427 E97.04408
G1 X111.961 Y123.385 E97.04803
G1 X111.787 Y123.219 E97.06403
G1 X111.744 Y123.172 E97.06826
G1 X111.556 Y122.978 E97.08623
G1 X111.517 Y122.931 E97.0903
G1 X111.337 Y122.731 E97.1082
G1 X111.3 Y122.683 E97.11223
G1 X111.131 Y122.476 E97.13
G1 X110.932 Y122.212 E97.15199
G1 X110.897 Y122.158 E97.15628
G1 X110.746 Y121.941 E97.17386
G1 X110.711 Y121.883 E97.17837
G1 X110.564 Y121.652 E97.19658
G1 X110.537 Y121.602 E97.20036
G1 X110.403 Y121.373 E97.21801
G1 X110.376 Y121.315 E97.22227
G1 X110.252 Y121.079 E97.24
G1 X110.226 Y121.02 E97.24429
G1 X110.108 Y120.771 E97.26262
G1 X110.088 Y120.72 E97.26626
G1 X109.984 Y120.477 E97.28385
G1 X109.962 Y120.414 E97.28828
G1 X109.869 Y120.164 E97.30603
G1 X109.763 Y119.842 E97.32858
G1 X109.675 Y119.525 E97.35046
G1 X109.663 Y119.469 E97.35427
G1 X109.599 Y119.209 E97.37208
G1 X109.589 Y119.148 E97.3762
G1 X109.535 Y118.878 E97.39451
