;FLAVOR:Makerbot
;TIME:24221
;MINX:-33.6
;MINY:-41.75
;MINZ:0.3
;MAXX:112.5
;MAXY:73
;MAXZ:13.7
;Generated with Cura_SteamEngine 4.8.0
T0
M82 ;absolute extrusion mode
; **** FlashForge Creator Pro PRINTER start.gcode for dual extrusion only ****
M83 ; relative extrusion mode
M73 P0 ; enable build progress
G162 X Y F3000 ; home XY maximum
G161 Z F1200 ; home Z minimum
G92 Z-5 ; set Z to -5
G1 Z0 ; move Z to 0
G161 Z F100 ; home Z slowly
M132 X Y Z A B ; recall home offsets
M135 T0 ; load right extruder offsets
G1 X150 Y-70 Z30 F9000 ; move to wait position right hand side of the table
G130 X20 Y20 Z20 A20 B20 ; lower stepper Vrefs while heating
M127
M140 S100 T0 ; set bed temperature
M134 T0 ; stabilize bed temperature
M104 S230 T0 ; set right extruder temp
M104 S230 T1 ; set left extruder temp
M133 T0 ; stabilize right extruder temperature
M133 T1 ; stabilize left extruder temperature
G130 X127 Y127 Z40 A127 B127 ; default stepper Vrefs
G92 A0 B0 ; zero extruders
M135 T0 ; right tool
G1 Z0.4 ; position nozzle
G1 X110 Y-70 E25 F300 ; purge nozzle
G1 X120 Y-70 Z0.15 F1200 ; slow wipe
G1 X110 Y-70 Z0.5 F1200 ; lift
G1 Z4 F1200 ; raise
G1 X-110 F4000 ; move nozzle to left side of bed
G1 Z0.4 F1200 ; lower
M135 T1 ; left tool
G1 X-140 Y-70 F9000 ; reposition nozzle
G1 X-100 Y-70 E25 F300 ; purge nozzle
G1 X-110 Y-70 Z0.15 F1200 ; slow wipe
G1 X-100 Y-70 Z0.5 F1200 ; lift
G92 A0 B0 ; zero extruders
M135 T0 ; left or right tool
M73 P1 ;@body (notify GPX body has started)
; **** end of start.gcode ****
M83 ;relative extrusion mode
G1 F1800 E-1.3
;LAYER_COUNT:125
;LAYER:0
M127 T0
M104 T1 S175
G0 X28.258 Y-13.599 Z0.3
;TYPE:SKIRT
G1 F1800 E1.3
G1 F900 X28.474 Y-13.519 E0.01149
G1 X29.183 Y-13.171 E0.0394
G1 X29.854 Y-12.753 E0.03944
G1 X30.478 Y-12.27 E0.03937
G1 X31.051 Y-11.727 E0.03938
G1 X31.566 Y-11.128 E0.03941
G1 X32.017 Y-10.48 E0.03939
G1 X32.401 Y-9.789 E0.03944
G1 X32.713 Y-9.064 E0.03938
G1 X32.95 Y-8.311 E0.03938
G1 X33.109 Y-7.537 E0.03942
G1 X33.19 Y-6.752 E0.03937
G1 X33.2 Y-6.35 E0.02006
G1 X33.2 Y6.35 E0.63361
G1 X33.16 Y7.139 E0.03941
G1 X33.041 Y7.919 E0.03936
G1 X32.843 Y8.684 E0.03942
G1 X32.569 Y9.424 E0.03937
G1 X32.221 Y10.133 E0.0394
G1 X31.803 Y10.804 E0.03944
G1 X31.32 Y11.428 E0.03937
G1 X30.777 Y12.001 E0.03938
G1 X30.178 Y12.516 E0.03941
G1 X29.53 Y12.967 E0.03939
G1 X28.839 Y13.351 E0.03944
G1 X28.258 Y13.601 E0.03156
G1 X28.474 Y13.681 E0.01149
G1 X29.183 Y14.029 E0.0394
G1 X29.854 Y14.447 E0.03944
G1 X30.478 Y14.93 E0.03937
G1 X31.051 Y15.473 E0.03938
G1 X31.566 Y16.072 E0.03941
G1 X32.017 Y16.72 E0.03939
G1 X32.401 Y17.411 E0.03944
G1 X32.713 Y18.136 E0.03938
G1 X32.95 Y18.889 E0.03938
G1 X33.109 Y19.663 E0.03942
G1 X33.19 Y20.448 E0.03937
G1 X33.2 Y20.85 E0.02006
G1 X33.2 Y33.55 E0.63361
G1 X33.16 Y34.339 E0.03941
G1 X33.041 Y35.119 E0.03936
G1 X32.843 Y35.884 E0.03942
G1 X32.569 Y36.624 E0.03937
G1 X32.221 Y37.333 E0.0394
G1 X31.803 Y38.004 E0.03944
G1 X31.32 Y38.628 E0.03937
G1 X30.777 Y39.201 E0.03938
G1 X30.178 Y39.716 E0.03941
G1 X29.53 Y40.167 E0.03939
G1 X28.839 Y40.551 E0.03944
G1 X28.114 Y40.863 E0.03938
G1 X27.361 Y41.1 E0.03938
G1 X26.587 Y41.259 E0.03942
G1 X25.802 Y41.34 E0.03937
G1 X25.4 Y41.35 E0.02006
G1 X0.00 Y41.35 E1.26721
G1 X-.789 Y41.31 E0.03941
G1 X-1.058 Y41.269 E0.01358
G1 X-25.4 Y41.269 E1.21443
G1 X-26.189 Y41.229 E0.03941
G1 X-26.969 Y41.11 E0.03936
G1 X-27.734 Y40.912 E0.03942
G1 X-28.474 Y40.638 E0.03937
G1 X-29.183 Y40.29 E0.0394
G1 X-29.854 Y39.872 E0.03944
G1 X-30.478 Y39.389 E0.03937
G1 X-31.051 Y38.846 E0.03938
G1 X-31.566 Y38.247 E0.03941
G1 X-32.017 Y37.599 E0.03939
G1 X-32.401 Y36.908 E0.03944
G1 X-32.713 Y36.183 E0.03938
G1 X-32.95 Y35.43 E0.03938
G1 X-33.109 Y34.656 E0.03942
G1 X-33.19 Y33.871 E0.03937
G1 X-33.2 Y33.469 E0.02006
G1 X-33.2 Y20.769 E0.63361
G1 X-33.16 Y19.98 E0.03941
G1 X-33.041 Y19.2 E0.03936
G1 X-32.843 Y18.435 E0.03942
G1 X-32.569 Y17.695 E0.03937
G1 X-32.221 Y16.986 E0.0394
G1 X-31.803 Y16.315 E0.03944
G1 X-31.32 Y15.691 E0.03937
G1 X-30.777 Y15.118 E0.03938
G1 X-30.178 Y14.603 E0.03941
G1 X-29.53 Y14.152 E0.03939
G1 X-28.839 Y13.768 E0.03944
G1 X-28.359 Y13.562 E0.02606
G1 X-28.474 Y13.519 E0.00613
G1 X-29.183 Y13.171 E0.0394
G1 X-29.854 Y12.753 E0.03944
G1 X-30.478 Y12.27 E0.03937
G1 X-31.051 Y11.727 E0.03938
G1 X-31.566 Y11.128 E0.03941
G1 X-32.017 Y10.48 E0.03939
G1 X-32.401 Y9.789 E0.03944
G1 X-32.713 Y9.064 E0.03938
G1 X-32.95 Y8.311 E0.03938
G1 X-33.109 Y7.537 E0.03942
G1 X-33.19 Y6.752 E0.03937
G1 X-33.2 Y6.35 E0.02006
G1 X-33.2 Y-6.35 E0.63361
G1 X-33.16 Y-7.139 E0.03941
G1 X-33.041 Y-7.919 E0.03936
G1 X-32.843 Y-8.684 E0.03942
G1 X-32.569 Y-9.424 E0.03937
G1 X-32.221 Y-10.133 E0.0394
G1 X-31.803 Y-10.804 E0.03944
G1 X-31.32 Y-11.428 E0.03937
G1 X-30.777 Y-12.001 E0.03938
G1 X-30.178 Y-12.516 E0.03941
G1 X-29.53 Y-12.967 E0.03939
G1 X-28.839 Y-13.351 E0.03944
G1 X-28.258 Y-13.601 E0.03156
G1 X-28.474 Y-13.681 E0.01149
G1 X-29.183 Y-14.029 E0.0394
G1 X-29.854 Y-14.447 E0.03944
G1 X-30.478 Y-14.93 E0.03937
G1 X-31.051 Y-15.473 E0.03938
G1 X-31.566 Y-16.072 E0.03941
G1 X-32.017 Y-16.72 E0.03939
G1 X-32.401 Y-17.411 E0.03944
G1 X-32.713 Y-18.136 E0.03938
G1 X-32.95 Y-18.889 E0.03938
G1 X-33.109 Y-19.663 E0.03942
G1 X-33.19 Y-20.448 E0.03937
G1 X-33.2 Y-20.85 E0.02006
G1 X-33.2 Y-33.55 E0.63361
G1 X-33.16 Y-34.339 E0.03941
G1 X-33.041 Y-35.119 E0.03936
G1 X-32.843 Y-35.884 E0.03942
G1 X-32.569 Y-36.624 E0.03937
G1 X-32.221 Y-37.333 E0.0394
G1 X-31.803 Y-38.004 E0.03944
G1 X-31.32 Y-38.628 E0.03937
G1 X-30.777 Y-39.201 E0.03938
G1 X-30.178 Y-39.716 E0.03941
G1 X-29.53 Y-40.167 E0.03939
G1 X-28.839 Y-40.551 E0.03944
G1 X-28.114 Y-40.863 E0.03938
G1 X-27.361 Y-41.1 E0.03938
G1 X-26.587 Y-41.259 E0.03942
G1 X-25.802 Y-41.34 E0.03937
G1 X-25.4 Y-41.35 E0.02006
G1 X25.4 Y-41.35 E2.53442
G1 X26.189 Y-41.31 E0.03941
G1 X26.969 Y-41.191 E0.03936
G1 X27.734 Y-40.993 E0.03942
G1 X28.474 Y-40.719 E0.03937
G1 X29.183 Y-40.371 E0.0394
G1 X29.854 Y-39.953 E0.03944
G1 X30.478 Y-39.47 E0.03937
G1 X31.051 Y-38.927 E0.03938
G1 X31.566 Y-38.328 E0.03941
G1 X32.017 Y-37.68 E0.03939
G1 X32.401 Y-36.989 E0.03944
G1 X32.713 Y-36.264 E0.03938
G1 X32.95 Y-35.511 E0.03938
G1 X33.109 Y-34.737 E0.03942
G1 X33.19 Y-33.952 E0.03937
G1 X33.2 Y-33.55 E0.02006
G1 X33.2 Y-20.85 E0.63361
G1 X33.16 Y-20.061 E0.03941
G1 X33.041 Y-19.281 E0.03936
G1 X32.843 Y-18.516 E0.03942
G1 X32.569 Y-17.776 E0.03937
G1 X32.221 Y-17.067 E0.0394
G1 X31.803 Y-16.396 E0.03944
G1 X31.32 Y-15.772 E0.03937
G1 X30.777 Y-15.199 E0.03938
G1 X30.178 Y-14.684 E0.03941
G1 X29.53 Y-14.233 E0.03939
G1 X28.839 Y-13.849 E0.03944
G1 X28.258 Y-13.599 E0.03156
G0 F1800 X28.39 Y-13.119
G1 F900 X29.076 Y-12.772 E0.03835
G1 X29.723 Y-12.356 E0.03838
G1 X30.323 Y-11.875 E0.03837
G1 X30.87 Y-11.334 E0.03838
G1 X31.358 Y-10.739 E0.03839
G1 X31.781 Y-10.097 E0.03836
G1 X32.136 Y-9.414 E0.0384
G1 X32.417 Y-8.699 E0.03833
G1 X32.623 Y-7.957 E0.03842
G1 X32.751 Y-7.199 E0.03835
G1 X32.8 Y-6.35 E0.04243
G1 X32.8 Y6.35 E0.63361
G1 X32.76 Y7.118 E0.03837
G1 X32.641 Y7.878 E0.03838
G1 X32.443 Y8.621 E0.03836
G1 X32.169 Y9.34 E0.03839
G1 X31.822 Y10.026 E0.03835
G1 X31.406 Y10.673 E0.03838
G1 X30.925 Y11.273 E0.03837
G1 X30.384 Y11.82 E0.03838
G1 X29.789 Y12.308 E0.03839
G1 X29.147 Y12.731 E0.03836
G1 X28.464 Y13.086 E0.0384
G1 X27.749 Y13.367 E0.03833
G1 X27.007 Y13.573 E0.03842
G1 X26.858 Y13.598 E0.00754
G1 X26.928 Y13.609 E0.00354
G1 X27.671 Y13.807 E0.03836
G1 X28.39 Y14.081 E0.03839
G1 X29.076 Y14.428 E0.03835
G1 X29.723 Y14.844 E0.03838
G1 X30.323 Y15.325 E0.03837
G1 X30.87 Y15.866 E0.03838
G1 X31.358 Y16.461 E0.03839
G1 X31.781 Y17.103 E0.03836
G1 X32.136 Y17.786 E0.0384
G1 X32.417 Y18.501 E0.03833
G1 X32.623 Y19.243 E0.03842
G1 X32.751 Y20.001 E0.03835
G1 X32.8 Y20.85 E0.04243
G1 X32.8 Y33.55 E0.63361
G1 X32.76 Y34.318 E0.03837
G1 X32.641 Y35.078 E0.03838
G1 X32.443 Y35.821 E0.03836
G1 X32.169 Y36.54 E0.03839
G1 X31.822 Y37.226 E0.03835
G1 X31.406 Y37.873 E0.03838
G1 X30.925 Y38.473 E0.03837
G1 X30.384 Y39.02 E0.03838
G1 X29.789 Y39.508 E0.03839
G1 X29.147 Y39.931 E0.03836
G1 X28.464 Y40.286 E0.0384
G1 X27.749 Y40.567 E0.03833
G1 X27.007 Y40.773 E0.03842
G1 X26.249 Y40.901 E0.03835
G1 X25.4 Y40.95 E0.04243
G1 X0.00 Y40.95 E1.26721
G1 X-.768 Y40.91 E0.03837
G1 X-1.03 Y40.869 E0.01323
G1 X-25.4 Y40.869 E1.21582
G1 X-26.168 Y40.829 E0.03837
G1 X-26.928 Y40.71 E0.03838
G1 X-27.671 Y40.512 E0.03836
G1 X-28.39 Y40.238 E0.03839
G1 X-29.076 Y39.891 E0.03835
G1 X-29.723 Y39.475 E0.03838
G1 X-30.323 Y38.994 E0.03837
G1 X-30.87 Y38.453 E0.03838
G1 X-31.358 Y37.858 E0.03839
G1 X-31.781 Y37.216 E0.03836
G1 X-32.136 Y36.533 E0.0384
G1 X-32.417 Y35.818 E0.03833
G1 X-32.623 Y35.076 E0.03842
G1 X-32.751 Y34.318 E0.03835
G1 X-32.8 Y33.469 E0.04243
G1 X-32.8 Y20.769 E0.63361
G1 X-32.76 Y20.001 E0.03837
G1 X-32.641 Y19.241 E0.03838
G1 X-32.443 Y18.498 E0.03836
G1 X-32.169 Y17.779 E0.03839
G1 X-31.822 Y17.093 E0.03835
G1 X-31.406 Y16.446 E0.03838
G1 X-30.925 Y15.846 E0.03837
G1 X-30.384 Y15.299 E0.03838
G1 X-29.789 Y14.811 E0.03839
G1 X-29.147 Y14.388 E0.03836
G1 X-28.464 Y14.033 E0.0384
G1 X-27.749 Y13.752 E0.03833
G1 X-27.051 Y13.558 E0.03614
G1 X-27.671 Y13.393 E0.03201
G1 X-28.39 Y13.119 E0.03839
G1 X-29.076 Y12.772 E0.03835
G1 X-29.723 Y12.356 E0.03838
G1 X-30.323 Y11.875 E0.03837
G1 X-30.87 Y11.334 E0.03838
G1 X-31.358 Y10.739 E0.03839
G1 X-31.781 Y10.097 E0.03836
G1 X-32.136 Y9.414 E0.0384
G1 X-32.417 Y8.699 E0.03833
G1 X-32.623 Y7.957 E0.03842
G1 X-32.751 Y7.199 E0.03835
G1 X-32.8 Y6.35 E0.04243
G1 X-32.8 Y-6.35 E0.63361
G1 X-32.76 Y-7.118 E0.03837
G1 X-32.641 Y-7.878 E0.03838
G1 X-32.443 Y-8.621 E0.03836
G1 X-32.169 Y-9.34 E0.03839
G1 X-31.822 Y-10.026 E0.03835
G1 X-31.406 Y-10.673 E0.03838
G1 X-30.925 Y-11.273 E0.03837
G1 X-30.384 Y-11.82 E0.03838
G1 X-29.789 Y-12.308 E0.03839
G1 X-29.147 Y-12.731 E0.03836
G1 X-28.464 Y-13.086 E0.0384
G1 X-27.749 Y-13.367 E0.03833
G1 X-27.007 Y-13.573 E0.03842
G1 X-26.858 Y-13.598 E0.00754
G1 X-26.928 Y-13.609 E0.00354
G1 X-27.671 Y-13.807 E0.03836
G1 X-28.39 Y-14.081 E0.03839
G1 X-29.076 Y-14.428 E0.03835
G1 X-29.723 Y-14.844 E0.03838
G1 X-30.323 Y-15.325 E0.03837
G1 X-30.87 Y-15.866 E0.03838
G1 X-31.358 Y-16.461 E0.03839
G1 X-31.781 Y-17.103 E0.03836
G1 X-32.136 Y-17.786 E0.0384
G1 X-32.417 Y-18.501 E0.03833
G1 X-32.623 Y-19.243 E0.03842
G1 X-32.751 Y-20.001 E0.03835
G1 X-32.8 Y-20.85 E0.04243
G1 X-32.8 Y-33.55 E0.63361
G1 X-32.76 Y-34.318 E0.03837
G1 X-32.641 Y-35.078 E0.03838
G1 X-32.443 Y-35.821 E0.03836
G1 X-32.169 Y-36.54 E0.03839
G1 X-31.822 Y-37.226 E0.03835
G1 X-31.406 Y-37.873 E0.03838
G1 X-30.925 Y-38.473 E0.03837
G1 X-30.384 Y-39.02 E0.03838
G1 X-29.789 Y-39.508 E0.03839
G1 X-29.147 Y-39.931 E0.03836
G1 X-28.464 Y-40.286 E0.0384
G1 X-27.749 Y-40.567 E0.03833
G1 X-27.007 Y-40.773 E0.03842
G1 X-26.249 Y-40.901 E0.03835
G1 X-25.4 Y-40.95 E0.04243
G1 X25.4 Y-40.95 E2.53442
G1 X26.168 Y-40.91 E0.03837
G1 X26.928 Y-40.791 E0.03838
G1 X27.671 Y-40.593 E0.03836
G1 X28.39 Y-40.319 E0.03839
G1 X29.076 Y-39.972 E0.03835
G1 X29.723 Y-39.556 E0.03838
G1 X30.323 Y-39.075 E0.03837
G1 X30.87 Y-38.534 E0.03838
G1 X31.358 Y-37.939 E0.03839
G1 X31.781 Y-37.297 E0.03836
G1 X32.136 Y-36.614 E0.0384
G1 X32.417 Y-35.899 E0.03833
G1 X32.623 Y-35.157 E0.03842
G1 X32.751 Y-34.399 E0.03835
G1 X32.8 Y-33.55 E0.04243
G1 X32.8 Y-20.85 E0.63361
G1 X32.76 Y-20.082 E0.03837
G1 X32.641 Y-19.322 E0.03838
G1 X32.443 Y-18.579 E0.03836
G1 X32.169 Y-17.86 E0.03839
G1 X31.822 Y-17.174 E0.03835
G1 X31.406 Y-16.527 E0.03838
G1 X30.925 Y-15.927 E0.03837
G1 X30.384 Y-15.38 E0.03838
G1 X29.789 Y-14.892 E0.03839
G1 X29.147 Y-14.469 E0.03836
G1 X28.464 Y-14.114 E0.0384
G1 X27.749 Y-13.833 E0.03833
G1 X27.007 Y-13.627 E0.03842
G1 X26.858 Y-13.602 E0.00754
G1 X26.928 Y-13.591 E0.00354
G1 X27.671 Y-13.393 E0.03836
G1 X28.39 Y-13.119 E0.03839
G0 F1800 X28.303 Y-12.72
G1 F900 X28.966 Y-12.373 E0.03733
G1 X29.589 Y-11.958 E0.03735
G1 X30.163 Y-11.479 E0.0373
G1 X30.684 Y-10.942 E0.03733
G1 X31.143 Y-10.352 E0.03729
G1 X31.538 Y-9.716 E0.03735
G1 X31.862 Y-9.042 E0.03731
G1 X32.112 Y-8.337 E0.03732
G1 X32.286 Y-7.609 E0.03734
G1 X32.381 Y-6.867 E0.03732
G1 X32.4 Y-6.35 E0.02581
G1 X32.4 Y6.35 E0.63361
G1 X32.36 Y7.097 E0.03732
G1 X32.241 Y7.835 E0.03729
G1 X32.043 Y8.557 E0.03735
G1 X31.77 Y9.253 E0.0373
G1 X31.423 Y9.916 E0.03733
G1 X31.008 Y10.539 E0.03735
G1 X30.529 Y11.113 E0.0373
G1 X29.992 Y11.634 E0.03733
G1 X29.402 Y12.093 E0.03729
G1 X28.766 Y12.488 E0.03735
G1 X28.092 Y12.812 E0.03731
G1 X27.387 Y13.062 E0.03732
G1 X26.659 Y13.236 E0.03734
G1 X25.917 Y13.331 E0.03732
G1 X25.4 Y13.35 E0.02581
G1 X0.307 Y13.35 E1.25189
G1 X-25.4 Y13.35 E1.28253
G1 X-26.147 Y13.31 E0.03732
G1 X-26.885 Y13.191 E0.03729
G1 X-27.607 Y12.993 E0.03735
G1 X-28.303 Y12.72 E0.0373
G1 X-28.966 Y12.373 E0.03733
G1 X-29.589 Y11.958 E0.03735
G1 X-30.163 Y11.479 E0.0373
G1 X-30.684 Y10.942 E0.03733
G1 X-31.143 Y10.352 E0.03729
G1 X-31.538 Y9.716 E0.03735
G1 X-31.862 Y9.042 E0.03731
G1 X-32.112 Y8.337 E0.03732
G1 X-32.286 Y7.609 E0.03734
G1 X-32.381 Y6.867 E0.03732
G1 X-32.4 Y6.35 E0.02581
G1 X-32.4 Y-6.35 E0.63361
G1 X-32.36 Y-7.097 E0.03732
G1 X-32.241 Y-7.835 E0.03729
G1 X-32.043 Y-8.557 E0.03735
G1 X-31.77 Y-9.253 E0.0373
G1 X-31.423 Y-9.916 E0.03733
G1 X-31.008 Y-10.539 E0.03735
G1 X-30.529 Y-11.113 E0.0373
G1 X-29.992 Y-11.634 E0.03733
G1 X-29.402 Y-12.093 E0.03729
G1 X-28.766 Y-12.488 E0.03735
G1 X-28.092 Y-12.812 E0.03731
G1 X-27.387 Y-13.062 E0.03732
G1 X-26.659 Y-13.236 E0.03734
G1 X-25.917 Y-13.331 E0.03732
G1 X-25.4 Y-13.35 E0.02581
G1 X-.581 Y-13.35 E1.23822
G1 X0.013 Y-13.389 E0.0297
G1 X0.761 Y-13.357 E0.03735
G1 X0.808 Y-13.35 E0.00237
G1 X25.4 Y-13.35 E1.2269
G1 X26.147 Y-13.31 E0.03732
G1 X26.885 Y-13.191 E0.03729
G1 X27.607 Y-12.993 E0.03735
G1 X28.303 Y-12.72 E0.0373
G0 F1800 X27.541 Y-12.593
G1 F900 X28.214 Y-12.32 E0.03623
G1 X28.853 Y-11.975 E0.03623
G1 X29.45 Y-11.561 E0.03625
G1 X29.998 Y-11.085 E0.03621
G1 X30.491 Y-10.551 E0.03626
G1 X30.921 Y-9.966 E0.03622
G1 X31.285 Y-9.337 E0.03626
G1 X31.578 Y-8.672 E0.03625
G1 X31.796 Y-7.979 E0.03624
G1 X31.936 Y-7.267 E0.0362
G1 X32 Y-6.35 E0.04586
G1 X32 Y6.35 E0.63361
G1 X31.96 Y7.075 E0.03623
G1 X31.841 Y7.792 E0.03626
G1 X31.643 Y8.491 E0.03625
G1 X31.37 Y9.164 E0.03623
G1 X31.025 Y9.803 E0.03623
G1 X30.611 Y10.4 E0.03625
G1 X30.135 Y10.948 E0.03621
G1 X29.601 Y11.441 E0.03626
G1 X29.016 Y11.871 E0.03622
G1 X28.387 Y12.235 E0.03626
G1 X27.722 Y12.528 E0.03625
G1 X27.029 Y12.746 E0.03624
G1 X26.317 Y12.886 E0.0362
G1 X25.4 Y12.95 E0.04586
G1 X0.293 Y12.95 E1.25259
G1 X-25.4 Y12.95 E1.28183
G1 X-26.125 Y12.91 E0.03623
G1 X-26.842 Y12.791 E0.03626
G1 X-27.541 Y12.593 E0.03625
G1 X-28.214 Y12.32 E0.03623
G1 X-28.853 Y11.975 E0.03623
G1 X-29.45 Y11.561 E0.03625
G1 X-29.998 Y11.085 E0.03621
G1 X-30.491 Y10.551 E0.03626
G1 X-30.921 Y9.966 E0.03622
G1 X-31.285 Y9.337 E0.03626
G1 X-31.578 Y8.672 E0.03625
G1 X-31.796 Y7.979 E0.03624
G1 X-31.936 Y7.267 E0.0362
G1 X-32 Y6.35 E0.04586
G1 X-32 Y-6.35 E0.63361
G1 X-31.96 Y-7.075 E0.03623
G1 X-31.841 Y-7.792 E0.03626
G1 X-31.643 Y-8.491 E0.03625
G1 X-31.37 Y-9.164 E0.03623
G1 X-31.025 Y-9.803 E0.03623
G1 X-30.611 Y-10.4 E0.03625
G1 X-30.135 Y-10.948 E0.03621
G1 X-29.601 Y-11.441 E0.03626
G1 X-29.016 Y-11.871 E0.03622
G1 X-28.387 Y-12.235 E0.03626
G1 X-27.722 Y-12.528 E0.03625
G1 X-27.029 Y-12.746 E0.03624
G1 X-26.317 Y-12.886 E0.0362
G1 X-25.4 Y-12.95 E0.04586
G1 X-.583 Y-12.95 E1.23813
G1 X0.06 Y-12.989 E0.03214
G1 X0.786 Y-12.953 E0.03626
G1 X0.805 Y-12.95 E0.00096
G1 X25.4 Y-12.95 E1.22705
G1 X26.125 Y-12.91 E0.03623
G1 X26.842 Y-12.791 E0.03626
G1 X27.541 Y-12.593 E0.03625
G0 F1800 X27.472 Y-12.193
G1 F900 X28.121 Y-11.921 E0.03511
G1 X28.735 Y-11.576 E0.03514
G1 X29.306 Y-11.165 E0.0351
G1 X29.827 Y-10.691 E0.03514
G1 X30.291 Y-10.161 E0.03514
G1 X30.691 Y-9.582 E0.03511
G1 X31.023 Y-8.961 E0.03513
G1 X31.283 Y-8.307 E0.03511
G1 X31.467 Y-7.627 E0.03515
G1 X31.573 Y-6.931 E0.03512
G1 X31.6 Y-6.35 E0.02902
G1 X31.6 Y6.35 E0.63361
G1 X31.56 Y7.053 E0.03513
G1 X31.441 Y7.747 E0.03513
G1 X31.243 Y8.422 E0.03509
