;FLAVOR:Makerbot
;TIME:286
;MINX:-11.5
;MINY:-16.533
;MINZ:0.3
;MAXX:112.5
;MAXY:73
;MAXZ:4.9
;Generated with Cura_SteamEngine 4.8.0
T0
M82 ;absolute extrusion mode
; **** FlashForge Creator Pro PRINTER start.gcode for dual extrusion only ****
M83 ; relative extrusion mode
M73 P0 ; enable build progress
G162 X Y F3000 ; home XY maximum
G161 Z F1200 ; home Z minimum
G92 Z-5 ; set Z to -5
G1 Z0 ; move Z to 0
G161 Z F100 ; home Z slowly
M132 X Y Z A B ; recall home offsets
M135 T0 ; load right extruder offsets
G1 X150 Y-70 Z30 F9000 ; move to wait position right hand side of the table
G130 X20 Y20 Z20 A20 B20 ; lower stepper Vrefs while heating
M127
M140 S60 T0 ; set bed temperature
M134 T0 ; stabilize bed temperature
M104 S228 T0 ; set right extruder temp
M104 S200 T1 ; set left extruder temp
M133 T0 ; stabilize right extruder temperature
M133 T1 ; stabilize left extruder temperature
G130 X127 Y127 Z40 A127 B127 ; default stepper Vrefs
G92 A0 B0 ; zero extruders
M135 T0 ; right tool
G1 Z0.4 ; position nozzle
G1 X110 Y-70 E25 F300 ; purge nozzle
G1 X120 Y-70 Z0.15 F1200 ; slow wipe
G1 X110 Y-70 Z0.5 F1200 ; lift
G1 Z4 F1200 ; raise
G1 X-110 F4000 ; move nozzle to left side of bed
G1 Z0.4 F1200 ; lower
M135 T1 ; left tool
G1 X-140 Y-70 F9000 ; reposition nozzle
G1 X-100 Y-70 E25 F300 ; purge nozzle
G1 X-110 Y-70 Z0.15 F1200 ; slow wipe
G1 X-100 Y-70 Z0.5 F1200 ; lift
G92 A0 B0 ; zero extruders
M135 T0 ; left or right tool
M73 P1 ;@body (notify GPX body has started)
; **** end of start.gcode ****
M83 ;relative extrusion mode
G1 F1800 E-1.3
;LAYER_COUNT:19
;LAYER:0
M127 T0
M104 T1 S175
G0 X1.993 Y5.3 Z0.3
;TYPE:SKIRT
G1 F1800 E1.3
G1 F900 X-2.5 Y5.3 E0.22416
G1 X-3.289 Y5.26 E0.03941
G1 X-4.069 Y5.141 E0.03936
G1 X-4.834 Y4.943 E0.03942
G1 X-5.574 Y4.669 E0.03937
G1 X-6.283 Y4.321 E0.0394
G1 X-6.954 Y3.903 E0.03944
G1 X-7.578 Y3.42 E0.03937
G1 X-8.151 Y2.877 E0.03938
G1 X-8.666 Y2.278 E0.03941
G1 X-9.117 Y1.63 E0.03939
G1 X-9.501 Y0.939 E0.03944
G1 X-9.813 Y0.214 E0.03938
G1 X-10.05 Y-.539 E0.03938
G1 X-10.209 Y-1.313 E0.03942
G1 X-10.29 Y-2.098 E0.03937
G1 X-10.3 Y-2.5 E0.02006
G1 X-10.3 Y-7.5 E0.24945
G1 X-10.26 Y-8.289 E0.03941
G1 X-10.141 Y-9.069 E0.03936
G1 X-9.943 Y-9.834 E0.03942
G1 X-9.669 Y-10.574 E0.03937
G1 X-9.321 Y-11.283 E0.0394
G1 X-8.903 Y-11.954 E0.03944
G1 X-8.42 Y-12.578 E0.03937
G1 X-7.877 Y-13.151 E0.03938
G1 X-7.278 Y-13.666 E0.03941
G1 X-6.63 Y-14.117 E0.03939
G1 X-5.939 Y-14.501 E0.03944
G1 X-5.214 Y-14.813 E0.03938
G1 X-4.461 Y-15.05 E0.03938
G1 X-3.687 Y-15.209 E0.03942
G1 X-2.902 Y-15.29 E0.03937
G1 X-2.5 Y-15.3 E0.02006
G1 X1.914 Y-15.3 E0.22022
G1 X2.416 Y-15.337 E0.02511
G1 X3.205 Y-15.315 E0.03938
G1 X3.32 Y-15.3 E0.00579
G1 X7.5 Y-15.3 E0.20854
G1 X8.289 Y-15.26 E0.03941
G1 X9.069 Y-15.141 E0.03936
G1 X9.834 Y-14.943 E0.03942
G1 X10.574 Y-14.669 E0.03937
G1 X11.283 Y-14.321 E0.0394
G1 X11.954 Y-13.903 E0.03944
G1 X12.578 Y-13.42 E0.03937
G1 X13.151 Y-12.877 E0.03938
G1 X13.666 Y-12.278 E0.03941
G1 X14.117 Y-11.63 E0.03939
G1 X14.501 Y-10.939 E0.03944
G1 X14.813 Y-10.214 E0.03938
G1 X15.05 Y-9.461 E0.03938
G1 X15.209 Y-8.687 E0.03942
G1 X15.29 Y-7.902 E0.03937
G1 X15.3 Y-7.5 E0.02006
G1 X15.3 Y-2.5 E0.24945
G1 X15.26 Y-1.711 E0.03941
G1 X15.141 Y-.931 E0.03936
G1 X14.943 Y-.166 E0.03942
G1 X14.669 Y0.574 E0.03937
G1 X14.321 Y1.283 E0.0394
G1 X13.903 Y1.954 E0.03944
G1 X13.42 Y2.578 E0.03937
G1 X12.877 Y3.151 E0.03938
G1 X12.278 Y3.666 E0.03941
G1 X11.63 Y4.117 E0.03939
G1 X10.939 Y4.501 E0.03944
G1 X10.214 Y4.813 E0.03938
G1 X9.461 Y5.05 E0.03938
G1 X8.687 Y5.209 E0.03942
G1 X7.902 Y5.29 E0.03937
G1 X7.5 Y5.3 E0.02006
G1 X2.836 Y5.3 E0.23269
G1 X2.548 Y5.319 E0.0144
G1 X1.993 Y5.3 E0.02771
G0 F1800 X2.036 Y4.9
G1 F900 X-2.5 Y4.9 E0.2263
G1 X-3.268 Y4.86 E0.03837
G1 X-4.028 Y4.741 E0.03838
G1 X-4.771 Y4.543 E0.03836
G1 X-5.49 Y4.269 E0.03839
G1 X-6.176 Y3.922 E0.03835
G1 X-6.823 Y3.506 E0.03838
G1 X-7.423 Y3.025 E0.03837
G1 X-7.97 Y2.484 E0.03838
G1 X-8.458 Y1.889 E0.03839
G1 X-8.881 Y1.247 E0.03836
G1 X-9.236 Y0.564 E0.0384
G1 X-9.517 Y-.151 E0.03833
G1 X-9.723 Y-.893 E0.03842
G1 X-9.851 Y-1.651 E0.03835
G1 X-9.9 Y-2.5 E0.04243
G1 X-9.9 Y-7.5 E0.24945
G1 X-9.86 Y-8.268 E0.03837
G1 X-9.741 Y-9.028 E0.03838
G1 X-9.543 Y-9.771 E0.03836
G1 X-9.269 Y-10.49 E0.03839
G1 X-8.922 Y-11.176 E0.03835
G1 X-8.506 Y-11.823 E0.03838
G1 X-8.025 Y-12.423 E0.03837
G1 X-7.484 Y-12.97 E0.03838
G1 X-6.889 Y-13.458 E0.03839
G1 X-6.247 Y-13.881 E0.03836
G1 X-5.564 Y-14.236 E0.0384
G1 X-4.849 Y-14.517 E0.03833
G1 X-4.107 Y-14.723 E0.03842
G1 X-3.349 Y-14.851 E0.03835
G1 X-2.5 Y-14.9 E0.04243
G1 X1.925 Y-14.9 E0.22076
G1 X2.465 Y-14.938 E0.02701
G1 X3.234 Y-14.911 E0.03839
G1 X3.313 Y-14.9 E0.00398
G1 X7.5 Y-14.9 E0.20889
G1 X8.268 Y-14.86 E0.03837
G1 X9.028 Y-14.741 E0.03838
G1 X9.771 Y-14.543 E0.03836
G1 X10.49 Y-14.269 E0.03839
G1 X11.176 Y-13.922 E0.03835
G1 X11.823 Y-13.506 E0.03838
G1 X12.423 Y-13.025 E0.03837
G1 X12.97 Y-12.484 E0.03838
G1 X13.458 Y-11.889 E0.03839
G1 X13.881 Y-11.247 E0.03836
G1 X14.236 Y-10.564 E0.0384
G1 X14.517 Y-9.849 E0.03833
G1 X14.723 Y-9.107 E0.03842
G1 X14.851 Y-8.349 E0.03835
G1 X14.9 Y-7.5 E0.04243
G1 X14.9 Y-2.5 E0.24945
G1 X14.86 Y-1.732 E0.03837
G1 X14.741 Y-.972 E0.03838
G1 X14.543 Y-.229 E0.03836
G1 X14.269 Y0.49 E0.03839
G1 X13.922 Y1.176 E0.03835
G1 X13.506 Y1.823 E0.03838
G1 X13.025 Y2.423 E0.03837
G1 X12.484 Y2.97 E0.03838
G1 X11.889 Y3.458 E0.03839
G1 X11.247 Y3.881 E0.03836
G1 X10.564 Y4.236 E0.0384
G1 X9.849 Y4.517 E0.03833
G1 X9.107 Y4.723 E0.03842
G1 X8.349 Y4.851 E0.03835
G1 X7.5 Y4.9 E0.04243
G1 X2.814 Y4.9 E0.23379
G1 X2.036 Y4.9 E0.03881
G0 F1800 X2.043 Y4.5
G1 F900 X-2.5 Y4.5 E0.22665
G1 X-3.247 Y4.46 E0.03732
G1 X-3.985 Y4.341 E0.03729
G1 X-4.707 Y4.143 E0.03735
G1 X-5.403 Y3.87 E0.0373
G1 X-6.066 Y3.523 E0.03733
G1 X-6.689 Y3.108 E0.03735
G1 X-7.263 Y2.629 E0.0373
G1 X-7.784 Y2.092 E0.03733
G1 X-8.243 Y1.502 E0.03729
G1 X-8.638 Y0.866 E0.03735
G1 X-8.962 Y0.192 E0.03731
G1 X-9.212 Y-.513 E0.03732
G1 X-9.386 Y-1.241 E0.03734
G1 X-9.481 Y-1.983 E0.03732
G1 X-9.5 Y-2.5 E0.02581
G1 X-9.5 Y-7.5 E0.24945
G1 X-9.46 Y-8.247 E0.03732
G1 X-9.341 Y-8.985 E0.03729
G1 X-9.143 Y-9.707 E0.03735
G1 X-8.87 Y-10.403 E0.0373
G1 X-8.523 Y-11.066 E0.03733
G1 X-8.108 Y-11.689 E0.03735
G1 X-7.629 Y-12.263 E0.0373
G1 X-7.092 Y-12.784 E0.03733
G1 X-6.502 Y-13.243 E0.03729
G1 X-5.866 Y-13.638 E0.03735
G1 X-5.192 Y-13.962 E0.03731
G1 X-4.487 Y-14.212 E0.03732
G1 X-3.759 Y-14.386 E0.03734
G1 X-3.017 Y-14.481 E0.03732
G1 X-2.5 Y-14.5 E0.02581
G1 X1.919 Y-14.5 E0.22046
G1 X2.513 Y-14.539 E0.0297
G1 X3.261 Y-14.507 E0.03735
G1 X3.308 Y-14.5 E0.00237
G1 X7.5 Y-14.5 E0.20914
G1 X8.247 Y-14.46 E0.03732
G1 X8.985 Y-14.341 E0.03729
G1 X9.707 Y-14.143 E0.03735
G1 X10.403 Y-13.87 E0.0373
G1 X11.066 Y-13.523 E0.03733
G1 X11.689 Y-13.108 E0.03735
G1 X12.263 Y-12.629 E0.0373
G1 X12.784 Y-12.092 E0.03733
G1 X13.243 Y-11.502 E0.03729
G1 X13.638 Y-10.866 E0.03735
G1 X13.962 Y-10.192 E0.03731
G1 X14.212 Y-9.487 E0.03732
G1 X14.386 Y-8.759 E0.03734
G1 X14.481 Y-8.017 E0.03732
G1 X14.5 Y-7.5 E0.02581
G1 X14.5 Y-2.5 E0.24945
G1 X14.46 Y-1.753 E0.03732
G1 X14.341 Y-1.015 E0.03729
G1 X14.143 Y-.293 E0.03735
G1 X13.87 Y0.403 E0.0373
G1 X13.523 Y1.066 E0.03733
G1 X13.108 Y1.689 E0.03735
G1 X12.629 Y2.263 E0.0373
G1 X12.092 Y2.784 E0.03733
G1 X11.502 Y3.243 E0.03729
G1 X10.866 Y3.638 E0.03735
G1 X10.192 Y3.962 E0.03731
G1 X9.487 Y4.212 E0.03732
G1 X8.759 Y4.386 E0.03734
G1 X8.017 Y4.481 E0.03732
G1 X7.5 Y4.5 E0.02581
G1 X2.807 Y4.5 E0.23413
G1 X2.043 Y4.5 E0.03812
G0 F1800 X2.057 Y4.1
G1 F900 X-2.5 Y4.1 E0.22735
G1 X-3.225 Y4.06 E0.03623
G1 X-3.942 Y3.941 E0.03626
G1 X-4.641 Y3.743 E0.03625
G1 X-5.314 Y3.47 E0.03623
G1 X-5.953 Y3.125 E0.03623
G1 X-6.55 Y2.711 E0.03625
G1 X-7.098 Y2.235 E0.03621
G1 X-7.591 Y1.701 E0.03626
G1 X-8.021 Y1.116 E0.03622
G1 X-8.385 Y0.487 E0.03626
G1 X-8.678 Y-.178 E0.03625
G1 X-8.896 Y-.871 E0.03624
G1 X-9.036 Y-1.583 E0.0362
G1 X-9.1 Y-2.5 E0.04586
G1 X-9.1 Y-7.5 E0.24945
G1 X-9.06 Y-8.225 E0.03623
G1 X-8.941 Y-8.942 E0.03626
G1 X-8.743 Y-9.641 E0.03625
G1 X-8.47 Y-10.314 E0.03623
G1 X-8.125 Y-10.953 E0.03623
G1 X-7.711 Y-11.55 E0.03625
G1 X-7.235 Y-12.098 E0.03621
G1 X-6.701 Y-12.591 E0.03626
G1 X-6.116 Y-13.021 E0.03622
G1 X-5.487 Y-13.385 E0.03626
G1 X-4.822 Y-13.678 E0.03625
G1 X-4.129 Y-13.896 E0.03624
G1 X-3.417 Y-14.036 E0.0362
G1 X-2.5 Y-14.1 E0.04586
G1 X1.917 Y-14.1 E0.22037
G1 X2.56 Y-14.139 E0.03214
G1 X3.286 Y-14.103 E0.03626
G1 X3.305 Y-14.1 E0.00096
G1 X7.5 Y-14.1 E0.20929
G1 X8.225 Y-14.06 E0.03623
G1 X8.942 Y-13.941 E0.03626
G1 X9.641 Y-13.743 E0.03625
G1 X10.314 Y-13.47 E0.03623
G1 X10.953 Y-13.125 E0.03623
G1 X11.55 Y-12.711 E0.03625
G1 X12.098 Y-12.235 E0.03621
G1 X12.591 Y-11.701 E0.03626
G1 X13.021 Y-11.116 E0.03622
G1 X13.385 Y-10.487 E0.03626
G1 X13.678 Y-9.822 E0.03625
G1 X13.896 Y-9.129 E0.03624
G1 X14.036 Y-8.417 E0.0362
G1 X14.1 Y-7.5 E0.04586
G1 X14.1 Y-2.5 E0.24945
G1 X14.06 Y-1.775 E0.03623
G1 X13.941 Y-1.058 E0.03626
G1 X13.743 Y-.359 E0.03625
G1 X13.47 Y0.314 E0.03623
G1 X13.125 Y0.953 E0.03623
G1 X12.711 Y1.55 E0.03625
G1 X12.235 Y2.098 E0.03621
G1 X11.701 Y2.591 E0.03626
G1 X11.116 Y3.021 E0.03622
G1 X10.487 Y3.385 E0.03626
G1 X9.822 Y3.678 E0.03625
G1 X9.129 Y3.896 E0.03624
G1 X8.417 Y4.036 E0.0362
G1 X7.5 Y4.1 E0.04586
G1 X2.793 Y4.1 E0.23483
G1 X2.057 Y4.1 E0.03672
G0 F1800 X2.077 Y3.7
G1 F900 X-2.5 Y3.7 E0.22835
G1 X-3.203 Y3.66 E0.03513
G1 X-3.897 Y3.541 E0.03513
G1 X-4.572 Y3.343 E0.03509
G1 X-5.221 Y3.071 E0.03511
G1 X-5.835 Y2.726 E0.03514
G1 X-6.406 Y2.315 E0.0351
G1 X-6.927 Y1.841 E0.03514
G1 X-7.391 Y1.311 E0.03514
G1 X-7.791 Y0.732 E0.03511
G1 X-8.123 Y0.111 E0.03513
G1 X-8.383 Y-.543 E0.03511
G1 X-8.567 Y-1.223 E0.03515
G1 X-8.673 Y-1.919 E0.03512
G1 X-8.7 Y-2.5 E0.02902
G1 X-8.7 Y-7.5 E0.24945
G1 X-8.66 Y-8.203 E0.03513
G1 X-8.541 Y-8.897 E0.03513
G1 X-8.343 Y-9.572 E0.03509
G1 X-8.071 Y-10.221 E0.03511
G1 X-7.726 Y-10.835 E0.03514
G1 X-7.315 Y-11.406 E0.0351
G1 X-6.841 Y-11.927 E0.03514
G1 X-6.311 Y-12.391 E0.03514
G1 X-5.732 Y-12.791 E0.03511
G1 X-5.111 Y-13.123 E0.03513
G1 X-4.457 Y-13.383 E0.03511
G1 X-3.777 Y-13.567 E0.03515
G1 X-3.081 Y-13.673 E0.03512
G1 X-2.5 Y-13.7 E0.02902
G1 X1.903 Y-13.7 E0.21967
G1 X2.606 Y-13.739 E0.03513
G1 X3.274 Y-13.7 E0.03338
G1 X7.5 Y-13.7 E0.21084
G1 X8.203 Y-13.66 E0.03513
G1 X8.897 Y-13.541 E0.03513
G1 X9.572 Y-13.343 E0.03509
G1 X10.221 Y-13.071 E0.03511
G1 X10.835 Y-12.726 E0.03514
G1 X11.406 Y-12.315 E0.0351
G1 X11.927 Y-11.841 E0.03514
G1 X12.391 Y-11.311 E0.03514
G1 X12.791 Y-10.732 E0.03511
G1 X13.123 Y-10.111 E0.03513
G1 X13.383 Y-9.457 E0.03511
G1 X13.567 Y-8.777 E0.03515
G1 X13.673 Y-8.081 E0.03512
G1 X13.7 Y-7.5 E0.02902
G1 X13.7 Y-2.5 E0.24945
G1 X13.66 Y-1.797 E0.03513
G1 X13.541 Y-1.103 E0.03513
G1 X13.343 Y-.428 E0.03509
G1 X13.071 Y0.221 E0.03511
G1 X12.726 Y0.835 E0.03514
G1 X12.315 Y1.406 E0.0351
G1 X11.841 Y1.927 E0.03514
G1 X11.311 Y2.391 E0.03514
G1 X10.732 Y2.791 E0.03511
G1 X10.111 Y3.123 E0.03513
G1 X9.457 Y3.383 E0.03511
G1 X8.777 Y3.567 E0.03515
G1 X8.081 Y3.673 E0.03512
G1 X7.5 Y3.7 E0.02902
G1 X2.781 Y3.7 E0.23543
G1 X2.077 Y3.7 E0.03512
G0 F1800 X2.083 Y3.3
G1 F900 X-2.5 Y3.3 E0.22865
G1 X-3.18 Y3.26 E0.03398
G1 X-3.85 Y3.141 E0.03395
G1 X-4.502 Y2.944 E0.03398
G1 X-5.126 Y2.672 E0.03396
G1 X-5.714 Y2.328 E0.03399
G1 X-6.258 Y1.918 E0.03399
G1 X-6.749 Y1.447 E0.03394
G1 X-7.183 Y0.922 E0.03398
G1 X-7.552 Y0.35 E0.03396
G1 X-7.851 Y-.262 E0.03398
G1 X-8.076 Y-.904 E0.03394
G1 X-8.225 Y-1.569 E0.034
G1 X-8.3 Y-2.5 E0.0466
G1 X-8.3 Y-7.5 E0.24945
G1 X-8.26 Y-8.18 E0.03398
G1 X-8.141 Y-8.85 E0.03395
G1 X-7.944 Y-9.502 E0.03398
G1 X-7.672 Y-10.126 E0.03396
G1 X-7.328 Y-10.714 E0.03399
G1 X-6.918 Y-11.258 E0.03399
G1 X-6.447 Y-11.749 E0.03394
G1 X-5.922 Y-12.183 E0.03398
G1 X-5.35 Y-12.552 E0.03396
G1 X-4.738 Y-12.851 E0.03398
G1 X-4.096 Y-13.076 E0.03394
G1 X-3.431 Y-13.225 E0.034
G1 X-2.5 Y-13.3 E0.0466
G1 X1.94 Y-13.3 E0.22151
G1 X1.97 Y-13.305 E0.00152
G1 X2.65 Y-13.339 E0.03397
G1 X3.213 Y-13.3 E0.02816
G1 X7.5 Y-13.3 E0.21388
G1 X8.18 Y-13.26 E0.03398
G1 X8.85 Y-13.141 E0.03395
G1 X9.502 Y-12.944 E0.03398
G1 X10.126 Y-12.672 E0.03396
G1 X10.714 Y-12.328 E0.03399
G1 X11.258 Y-11.918 E0.03399
G1 X11.749 Y-11.447 E0.03394
G1 X12.183 Y-10.922 E0.03398
G1 X12.552 Y-10.35 E0.03396
G1 X12.851 Y-9.738 E0.03398
G1 X13.076 Y-9.096 E0.03394
G1 X13.225 Y-8.431 E0.034
G1 X13.3 Y-7.5 E0.0466
G1 X13.3 Y-2.5 E0.24945
G1 X13.26 Y-1.82 E0.03398
G1 X13.141 Y-1.15 E0.03395
G1 X12.944 Y-.498 E0.03398
G1 X12.672 Y0.126 E0.03396
G1 X12.328 Y0.714 E0.03399
G1 X11.918 Y1.258 E0.03399
G1 X11.447 Y1.749 E0.03394
G1 X10.922 Y2.183 E0.03398
G1 X10.35 Y2.552 E0.03396
G1 X9.738 Y2.851 E0.03398
G1 X9.096 Y3.076 E0.03394
G1 X8.431 Y3.225 E0.034
G1 X7.5 Y3.3 E0.0466
G1 X2.763 Y3.3 E0.23633
G1 X2.083 Y3.3 E0.03393
G0 F1800 X2.095 Y2.9
G1 F900 X-2.5 Y2.9 E0.22925
G1 X-3.156 Y2.86 E0.03279
G1 X-3.802 Y2.741 E0.03277
G1 X-4.429 Y2.544 E0.03279
G1 X-5.027 Y2.272 E0.03278
G1 X-5.588 Y1.93 E0.03278
G1 X-6.103 Y1.522 E0.03278
G1 X-6.565 Y1.055 E0.03277
G1 X-6.966 Y0.535 E0.03276
G1 X-7.302 Y-0.029 E0.03275
G1 X-7.566 Y-.631 E0.03279
G1 X-7.756 Y-1.26 E0.03278
G1 X-7.867 Y-1.907 E0.03275
G1 X-7.9 Y-2.5 E0.02963
G1 X-7.9 Y-7.5 E0.24945
G1 X-7.86 Y-8.156 E0.03279
G1 X-7.741 Y-8.802 E0.03277
G1 X-7.544 Y-9.429 E0.03279
G1 X-7.272 Y-10.027 E0.03278
G1 X-6.93 Y-10.588 E0.03278
G1 X-6.522 Y-11.103 E0.03278
G1 X-6.055 Y-11.565 E0.03277
G1 X-5.535 Y-11.966 E0.03276
G1 X-4.971 Y-12.302 E0.03275
G1 X-4.369 Y-12.566 E0.03279
G1 X-3.74 Y-12.756 E0.03278
G1 X-3.093 Y-12.867 E0.03275
G1 X-2.5 Y-12.9 E0.02963
G1 X1.976 Y-12.9 E0.22331
G1 X2.036 Y-12.91 E0.00303
G1 X2.692 Y-12.938 E0.03276
G1 X3.171 Y-12.9 E0.02397
G1 X7.5 Y-12.9 E0.21597
G1 X8.156 Y-12.86 E0.03279
G1 X8.802 Y-12.741 E0.03277
G1 X9.429 Y-12.544 E0.03279
G1 X10.027 Y-12.272 E0.03278
G1 X10.588 Y-11.93 E0.03278
G1 X11.103 Y-11.522 E0.03278
G1 X11.565 Y-11.055 E0.03277
G1 X11.966 Y-10.535 E0.03276
G1 X12.302 Y-9.971 E0.03275
G1 X12.566 Y-9.369 E0.03279
G1 X12.756 Y-8.74 E0.03278
G1 X12.867 Y-8.093 E0.03275
G1 X12.9 Y-7.5 E0.02963
G1 X12.9 Y-2.5 E0.24945
G1 X12.86 Y-1.844 E0.03279
G1 X12.741 Y-1.198 E0.03277
G1 X12.544 Y-.571 E0.03279
G1 X12.272 Y0.027 E0.03278
G1 X11.93 Y0.588 E0.03278
G1 X11.522 Y1.103 E0.03278
G1 X11.055 Y1.565 E0.03277
G1 X10.535 Y1.966 E0.03276
G1 X9.971 Y2.302 E0.03275
G1 X9.369 Y2.566 E0.03279
G1 X8.74 Y2.756 E0.03278
G1 X8.093 Y2.867 E0.03275
G1 X7.5 Y2.9 E0.02963
G1 X2.755 Y2.9 E0.23673
G1 X2.095 Y2.9 E0.03293
G0 F1800 X2.104 Y2.5
G1 F900 X-2.5 Y2.5 E0.22969
G1 X-3.131 Y2.46 E0.03154
G1 X-3.752 Y2.341 E0.03155
G1 X-4.352 Y2.144 E0.03151
G1 X-4.924 Y1.873 E0.03158
G1 X-5.456 Y1.533 E0.0315
G1 X-5.941 Y1.127 E0.03156
G1 X-6.371 Y0.664 E0.03152
G1 X-6.74 Y0.15 E0.03157
G1 X-7.04 Y-.406 E0.03152
G1 X-7.268 Y-.995 E0.03151
G1 X-7.42 Y-1.609 E0.03156
G1 X-7.5 Y-2.5 E0.04463
G1 X-7.5 Y-7.5 E0.24945
G1 X-7.46 Y-8.131 E0.03154
G1 X-7.341 Y-8.752 E0.03155
G1 X-7.144 Y-9.352 E0.03151
G1 X-6.873 Y-9.924 E0.03158
G1 X-6.533 Y-10.456 E0.0315
G1 X-6.127 Y-10.941 E0.03156
G1 X-5.664 Y-11.371 E0.03152
G1 X-5.15 Y-11.74 E0.03157
G1 X-4.594 Y-12.04 E0.03152
G1 X-4.005 Y-12.268 E0.03151
G1 X-3.391 Y-12.42 E0.03156
G1 X-2.5 Y-12.5 E0.04463
G1 X2.01 Y-12.5 E0.225
G1 X2.101 Y-12.515 E0.0046
G1 X2.733 Y-12.537 E0.03155
G1 X3.141 Y-12.5 E0.02044
G1 X7.5 Y-12.5 E0.21747
G1 X8.131 Y-12.46 E0.03154
G1 X8.752 Y-12.341 E0.03155
G1 X9.352 Y-12.144 E0.03151
G1 X9.924 Y-11.873 E0.03158
G1 X10.456 Y-11.533 E0.0315
G1 X10.941 Y-11.127 E0.03156
G1 X11.371 Y-10.664 E0.03152
G1 X11.74 Y-10.15 E0.03157
G1 X12.04 Y-9.594 E0.03152
G1 X12.268 Y-9.005 E0.03151
G1 X12.42 Y-8.391 E0.03156
G1 X12.5 Y-7.5 E0.04463
G1 X12.5 Y-2.5 E0.24945
G1 X12.46 Y-1.869 E0.03154
G1 X12.341 Y-1.248 E0.03155
G1 X12.144 Y-.648 E0.03151
G1 X11.873 Y-0.076 E0.03158
G1 X11.533 Y0.456 E0.0315
G1 X11.127 Y0.941 E0.03156
G1 X10.664 Y1.371 E0.03152
G1 X10.15 Y1.74 E0.03157
G1 X9.594 Y2.04 E0.03152
G1 X9.005 Y2.268 E0.03151
G1 X8.391 Y2.42 E0.03156
G1 X7.5 Y2.5 E0.04463
