;FLAVOR:Makerbot
;TIME:11097
;MINX:-74.516
;MINY:-67.825
;MINZ:0.3
;MAXX:112.5
;MAXY:73
;MAXZ:10.9
;Generated with Cura_SteamEngine 4.8.0
T0
M82 ;absolute extrusion mode
; **** FlashForge Creator Pro PRINTER start.gcode for dual extrusion only ****
M83 ; relative extrusion mode
M73 P0 ; enable build progress
G162 X Y F3000 ; home XY maximum
G161 Z F1200 ; home Z minimum
G92 Z-5 ; set Z to -5
G1 Z0 ; move Z to 0
G161 Z F100 ; home Z slowly
M132 X Y Z A B ; recall home offsets
M135 T0 ; load right extruder offsets
G1 X150 Y-70 Z30 F9000 ; move to wait position right hand side of the table
G130 X20 Y20 Z20 A20 B20 ; lower stepper Vrefs while heating
M127
M140 S60 T0 ; set bed temperature
M134 T0 ; stabilize bed temperature
M104 S230 T0 ; set right extruder temp
M104 S230 T1 ; set left extruder temp
M133 T0 ; stabilize right extruder temperature
M133 T1 ; stabilize left extruder temperature
G130 X127 Y127 Z40 A127 B127 ; default stepper Vrefs
G92 A0 B0 ; zero extruders
M135 T0 ; right tool
G1 Z0.4 ; position nozzle
G1 X110 Y-70 E25 F300 ; purge nozzle
G1 X120 Y-70 Z0.15 F1200 ; slow wipe
G1 X110 Y-70 Z0.5 F1200 ; lift
G1 Z4 F1200 ; raise
G1 X-110 F4000 ; move nozzle to left side of bed
G1 Z0.4 F1200 ; lower
M135 T1 ; left tool
G1 X-140 Y-70 F9000 ; reposition nozzle
G1 X-100 Y-70 E25 F300 ; purge nozzle
G1 X-110 Y-70 Z0.15 F1200 ; slow wipe
G1 X-100 Y-70 Z0.5 F1200 ; lift
G92 A0 B0 ; zero extruders
M135 T1 ; left or right tool
M73 P1 ;@body (notify GPX body has started)
; **** end of start.gcode ****
M83 ;relative extrusion mode
G1 F1800 E-1.3
;LAYER_COUNT:49
;LAYER:0
M127 T0
M104 T1 S175
;MESH:pliers_rigid.STL
G0 X17.455 Y9.086 Z0.3
;TYPE:WALL-INNER
G1 F1800 E1.3
G1 F900 X17.455 Y25.209 E0.80438
G1 X-25.467 Y68.13 E3.02834
G1 X-37.912 Y68.13 E0.62088
G1 X-37.912 Y61.058 E0.35282
G1 X4.515 Y18.633 E2.99338
G1 X4.515 Y-3.294 E1.09394
G1 X24.528 Y-3.294 E0.99845
G1 X24.528 Y2.014 E0.26482
G1 X17.455 Y9.086 E0.499
G0 F1800 X17.855 Y9.252
;TYPE:WALL-OUTER
G1 F900 X17.855 Y25.375 E0.80438
G1 X-25.301 Y68.53 E3.04485
G1 X-38.312 Y68.53 E0.64912
G1 X-38.312 Y60.892 E0.38106
G1 X4.115 Y18.467 E2.99338
G1 X4.115 Y-3.694 E1.10562
G1 X24.928 Y-3.694 E1.03836
G1 X24.928 Y2.18 E0.29306
G1 X17.855 Y9.252 E0.499
G0 F1800 X17.855 Y9.452
G0 X17.065 Y8.924
;TYPE:SKIN
G1 F900 X17.065 Y25.049 E0.80448
G1 X-25.627 Y67.74 E3.01212
G1 X-37.522 Y67.74 E0.59344
G1 X-37.522 Y61.218 E0.32538
G1 X4.905 Y18.795 E2.99331
G1 X4.905 Y-2.904 E1.08257
G1 X24.138 Y-2.904 E0.95954
G1 X24.138 Y1.854 E0.23738
G1 X17.065 Y8.924 E0.49893
G0 F1800 X23.863 Y-2.723
G1 F900 X23.957 Y-2.629 E0.00663
G0 F1800 X23.957 Y-2.064
G1 F900 X23.297 Y-2.723 E0.04653
G0 F1800 X22.732 Y-2.723
G1 F900 X23.957 Y-1.498 E0.08643
G0 F1800 X23.957 Y-.932
G1 F900 X22.166 Y-2.723 E0.12636
G0 F1800 X21.6 Y-2.723
G1 F900 X23.957 Y-.366 E0.1663
G0 F1800 X23.957 Y0.198
G1 F900 X21.035 Y-2.723 E0.20613
G0 F1800 X20.469 Y-2.723
G1 F900 X23.957 Y0.764 E0.24606
G0 F1800 X23.957 Y1.33
G1 F900 X19.903 Y-2.723 E0.286
G0 F1800 X19.337 Y-2.723
G1 F900 X23.898 Y1.837 E0.32177
G0 F1800 X23.615 Y2.119
G1 F900 X18.772 Y-2.723 E0.34166
G0 F1800 X18.206 Y-2.723
G1 F900 X23.333 Y2.402 E0.36167
G0 F1800 X23.05 Y2.685
G1 F900 X17.64 Y-2.723 E0.38163
G0 F1800 X17.075 Y-2.723
G1 F900 X22.767 Y2.968 E0.40157
G0 F1800 X22.484 Y3.251
G1 F900 X16.509 Y-2.723 E0.42153
G0 F1800 X15.943 Y-2.723
G1 F900 X22.201 Y3.534 E0.4415
G0 F1800 X21.918 Y3.816
G1 F900 X15.378 Y-2.723 E0.4614
G0 F1800 X14.812 Y-2.723
G1 F900 X21.636 Y4.099 E0.4814
G0 F1800 X21.352 Y4.381
G1 F900 X14.246 Y-2.723 E0.5013
G0 F1800 X13.681 Y-2.723
G1 F900 X21.069 Y4.664 E0.52123
G0 F1800 X20.786 Y4.947
G1 F900 X13.115 Y-2.723 E0.5412
G0 F1800 X12.549 Y-2.723
G1 F900 X20.503 Y5.23 E0.56116
G0 F1800 X20.221 Y5.513
G1 F900 X11.984 Y-2.723 E0.58113
G0 F1800 X11.418 Y-2.723
G1 F900 X19.938 Y5.796 E0.6011
G0 F1800 X19.655 Y6.078
G1 F900 X10.852 Y-2.723 E0.62103
G0 F1800 X10.286 Y-2.723
G1 F900 X19.372 Y6.361 E0.641
G0 F1800 X19.089 Y6.643
G1 F900 X9.721 Y-2.723 E0.66089
G0 F1800 X9.155 Y-2.723
G1 F900 X18.806 Y6.926 E0.68086
G0 F1800 X18.523 Y7.209
G1 F900 X8.589 Y-2.723 E0.70083
G0 F1800 X8.024 Y-2.723
G1 F900 X18.24 Y7.492 E0.72076
G0 F1800 X17.957 Y7.775
G1 F900 X7.458 Y-2.723 E0.74073
G0 F1800 X6.892 Y-2.723
G1 F900 X17.674 Y8.058 E0.76069
G0 F1800 X17.391 Y8.341
G1 F900 X6.327 Y-2.723 E0.78062
G0 F1800 X5.761 Y-2.723
G1 F900 X17.109 Y8.623 E0.80059
G0 F1800 X16.885 Y8.965
G1 F900 X5.195 Y-2.723 E0.82472
G0 F1800 X5.084 Y-2.269
G1 F900 X16.885 Y9.531 E0.83259
G0 F1800 X16.885 Y10.096
G1 F900 X5.084 Y-1.704 E0.83259
G0 F1800 X5.084 Y-1.138
G1 F900 X16.885 Y10.662 E0.83259
G0 F1800 X16.885 Y11.228
G1 F900 X5.084 Y-.572 E0.83259
G0 F1800 X5.084 Y-0.007
G1 F900 X16.885 Y11.793 E0.83259
G0 F1800 X16.885 Y12.359
G1 F900 X5.084 Y0.558 E0.83262
G0 F1800 X5.084 Y1.124
G1 F900 X16.885 Y12.925 E0.83262
G0 F1800 X16.885 Y13.49
G1 F900 X5.084 Y1.689 E0.83262
G0 F1800 X5.084 Y2.255
G1 F900 X16.885 Y14.056 E0.83262
G0 F1800 X16.885 Y14.622
G1 F900 X5.084 Y2.821 E0.83262
G0 F1800 X5.084 Y3.387
G1 F900 X16.885 Y15.187 E0.83259
G0 F1800 X16.885 Y15.753
G1 F900 X5.084 Y3.952 E0.83262
G0 F1800 X5.084 Y4.518
G1 F900 X16.885 Y16.319 E0.83262
G0 F1800 X16.885 Y16.885
G1 F900 X5.084 Y5.084 E0.83262
G0 F1800 X5.084 Y5.649
G1 F900 X16.885 Y17.45 E0.83262
G0 F1800 X16.885 Y18.016
G1 F900 X5.084 Y6.215 E0.83262
G0 F1800 X5.084 Y6.781
G1 F900 X16.885 Y18.582 E0.83262
G0 F1800 X16.885 Y19.147
G1 F900 X5.084 Y7.346 E0.83262
G0 F1800 X5.084 Y7.912
G1 F900 X16.885 Y19.713 E0.83262
G0 F1800 X16.885 Y20.279
G1 F900 X5.084 Y8.478 E0.83262
G0 F1800 X5.084 Y9.043
G1 F900 X16.885 Y20.844 E0.83262
G0 F1800 X16.885 Y21.41
G1 F900 X5.084 Y9.609 E0.83262
G0 F1800 X5.084 Y10.175
G1 F900 X16.885 Y21.976 E0.83262
G0 F1800 X16.885 Y22.541
G1 F900 X5.084 Y10.74 E0.83262
G0 F1800 X5.084 Y11.306
G1 F900 X16.885 Y23.107 E0.83262
G0 F1800 X16.885 Y23.673
G1 F900 X5.084 Y11.872 E0.83262
G0 F1800 X5.084 Y12.438
G1 F900 X16.885 Y24.238 E0.83259
G0 F1800 X16.885 Y24.804
G1 F900 X5.084 Y13.003 E0.83262
G0 F1800 X5.084 Y13.569
G1 F900 X16.686 Y25.171 E0.81858
G0 F1800 X16.403 Y25.454
G1 F900 X5.084 Y14.135 E0.79862
G0 F1800 X5.084 Y14.7
G1 F900 X16.12 Y25.737 E0.77868
G0 F1800 X15.837 Y26.02
G1 F900 X5.084 Y15.266 E0.75872
G0 F1800 X5.084 Y15.832
G1 F900 X15.554 Y26.302 E0.73872
G0 F1800 X15.272 Y26.585
G1 F900 X5.084 Y16.397 E0.71882
G0 F1800 X5.084 Y16.963
G1 F900 X14.989 Y26.868 E0.69885
G0 F1800 X14.706 Y27.151
G1 F900 X5.084 Y17.529 E0.67888
G0 F1800 X5.084 Y18.094
G1 F900 X14.423 Y27.434 E0.65895
G0 F1800 X14.14 Y27.717
G1 F900 X5.084 Y18.66 E0.63898
G0 F1800 X4.905 Y19.048
G1 F900 X13.857 Y28 E0.63161
G0 F1800 X13.575 Y28.282
G1 F900 X4.623 Y19.33 E0.63161
G0 F1800 X4.34 Y19.613
G1 F900 X13.292 Y28.565 E0.63161
G0 F1800 X13.009 Y28.848
G1 F900 X4.057 Y19.896 E0.63161
G0 F1800 X3.774 Y20.179
G1 F900 X12.726 Y29.131 E0.63161
G0 F1800 X12.443 Y29.414
G1 F900 X3.491 Y20.462 E0.63161
G0 F1800 X3.208 Y20.745
G1 F900 X12.16 Y29.697 E0.63161
G0 F1800 X11.877 Y29.979
G1 F900 X2.926 Y21.027 E0.63158
G0 F1800 X2.643 Y21.31
G1 F900 X11.595 Y30.262 E0.63161
G0 F1800 X11.312 Y30.545
G1 F900 X2.36 Y21.593 E0.63161
G0 F1800 X2.077 Y21.876
G1 F900 X11.029 Y30.828 E0.63161
G0 F1800 X10.746 Y31.111
G1 F900 X1.794 Y22.159 E0.63161
G0 F1800 X1.511 Y22.442
G1 F900 X10.463 Y31.394 E0.63161
G0 F1800 X10.18 Y31.676
G1 F900 X1.228 Y22.724 E0.63161
G0 F1800 X0.946 Y23.007
G1 F900 X9.898 Y31.959 E0.63161
G0 F1800 X9.615 Y32.242
G1 F900 X0.663 Y23.29 E0.63161
G0 F1800 X0.38 Y23.573
G1 F900 X9.332 Y32.525 E0.63161
G0 F1800 X9.049 Y32.808
G1 F900 X0.097 Y23.856 E0.63161
G0 F1800 X-.185 Y24.139
G1 F900 X8.766 Y33.091 E0.63158
G0 F1800 X8.483 Y33.374
G1 F900 X-.468 Y24.422 E0.63158
G0 F1800 X-.75 Y24.704
G1 F900 X8.201 Y33.656 E0.63158
G0 F1800 X7.918 Y33.939
G1 F900 X-1.033 Y24.987 E0.63158
G0 F1800 X-1.316 Y25.27
G1 F900 X7.635 Y34.222 E0.63158
G0 F1800 X7.352 Y34.505
G1 F900 X-1.599 Y25.553 E0.63158
G0 F1800 X-1.882 Y25.836
G1 F900 X7.069 Y34.788 E0.63158
G0 F1800 X6.786 Y35.071
G1 F900 X-2.165 Y26.119 E0.63158
G0 F1800 X-2.448 Y26.401
G1 F900 X6.503 Y35.353 E0.63158
G0 F1800 X6.221 Y35.636
G1 F900 X-2.73 Y26.684 E0.63158
G0 F1800 X-3.013 Y26.967
G1 F900 X5.938 Y35.919 E0.63158
G0 F1800 X5.655 Y36.202
G1 F900 X-3.296 Y27.25 E0.63158
G0 F1800 X-3.579 Y27.533
G1 F900 X5.372 Y36.485 E0.63158
G0 F1800 X5.089 Y36.768
G1 F900 X-3.862 Y27.816 E0.63158
G0 F1800 X-4.145 Y28.099
G1 F900 X4.806 Y37.05 E0.63154
G0 F1800 X4.524 Y37.333
G1 F900 X-4.427 Y28.381 E0.63158
G0 F1800 X-4.71 Y28.664
G1 F900 X4.241 Y37.616 E0.63158
G0 F1800 X3.958 Y37.899
G1 F900 X-4.993 Y28.947 E0.63158
G0 F1800 X-5.276 Y29.23
G1 F900 X3.675 Y38.182 E0.63158
G0 F1800 X3.392 Y38.465
G1 F900 X-5.559 Y29.513 E0.63158
G0 F1800 X-5.842 Y29.796
G1 F900 X3.109 Y38.748 E0.63158
G0 F1800 X2.827 Y39.03
G1 F900 X-6.124 Y30.078 E0.63158
G0 F1800 X-6.407 Y30.361
G1 F900 X2.544 Y39.313 E0.63158
G0 F1800 X2.261 Y39.596
G1 F900 X-6.69 Y30.644 E0.63158
G0 F1800 X-6.973 Y30.927
G1 F900 X1.978 Y39.879 E0.63158
G0 F1800 X1.695 Y40.162
G1 F900 X-7.256 Y31.21 E0.63158
G0 F1800 X-7.539 Y31.493
G1 F900 X1.412 Y40.445 E0.63158
G0 F1800 X1.129 Y40.727
G1 F900 X-7.822 Y31.775 E0.63158
G0 F1800 X-8.104 Y32.058
G1 F900 X0.847 Y41.01 E0.63158
G0 F1800 X0.564 Y41.293
G1 F900 X-8.387 Y32.341 E0.63158
G0 F1800 X-8.67 Y32.624
G1 F900 X0.281 Y41.576 E0.63158
G0 F1800 X-0.001 Y41.859
G1 F900 X-8.953 Y32.907 E0.63161
G0 F1800 X-9.236 Y33.189
G1 F900 X-.284 Y42.142 E0.63165
G0 F1800 X-.567 Y42.424
G1 F900 X-9.519 Y33.472 E0.63161
G0 F1800 X-9.802 Y33.755
G1 F900 X-.849 Y42.707 E0.63165
G0 F1800 X-1.132 Y42.99
G1 F900 X-10.085 Y34.037 E0.63168
G0 F1800 X-10.368 Y34.32
G1 F900 X-1.415 Y43.273 E0.63168
G0 F1800 X-1.698 Y43.556
G1 F900 X-10.651 Y34.603 E0.63168
G0 F1800 X-10.933 Y34.886
G1 F900 X-1.981 Y43.839 E0.63165
G0 F1800 X-2.264 Y44.122
G1 F900 X-11.216 Y35.169 E0.63165
G0 F1800 X-11.499 Y35.452
G1 F900 X-2.546 Y44.404 E0.63165
G0 F1800 X-2.829 Y44.687
G1 F900 X-11.782 Y35.735 E0.63165
G0 F1800 X-12.065 Y36.017
G1 F900 X-3.112 Y44.97 E0.63168
G0 F1800 X-3.395 Y45.253
G1 F900 X-12.348 Y36.3 E0.63168
G0 F1800 X-12.631 Y36.583
G1 F900 X-3.678 Y45.536 E0.63168
G0 F1800 X-3.961 Y45.819
G1 F900 X-12.913 Y36.866 E0.63165
G0 F1800 X-13.196 Y37.149
G1 F900 X-4.244 Y46.101 E0.63161
G0 F1800 X-4.526 Y46.384
G1 F900 X-13.479 Y37.432 E0.63165
G0 F1800 X-13.762 Y37.714
G1 F900 X-4.809 Y46.667 E0.63168
G0 F1800 X-5.092 Y46.95
G1 F900 X-14.045 Y37.997 E0.63168
G0 F1800 X-14.328 Y38.28
G1 F900 X-5.375 Y47.233 E0.63168
G0 F1800 X-5.658 Y47.516
G1 F900 X-14.61 Y38.563 E0.63165
G0 F1800 X-14.893 Y38.846
G1 F900 X-5.941 Y47.799 E0.63165
G0 F1800 X-6.223 Y48.081
G1 F900 X-15.176 Y39.129 E0.63165
G0 F1800 X-15.459 Y39.412
G1 F900 X-6.506 Y48.364 E0.63165
G0 F1800 X-6.789 Y48.647
G1 F900 X-15.742 Y39.694 E0.63168
G0 F1800 X-16.025 Y39.977
G1 F900 X-7.072 Y48.93 E0.63168
G0 F1800 X-7.355 Y49.213
G1 F900 X-16.308 Y40.26 E0.63168
G0 F1800 X-16.59 Y40.543
G1 F900 X-7.638 Y49.496 E0.63165
G0 F1800 X-7.921 Y49.778
G1 F900 X-16.873 Y40.826 E0.63161
G0 F1800 X-17.156 Y41.109
G1 F900 X-8.203 Y50.061 E0.63165
G0 F1800 X-8.486 Y50.344
G1 F900 X-17.439 Y41.391 E0.63168
G0 F1800 X-17.722 Y41.674
G1 F900 X-8.769 Y50.627 E0.63168
G0 F1800 X-9.052 Y50.91
G1 F900 X-18.005 Y41.957 E0.63168
G0 F1800 X-18.287 Y42.24
G1 F900 X-9.335 Y51.193 E0.63165
G0 F1800 X-9.618 Y51.475
G1 F900 X-18.57 Y42.523 E0.63161
G0 F1800 X-18.853 Y42.806
G1 F900 X-9.9 Y51.758 E0.63165
G0 F1800 X-10.183 Y52.041
G1 F900 X-19.136 Y43.088 E0.63168
G0 F1800 X-19.419 Y43.371
G1 F900 X-10.466 Y52.324 E0.63168
G0 F1800 X-10.749 Y52.607
G1 F900 X-19.702 Y43.654 E0.63168
G0 F1800 X-19.984 Y43.937
G1 F900 X-11.032 Y52.89 E0.63165
G0 F1800 X-11.315 Y53.173
G1 F900 X-20.267 Y44.22 E0.63165
G0 F1800 X-20.55 Y44.503
G1 F900 X-11.597 Y53.455 E0.63165
G0 F1800 X-11.88 Y53.738
G1 F900 X-20.833 Y44.786 E0.63165
G0 F1800 X-21.116 Y45.068
G1 F900 X-12.163 Y54.021 E0.63168
G0 F1800 X-12.446 Y54.304
G1 F900 X-21.399 Y45.351 E0.63168
G0 F1800 X-21.682 Y45.634
G1 F900 X-12.729 Y54.587 E0.63168
G0 F1800 X-13.012 Y54.87
G1 F900 X-21.964 Y45.917 E0.63165
G0 F1800 X-22.247 Y46.2
G1 F900 X-13.295 Y55.152 E0.63161
G0 F1800 X-13.577 Y55.435
G1 F900 X-22.53 Y46.483 E0.63165
G0 F1800 X-22.813 Y46.765
G1 F900 X-13.86 Y55.718 E0.63168
G0 F1800 X-14.143 Y56.001
G1 F900 X-23.096 Y47.048 E0.63168
G0 F1800 X-23.379 Y47.33
G1 F900 X-14.426 Y56.284 E0.63172
G0 F1800 X-14.709 Y56.567
G1 F900 X-23.662 Y47.613 E0.63172
G0 F1800 X-23.945 Y47.896
G1 F900 X-14.992 Y56.849 E0.63168
G0 F1800 X-15.274 Y57.132
G1 F900 X-24.228 Y48.179 E0.63172
G0 F1800 X-24.511 Y48.462
G1 F900 X-15.557 Y57.415 E0.63172
G0 F1800 X-15.84 Y57.698
G1 F900 X-24.793 Y48.745 E0.63168
G0 F1800 X-25.076 Y49.027
G1 F900 X-16.123 Y57.981 E0.63172
G0 F1800 X-16.406 Y58.264
G1 F900 X-25.359 Y49.31 E0.63172
G0 F1800 X-25.642 Y49.593
G1 F900 X-16.689 Y58.547 E0.63172
G0 F1800 X-16.971 Y58.829
G1 F900 X-25.925 Y49.876 E0.63172
G0 F1800 X-26.208 Y50.159
G1 F900 X-17.254 Y59.112 E0.63172
G0 F1800 X-17.537 Y59.395
G1 F900 X-26.491 Y50.442 E0.63172
G0 F1800 X-26.773 Y50.725
G1 F900 X-17.82 Y59.678 E0.63168
G0 F1800 X-18.103 Y59.961
G1 F900 X-27.056 Y51.007 E0.63172
G0 F1800 X-27.339 Y51.29
G1 F900 X-18.386 Y60.244 E0.63172
G0 F1800 X-18.669 Y60.526
G1 F900 X-27.622 Y51.573 E0.63168
G0 F1800 X-27.905 Y51.856
G1 F900 X-18.951 Y60.809 E0.63172
G0 F1800 X-19.234 Y61.092
G1 F900 X-28.188 Y52.139 E0.63172
G0 F1800 X-28.47 Y52.422
G1 F900 X-19.517 Y61.375 E0.63168
G0 F1800 X-19.8 Y61.658
G1 F900 X-28.753 Y52.704 E0.63172
G0 F1800 X-29.036 Y52.987
G1 F900 X-20.083 Y61.941 E0.63172
G0 F1800 X-20.366 Y62.223
G1 F900 X-29.319 Y53.27 E0.63168
G0 F1800 X-29.602 Y53.553
G1 F900 X-20.648 Y62.506 E0.63172
G0 F1800 X-20.931 Y62.789
G1 F900 X-29.885 Y53.836 E0.63172
G0 F1800 X-30.168 Y54.119
G1 F900 X-21.214 Y63.072 E0.63172
G0 F1800 X-21.497 Y63.355
G1 F900 X-30.45 Y54.401 E0.63172
G0 F1800 X-30.733 Y54.684
G1 F900 X-21.78 Y63.638 E0.63172
G0 F1800 X-22.063 Y63.921
G1 F900 X-31.016 Y54.967 E0.63172
G0 F1800 X-31.299 Y55.25
G1 F900 X-22.345 Y64.203 E0.63172
G0 F1800 X-22.628 Y64.486
G1 F900 X-31.582 Y55.533 E0.63172
G0 F1800 X-31.865 Y55.816
G1 F900 X-22.911 Y64.769 E0.63172
G0 F1800 X-23.194 Y65.052
G1 F900 X-32.147 Y56.099 E0.63168
G0 F1800 X-32.43 Y56.381
G1 F900 X-23.477 Y65.335 E0.63172
G0 F1800 X-23.76 Y65.618
G1 F900 X-32.713 Y56.664 E0.63172
G0 F1800 X-32.996 Y56.947
G1 F900 X-24.043 Y65.9 E0.63168
G0 F1800 X-24.325 Y66.183
G1 F900 X-33.279 Y57.23 E0.63172
G0 F1800 X-33.562 Y57.513
G1 F900 X-24.608 Y66.466 E0.63172
G0 F1800 X-24.891 Y66.749
G1 F900 X-33.844 Y57.796 E0.63168
G0 F1800 X-34.127 Y58.078
G1 F900 X-25.174 Y67.032 E0.63172
G0 F1800 X-25.457 Y67.315
G1 F900 X-34.41 Y58.361 E0.63172
G0 F1800 X-34.693 Y58.644
G1 F900 X-25.778 Y67.559 E0.629
G0 F1800 X-26.344 Y67.559
G1 F900 X-34.976 Y58.927 E0.60903
G0 F1800 X-35.259 Y59.21
G1 F900 X-26.91 Y67.559 E0.58907
G0 F1800 X-27.476 Y67.559
G1 F900 X-35.542 Y59.493 E0.5691
G0 F1800 X-35.824 Y59.775
G1 F900 X-28.041 Y67.559 E0.54917
G0 F1800 X-28.607 Y67.559
G1 F900 X-36.107 Y60.058 E0.5292
G0 F1800 X-36.39 Y60.341
G1 F900 X-29.173 Y67.559 E0.50923
G0 F1800 X-29.738 Y67.559
G1 F900 X-36.673 Y60.624 E0.4893
G0 F1800 X-36.956 Y60.907
G1 F900 X-30.304 Y67.559 E0.46933
G0 F1800 X-30.87 Y67.559
G1 F900 X-37.239 Y61.19 E0.44937
G0 F1800 X-37.341 Y61.653
G1 F900 X-31.435 Y67.559 E0.4167
G0 F1800 X-32.001 Y67.559
G1 F900 X-37.341 Y62.219 E0.37677
G0 F1800 X-37.341 Y62.784
G1 F900 X-32.567 Y67.559 E0.33687
G0 F1800 X-33.132 Y67.559
G1 F900 X-37.341 Y63.35 E0.29697
G0 F1800 X-37.341 Y63.916
G1 F900 X-33.698 Y67.559 E0.25703
G0 F1800 X-34.264 Y67.559
G1 F900 X-37.341 Y64.481 E0.21713
G0 F1800 X-37.341 Y65.047
G1 F900 X-34.829 Y67.559 E0.17724
G0 F1800 X-35.395 Y67.559
G1 F900 X-37.341 Y65.613 E0.1373
G0 F1800 X-37.341 Y66.178
G1 F900 X-35.961 Y67.559 E0.0974
G0 F1800 X-36.527 Y67.559
G1 F900 X-37.341 Y66.744 E0.05747
G0 F1800 X-37.341 Y67.31
G1 F900 X-37.092 Y67.559 E0.01757
G1 F1800 E-1.3
