;FLAVOR:Makerbot
;TIME:1141
;MINX:-25.2
;MINY:-6.15
;MINZ:0.3
;MAXX:112.5
;MAXY:73
;MAXZ:8.9
;Generated with Cura_SteamEngine 4.8.0
T0
M82 ;absolute extrusion mode
; **** FlashForge Creator Pro PRINTER start.gcode for dual extrusion only ****
M83 ; relative extrusion mode
M73 P0 ; enable build progress
G162 X Y F3000 ; home XY maximum
G161 Z F1200 ; home Z minimum
G92 Z-5 ; set Z to -5
G1 Z0 ; move Z to 0
G161 Z F100 ; home Z slowly
M132 X Y Z A B ; recall home offsets
M135 T0 ; load right extruder offsets
G1 X150 Y-70 Z30 F9000 ; move to wait position right hand side of the table
G130 X20 Y20 Z20 A20 B20 ; lower stepper Vrefs while heating
M127
M140 S60 T0 ; set bed temperature
M134 T0 ; stabilize bed temperature
M104 S230 T0 ; set right extruder temp
M104 S228 T1 ; set left extruder temp
M133 T0 ; stabilize right extruder temperature
M133 T1 ; stabilize left extruder temperature
G130 X127 Y127 Z40 A127 B127 ; default stepper Vrefs
G92 A0 B0 ; zero extruders
M135 T0 ; right tool
G1 Z0.4 ; position nozzle
G1 X110 Y-70 E25 F300 ; purge nozzle
G1 X120 Y-70 Z0.15 F1200 ; slow wipe
G1 X110 Y-70 Z0.5 F1200 ; lift
G1 Z4 F1200 ; raise
G1 X-110 F4000 ; move nozzle to left side of bed
G1 Z0.4 F1200 ; lower
M135 T1 ; left tool
G1 X-140 Y-70 F9000 ; reposition nozzle
G1 X-100 Y-70 E25 F300 ; purge nozzle
G1 X-110 Y-70 Z0.15 F1200 ; slow wipe
G1 X-100 Y-70 Z0.5 F1200 ; lift
G92 A0 B0 ; zero extruders
M135 T0 ; left or right tool
M73 P1 ;@body (notify GPX body has started)
; **** end of start.gcode ****
M83 ;relative extrusion mode
G1 F1800 E-1.3
;LAYER_COUNT:39
;LAYER:0
M127 T0
M104 T1 S175
;MESH:FCPRO_final_3.3mf
G0 X-.525 Y5.75 Z0.3
;TYPE:WALL-INNER
G1 F1800 E1.3
G1 F900 X-24.8 Y5.75 E1.21108
G1 X-24.8 Y-5.75 E0.57374
G1 X-.525 Y-5.75 E1.21108
G1 X-.525 Y5.75 E0.57374
G0 F1800 X-.125 Y6.15
;TYPE:WALL-OUTER
G1 F900 X-25.2 Y6.15 E1.251
G1 X-25.2 Y-6.15 E0.61365
G1 X-.125 Y-6.15 E1.251
G1 X-.125 Y6.15 E0.61365
G0 F1800 X-.325 Y6.15
G0 X-.915 Y5.36
;TYPE:SKIN
G1 F900 X-24.41 Y5.36 E1.17217
G1 X-24.41 Y-5.36 E0.53482
G1 X-.915 Y-5.36 E1.17217
G1 X-.915 Y5.36 E0.53482
G0 F1800 X-1.219 Y-5.179
G1 F900 X-1.095 Y-5.055 E0.00875
G0 F1800 X-1.095 Y-4.489
G1 F900 X-1.785 Y-5.179 E0.04868
G0 F1800 X-2.351 Y-5.179
G1 F900 X-1.095 Y-3.923 E0.08862
G0 F1800 X-1.095 Y-3.358
G1 F900 X-2.916 Y-5.179 E0.12848
G0 F1800 X-3.482 Y-5.179
G1 F900 X-1.095 Y-2.792 E0.16842
G0 F1800 X-1.095 Y-2.226
G1 F900 X-4.048 Y-5.179 E0.20835
G0 F1800 X-4.613 Y-5.179
G1 F900 X-1.095 Y-1.66 E0.24825
G0 F1800 X-1.095 Y-1.095
G1 F900 X-5.179 Y-5.179 E0.28815
G0 F1800 X-5.745 Y-5.179
G1 F900 X-1.095 Y-.529 E0.32808
G0 F1800 X-1.095 Y0.036
G1 F900 X-6.31 Y-5.179 E0.36795
G0 F1800 X-6.876 Y-5.179
G1 F900 X-1.095 Y0.601 E0.40785
G0 F1800 X-1.095 Y1.167
G1 F900 X-7.442 Y-5.179 E0.44778
G0 F1800 X-8.007 Y-5.179
G1 F900 X-1.095 Y1.733 E0.48768
G0 F1800 X-1.095 Y2.298
G1 F900 X-8.573 Y-5.179 E0.52758
G0 F1800 X-9.139 Y-5.179
G1 F900 X-1.095 Y2.864 E0.56751
G0 F1800 X-1.095 Y3.43
G1 F900 X-9.705 Y-5.179 E0.60745
G0 F1800 X-10.27 Y-5.179
G1 F900 X-1.095 Y3.995 E0.64731
G0 F1800 X-1.095 Y4.561
G1 F900 X-10.836 Y-5.179 E0.68724
G0 F1800 X-11.402 Y-5.179
G1 F900 X-1.095 Y5.127 E0.72718
G0 F1800 X-1.608 Y5.179
G1 F900 X-11.967 Y-5.179 E0.73085
G0 F1800 X-12.533 Y-5.179
G1 F900 X-2.174 Y5.179 E0.73085
G0 F1800 X-2.74 Y5.179
G1 F900 X-13.099 Y-5.179 E0.73085
G0 F1800 X-13.664 Y-5.179
G1 F900 X-3.305 Y5.179 E0.73085
G0 F1800 X-3.871 Y5.179
G1 F900 X-14.23 Y-5.179 E0.73085
G0 F1800 X-14.796 Y-5.179
G1 F900 X-4.437 Y5.179 E0.73085
G0 F1800 X-5.002 Y5.179
G1 F900 X-15.361 Y-5.179 E0.73085
G0 F1800 X-15.927 Y-5.179
G1 F900 X-5.568 Y5.179 E0.73085
G0 F1800 X-6.134 Y5.179
G1 F900 X-16.493 Y-5.179 E0.73085
G0 F1800 X-17.058 Y-5.179
M104 T1 S228
G1 F900 X-6.699 Y5.179 E0.73085
G0 F1800 X-7.265 Y5.179
G1 F900 X-17.624 Y-5.179 E0.73085
G0 F1800 X-18.19 Y-5.179
G1 F900 X-7.831 Y5.179 E0.73085
G0 F1800 X-8.396 Y5.179
G1 F900 X-18.756 Y-5.179 E0.73088
G0 F1800 X-19.321 Y-5.179
G1 F900 X-8.962 Y5.179 E0.73085
G0 F1800 X-9.528 Y5.179
G1 F900 X-19.887 Y-5.179 E0.73085
G0 F1800 X-20.453 Y-5.179
G1 F900 X-10.093 Y5.179 E0.73088
G0 F1800 X-10.659 Y5.179
G1 F900 X-21.018 Y-5.179 E0.73085
G0 F1800 X-21.584 Y-5.179
G1 F900 X-11.225 Y5.179 E0.73085
G0 F1800 X-11.791 Y5.179
G1 F900 X-22.15 Y-5.179 E0.73085
G0 F1800 X-22.715 Y-5.179
G1 F900 X-12.356 Y5.179 E0.73085
G0 F1800 X-12.922 Y5.179
G1 F900 X-23.281 Y-5.179 E0.73085
G0 F1800 X-23.847 Y-5.179
G1 F900 X-13.488 Y5.179 E0.73085
G0 F1800 X-14.053 Y5.179
G1 F900 X-24.229 Y-4.996 E0.71794
G0 F1800 X-24.229 Y-4.43
G1 F900 X-14.619 Y5.179 E0.678
G0 F1800 X-15.185 Y5.179
G1 F900 X-24.229 Y-3.865 E0.6381
G0 F1800 X-24.229 Y-3.299
G1 F900 X-15.75 Y5.179 E0.5982
G0 F1800 X-16.316 Y5.179
G1 F900 X-24.229 Y-2.733 E0.55827
G0 F1800 X-24.229 Y-2.167
G1 F900 X-16.882 Y5.179 E0.51834
G0 F1800 X-17.447 Y5.179
G1 F900 X-24.229 Y-1.602 E0.47847
G0 F1800 X-24.229 Y-1.036
G1 F900 X-18.013 Y5.179 E0.43854
G0 F1800 X-18.579 Y5.179
G1 F900 X-24.229 Y-.47 E0.3986
G0 F1800 X-24.229 Y0.094
G1 F900 X-19.144 Y5.179 E0.35877
G0 F1800 X-19.71 Y5.179
G1 F900 X-24.229 Y0.66 E0.31884
G0 F1800 X-24.229 Y1.226
G1 F900 X-20.276 Y5.179 E0.27891
G0 F1800 X-20.841 Y5.179
G1 F900 X-24.229 Y1.791 E0.23904
G0 F1800 X-24.229 Y2.357
G1 F900 X-21.407 Y5.179 E0.19911
G0 F1800 X-21.973 Y5.179
G1 F900 X-24.229 Y2.923 E0.15917
G0 F1800 X-24.229 Y3.488
M104 S215
G1 F900 X-22.539 Y5.179 E0.11927
G0 F1800 X-23.104 Y5.179
G1 F900 X-24.229 Y4.054 E0.07937
G0 F1800 X-24.229 Y4.62
G1 F900 X-23.67 Y5.179 E0.03944
G1 F1800 E-1.3
;MESH:FCPRO_final_3.3mf(1)
G0 X-.539 Y5.736
G0 X-.285 Y7.014
G0 X112.5 Y73
G1 F1200 E-14.7
G1 F600 Z1.3
M135 T1
M104 S228
M116
M104 T0 S175
G1 F1800 E-1.3
G0 X78.5 Y73 Z1.3
G1 F600 Z0.3
G0 F1800 X24.786 Y7.015
G0 X24.786 Y5.736
G0 X24.8 Y5.75
;TYPE:WALL-INNER
G1 F1800 E1.3
G1 F900 X0.525 Y5.75 E1.21108
G1 X0.525 Y-5.75 E0.57374
G1 X24.8 Y-5.75 E1.21108
G1 X24.8 Y5.75 E0.57374
G0 F1800 X25.2 Y6.15
;TYPE:WALL-OUTER
G1 F900 X0.125 Y6.15 E1.251
G1 X0.125 Y-6.15 E0.61365
G1 X25.2 Y-6.15 E1.251
G1 X25.2 Y6.15 E0.61365
G0 F1800 X25 Y6.15
G0 X24.41 Y5.36
;TYPE:SKIN
G1 F900 X0.915 Y5.36 E1.17217
G1 X0.915 Y-5.36 E0.53482
G1 X24.41 Y-5.36 E1.17217
G1 X24.41 Y5.36 E0.53482
G0 F1800 X23.67 Y-5.179
G1 F900 X24.229 Y-4.62 E0.03944
G0 F1800 X24.229 Y-4.054
G1 F900 X23.104 Y-5.179 E0.07937
G0 F1800 X22.539 Y-5.179
G1 F900 X24.229 Y-3.488 E0.11927
G0 F1800 X24.229 Y-2.923
G1 F900 X21.973 Y-5.179 E0.15917
G0 F1800 X21.407 Y-5.179
G1 F900 X24.229 Y-2.357 E0.19911
G0 F1800 X24.229 Y-1.791
G1 F900 X20.841 Y-5.179 E0.23904
G0 F1800 X20.276 Y-5.179
G1 F900 X24.229 Y-1.226 E0.27891
G0 F1800 X24.229 Y-.66
G1 F900 X19.71 Y-5.179 E0.31884
G0 F1800 X19.144 Y-5.179
G1 F900 X24.229 Y-0.094 E0.35877
G0 F1800 X24.229 Y0.47
G1 F900 X18.579 Y-5.179 E0.3986
G0 F1800 X18.013 Y-5.179
G1 F900 X24.229 Y1.036 E0.43854
G0 F1800 X24.229 Y1.602
G1 F900 X17.447 Y-5.179 E0.47847
G0 F1800 X16.882 Y-5.179
G1 F900 X24.229 Y2.167 E0.51834
G0 F1800 X24.229 Y2.733
G1 F900 X16.316 Y-5.179 E0.55827
G0 F1800 X15.75 Y-5.179
G1 F900 X24.229 Y3.299 E0.5982
G0 F1800 X24.229 Y3.865
G1 F900 X15.185 Y-5.179 E0.6381
G0 F1800 X14.619 Y-5.179
G1 F900 X24.229 Y4.43 E0.678
G0 F1800 X24.229 Y4.996
G1 F900 X14.053 Y-5.179 E0.71794
G0 F1800 X13.488 Y-5.179
G1 F900 X23.847 Y5.179 E0.73085
G0 F1800 X23.281 Y5.179
G1 F900 X12.922 Y-5.179 E0.73085
G0 F1800 X12.356 Y-5.179
G1 F900 X22.715 Y5.179 E0.73085
G0 F1800 X22.15 Y5.179
G1 F900 X11.791 Y-5.179 E0.73085
G0 F1800 X11.225 Y-5.179
G1 F900 X21.584 Y5.179 E0.73085
G0 F1800 X21.018 Y5.179
G1 F900 X10.659 Y-5.179 E0.73085
G0 F1800 X10.093 Y-5.179
G1 F900 X20.453 Y5.179 E0.73088
G0 F1800 X19.887 Y5.179
G1 F900 X9.528 Y-5.179 E0.73085
G0 F1800 X8.962 Y-5.179
G1 F900 X19.321 Y5.179 E0.73085
G0 F1800 X18.756 Y5.179
G1 F900 X8.396 Y-5.179 E0.73088
G0 F1800 X7.831 Y-5.179
G1 F900 X18.19 Y5.179 E0.73085
G0 F1800 X17.624 Y5.179
G1 F900 X7.265 Y-5.179 E0.73085
G0 F1800 X6.699 Y-5.179
G1 F900 X17.058 Y5.179 E0.73085
G0 F1800 X16.493 Y5.179
G1 F900 X6.134 Y-5.179 E0.73085
G0 F1800 X5.568 Y-5.179
G1 F900 X15.927 Y5.179 E0.73085
G0 F1800 X15.361 Y5.179
G1 F900 X5.002 Y-5.179 E0.73085
G0 F1800 X4.437 Y-5.179
G1 F900 X14.796 Y5.179 E0.73085
G0 F1800 X14.23 Y5.179
G1 F900 X3.871 Y-5.179 E0.73085
G0 F1800 X3.305 Y-5.179
G1 F900 X13.664 Y5.179 E0.73085
G0 F1800 X13.099 Y5.179
G1 F900 X2.74 Y-5.179 E0.73085
G0 F1800 X2.174 Y-5.179
G1 F900 X12.533 Y5.179 E0.73085
G0 F1800 X11.967 Y5.179
G1 F900 X1.608 Y-5.179 E0.73085
G0 F1800 X1.095 Y-5.127
G1 F900 X11.402 Y5.179 E0.72718
G0 F1800 X10.836 Y5.179
G1 F900 X1.095 Y-4.561 E0.68724
G0 F1800 X1.095 Y-3.995
G1 F900 X10.27 Y5.179 E0.64731
G0 F1800 X9.705 Y5.179
G1 F900 X1.095 Y-3.43 E0.60745
G0 F1800 X1.095 Y-2.864
G1 F900 X9.139 Y5.179 E0.56751
G0 F1800 X8.573 Y5.179
G1 F900 X1.095 Y-2.298 E0.52758
G0 F1800 X1.095 Y-1.733
G1 F900 X8.007 Y5.179 E0.48768
G0 F1800 X7.442 Y5.179
G1 F900 X1.095 Y-1.167 E0.44778
G0 F1800 X1.095 Y-.601
G1 F900 X6.876 Y5.179 E0.40785
G0 F1800 X6.31 Y5.179
G1 F900 X1.095 Y-0.036 E0.36795
G0 F1800 X1.095 Y0.529
G1 F900 X5.745 Y5.179 E0.32808
G0 F1800 X5.179 Y5.179
G1 F900 X1.095 Y1.095 E0.28815
G0 F1800 X1.095 Y1.66
G1 F900 X4.613 Y5.179 E0.24825
G0 F1800 X4.048 Y5.179
G1 F900 X1.095 Y2.226 E0.20835
G0 F1800 X1.095 Y2.792
G1 F900 X3.482 Y5.179 E0.16842
G0 F1800 X2.916 Y5.179
G1 F900 X1.095 Y3.358 E0.12848
G0 F1800 X1.095 Y3.923
G1 F900 X2.351 Y5.179 E0.08862
G0 F1800 X1.785 Y5.179
G1 F900 X1.095 Y4.489 E0.04868
G0 F1800 X1.095 Y5.055
G1 F900 X1.219 Y5.179 E0.00875
;MESH:NONMESH
G0 F600 X1.219 Y5.179 Z0.5
G0 F1800 X24.73 Y5.68
G0 X24.8 Y5.75
;TIME_ELAPSED:127.308337
;LAYER:1
M126 T0
;TYPE:WALL-INNER
;MESH:FCPRO_final_3.3mf(1)
G1 F2250 X0.525 Y5.75 E0.80739
G1 X0.525 Y-5.75 E0.38249
G1 X24.8 Y-5.75 E0.80739
G1 X24.8 Y5.75 E0.38249
G0 F4500 X25.2 Y6.15
;TYPE:WALL-OUTER
G1 F1350 X0.125 Y6.15 E0.834
G1 X0.125 Y-6.15 E0.4091
G1 X25.2 Y-6.15 E0.834
G1 X25.2 Y6.15 E0.4091
G0 F4500 X25 Y6.15
G0 X24.41 Y5.36
;TYPE:SKIN
G1 F1350 X0.915 Y5.36 E0.78145
G1 X0.915 Y-5.36 E0.35655
G1 X24.41 Y-5.36 E0.78145
G1 X24.41 Y5.36 E0.35655
G0 F4500 X24.229 Y4.62
G1 F1350 X23.669 Y5.18 E0.02634
G0 F4500 X23.104 Y5.18
G1 F1350 X24.229 Y4.054 E0.05294
G0 F4500 X24.229 Y3.488
G1 F1350 X22.538 Y5.18 E0.07956
G0 F4500 X21.972 Y5.18
G1 F1350 X24.229 Y2.923 E0.10616
G0 F4500 X24.229 Y2.357
G1 F1350 X21.406 Y5.18 E0.13279
G0 F4500 X20.841 Y5.18
G1 F1350 X24.229 Y1.791 E0.15938
G0 F4500 X24.229 Y1.226
G1 F1350 X20.275 Y5.18 E0.18598
G0 F4500 X19.709 Y5.18
G1 F1350 X24.229 Y0.66 E0.21261
G0 F4500 X24.229 Y0.094
G1 F1350 X19.144 Y5.18 E0.23921
G0 F4500 X18.578 Y5.18
G1 F1350 X24.229 Y-.47 E0.26578
G0 F4500 X24.229 Y-1.036
G1 F1350 X18.012 Y5.18 E0.29241
G0 F4500 X17.447 Y5.18
G1 F1350 X24.229 Y-1.602 E0.319
G0 F4500 X24.229 Y-2.167
G1 F1350 X16.881 Y5.18 E0.3456
G0 F4500 X16.315 Y5.18
G1 F1350 X24.229 Y-2.733 E0.37223
G0 F4500 X24.229 Y-3.299
G1 F1350 X15.75 Y5.18 E0.39883
G0 F4500 X15.184 Y5.18
G1 F1350 X24.229 Y-3.865 E0.42545
G0 F4500 X24.229 Y-4.43
M104 T0 S220
G1 F1350 X14.618 Y5.18 E0.45205
G0 F4500 X14.053 Y5.18
G1 F1350 X24.229 Y-4.996 E0.47865
G0 F4500 X23.847 Y-5.18
G1 F1350 X13.487 Y5.18 E0.4873
G0 F4500 X12.921 Y5.18
G1 F1350 X23.282 Y-5.18 E0.48733
G0 F4500 X22.716 Y-5.18
G1 F1350 X12.355 Y5.18 E0.48733
G0 F4500 X11.79 Y5.18
G1 F1350 X22.15 Y-5.18 E0.4873
G0 F4500 X21.585 Y-5.18
G1 F1350 X11.224 Y5.18 E0.48733
G0 F4500 X10.658 Y5.18
G1 F1350 X21.019 Y-5.18 E0.48733
G0 F4500 X20.453 Y-5.18
G1 F1350 X10.093 Y5.18 E0.4873
G0 F4500 X9.527 Y5.18
G1 F1350 X19.888 Y-5.18 E0.48733
G0 F4500 X19.322 Y-5.18
G1 F1350 X8.961 Y5.18 E0.48733
G0 F4500 X8.396 Y5.18
G1 F1350 X18.756 Y-5.18 E0.4873
G0 F4500 X18.191 Y-5.18
G1 F1350 X7.83 Y5.18 E0.48733
G0 F4500 X7.264 Y5.18
G1 F1350 X17.625 Y-5.18 E0.48733
G0 F4500 X17.059 Y-5.18
G1 F1350 X6.699 Y5.18 E0.4873
G0 F4500 X6.133 Y5.18
G1 F1350 X16.493 Y-5.18 E0.4873
G0 F4500 X15.928 Y-5.18
G1 F1350 X5.567 Y5.18 E0.48733
G0 F4500 X5.002 Y5.18
G1 F1350 X15.362 Y-5.18 E0.4873
G0 F4500 X14.796 Y-5.18
G1 F1350 X4.436 Y5.18 E0.4873
G0 F4500 X3.87 Y5.18
G1 F1350 X14.231 Y-5.18 E0.48733
G0 F4500 X13.665 Y-5.18
G1 F1350 X3.305 Y5.18 E0.4873
G0 F4500 X2.739 Y5.18
G1 F1350 X13.099 Y-5.18 E0.4873
G0 F4500 X12.534 Y-5.18
G1 F1350 X2.173 Y5.18 E0.48733
G0 F4500 X1.607 Y5.18
G1 F1350 X11.968 Y-5.18 E0.48733
G0 F4500 X11.402 Y-5.18
G1 F1350 X1.095 Y5.127 E0.48481
G0 F4500 X1.095 Y4.561
G1 F1350 X10.837 Y-5.18 E0.45821
G0 F4500 X10.271 Y-5.18
G1 F1350 X1.095 Y3.995 E0.43159
G0 F4500 X1.095 Y3.43
M104 S213
G1 F1350 X9.705 Y-5.18 E0.40499
G0 F4500 X9.14 Y-5.18
G1 F1350 X1.095 Y2.864 E0.37839
G0 F4500 X1.095 Y2.298
G1 F1350 X8.574 Y-5.18 E0.35177
G0 F4500 X8.008 Y-5.18
G1 F1350 X1.095 Y1.733 E0.32517
G0 F4500 X1.095 Y1.167
G1 F1350 X7.443 Y-5.18 E0.29857
G0 F4500 X6.877 Y-5.18
G1 F1350 X1.095 Y0.601 E0.27194
G0 F4500 X1.095 Y0.036
G1 F1350 X6.311 Y-5.18 E0.24534
G0 F4500 X5.745 Y-5.18
G1 F1350 X1.095 Y-.529 E0.21875
G0 F4500 X1.095 Y-1.095
G1 F1350 X5.18 Y-5.18 E0.19215
G0 F4500 X4.614 Y-5.18
G1 F1350 X1.095 Y-1.66 E0.16555
G0 F4500 X1.095 Y-2.226
G1 F1350 X4.048 Y-5.18 E0.13892
G0 F4500 X3.483 Y-5.18
G1 F1350 X1.095 Y-2.792 E0.11232
G0 F4500 X1.095 Y-3.358
G1 F1350 X2.917 Y-5.18 E0.0857
G0 F4500 X2.351 Y-5.18
G1 F1350 X1.095 Y-3.923 E0.0591
G0 F4500 X1.095 Y-4.489
G1 F1350 X1.786 Y-5.18 E0.0325
G0 F4500 X1.22 Y-5.18
G1 F1350 X1.095 Y-5.055 E0.00588
G1 F1800 E-1.3
;MESH:FCPRO_final_3.3mf
G0 F4500 X24.786 Y5.736
G0 X24.786 Y7.015
G0 X78.5 Y73
G1 F1200 E-14.7
G1 F600 Z1.5
M135 T0
M104 S220
M116
M104 T1 S175
G1 F1200 E14.7
G0 F4500 X112.5 Y73 Z1.5
G1 F600 Z0.5
G0 F4500 X-.285 Y7.014
G0 X-.539 Y5.736
G0 X-.525 Y5.75
M104 S230
;TYPE:WALL-INNER
G1 F1800 E1.3
G1 F2250 X-24.8 Y5.75 E0.80739
G1 X-24.8 Y-5.75 E0.38249
G1 X-.525 Y-5.75 E0.80739
G1 X-.525 Y5.75 E0.38249
G0 F4500 X-.125 Y6.15
;TYPE:WALL-OUTER
G1 F1350 X-25.2 Y6.15 E0.834
G1 X-25.2 Y-6.15 E0.4091
G1 X-.125 Y-6.15 E0.834
G1 X-.125 Y6.15 E0.4091
G0 F4500 X-.325 Y6.15
G0 X-.915 Y5.36
;TYPE:SKIN
G1 F1350 X-24.41 Y5.36 E0.78145
G1 X-24.41 Y-5.36 E0.35655
G1 X-.915 Y-5.36 E0.78145
G1 X-.915 Y5.36 E0.35655
G0 F4500 X-1.22 Y5.18
G1 F1350 X-1.095 Y5.055 E0.00588
G0 F4500 X-1.095 Y4.489
G1 F1350 X-1.786 Y5.18 E0.0325
G0 F4500 X-2.351 Y5.18
G1 F1350 X-1.095 Y3.923 E0.0591
G0 F4500 X-1.095 Y3.358
G1 F1350 X-2.917 Y5.18 E0.0857
G0 F4500 X-3.483 Y5.18
G1 F1350 X-1.095 Y2.792 E0.11232
G0 F4500 X-1.095 Y2.226
G1 F1350 X-4.048 Y5.18 E0.13892
G0 F4500 X-4.614 Y5.18
G1 F1350 X-1.095 Y1.66 E0.16555
G0 F4500 X-1.095 Y1.095
G1 F1350 X-5.18 Y5.18 E0.19215
G0 F4500 X-5.745 Y5.18
G1 F1350 X-1.095 Y0.529 E0.21875
G0 F4500 X-1.095 Y-0.036
G1 F1350 X-6.311 Y5.18 E0.24534
G0 F4500 X-6.877 Y5.18
G1 F1350 X-1.095 Y-.601 E0.27194
G0 F4500 X-1.095 Y-1.167
G1 F1350 X-7.443 Y5.18 E0.29857
G0 F4500 X-8.008 Y5.18
G1 F1350 X-1.095 Y-1.733 E0.32517
G0 F4500 X-1.095 Y-2.298
G1 F1350 X-8.574 Y5.18 E0.35177
G0 F4500 X-9.14 Y5.18
G1 F1350 X-1.095 Y-2.864 E0.37839
G0 F4500 X-1.095 Y-3.43
G1 F1350 X-9.705 Y5.18 E0.40499
G0 F4500 X-10.271 Y5.18
G1 F1350 X-1.095 Y-3.995 E0.43159
G0 F4500 X-1.095 Y-4.561
G1 F1350 X-10.837 Y5.18 E0.45821
G0 F4500 X-11.402 Y5.18
G1 F1350 X-1.095 Y-5.127 E0.48481
G0 F4500 X-1.607 Y-5.18
G1 F1350 X-11.968 Y5.18 E0.48733
G0 F4500 X-12.534 Y5.18
G1 F1350 X-2.173 Y-5.18 E0.48733
G0 F4500 X-2.739 Y-5.18
G1 F1350 X-13.099 Y5.18 E0.4873
G0 F4500 X-13.665 Y5.18
G1 F1350 X-3.305 Y-5.18 E0.4873
G0 F4500 X-3.87 Y-5.18
G1 F1350 X-14.231 Y5.18 E0.48733
G0 F4500 X-14.796 Y5.18
G1 F1350 X-4.436 Y-5.18 E0.4873
G0 F4500 X-5.002 Y-5.18
G1 F1350 X-15.362 Y5.18 E0.4873
G0 F4500 X-15.928 Y5.18
G1 F1350 X-5.567 Y-5.18 E0.48733
G0 F4500 X-6.133 Y-5.18
G1 F1350 X-16.493 Y5.18 E0.4873
G0 F4500 X-17.059 Y5.18
G1 F1350 X-6.699 Y-5.18 E0.4873
G0 F4500 X-7.264 Y-5.18
G1 F1350 X-17.625 Y5.18 E0.48733
G0 F4500 X-18.191 Y5.18
G1 F1350 X-7.83 Y-5.18 E0.48733
G0 F4500 X-8.396 Y-5.18
G1 F1350 X-18.756 Y5.18 E0.4873
G0 F4500 X-19.322 Y5.18
G1 F1350 X-8.961 Y-5.18 E0.48733
G0 F4500 X-9.527 Y-5.18
G1 F1350 X-19.888 Y5.18 E0.48733
G0 F4500 X-20.453 Y5.18
