;FLAVOR:Makerbot
;TIME:13839
;MINX:-76.1
;MINY:-69.524
;MINZ:0.3
;MAXX:112.5
;MAXY:73
;MAXZ:10.9
;Generated with Cura_SteamEngine 4.8.0
T0
M82 ;absolute extrusion mode
; **** FlashForge Creator Pro PRINTER start.gcode for dual extrusion only ****
M83 ; relative extrusion mode
M73 P0 ; enable build progress
G162 X Y F3000 ; home XY maximum
G161 Z F1200 ; home Z minimum
G92 Z-5 ; set Z to -5
G1 Z0 ; move Z to 0
G161 Z F100 ; home Z slowly
M132 X Y Z A B ; recall home offsets
M135 T0 ; load right extruder offsets
G1 X150 Y-70 Z30 F9000 ; move to wait position right hand side of the table
G130 X20 Y20 Z20 A20 B20 ; lower stepper Vrefs while heating
M127
M140 S60 T0 ; set bed temperature
M134 T0 ; stabilize bed temperature
M104 S230 T0 ; set right extruder temp
M104 S230 T1 ; set left extruder temp
M133 T0 ; stabilize right extruder temperature
M133 T1 ; stabilize left extruder temperature
G130 X127 Y127 Z40 A127 B127 ; default stepper Vrefs
G92 A0 B0 ; zero extruders
M135 T0 ; right tool
G1 Z0.4 ; position nozzle
G1 X110 Y-70 E25 F300 ; purge nozzle
G1 X120 Y-70 Z0.15 F1200 ; slow wipe
G1 X110 Y-70 Z0.5 F1200 ; lift
G1 Z4 F1200 ; raise
G1 X-110 F4000 ; move nozzle to left side of bed
G1 Z0.4 F1200 ; lower
M135 T1 ; left tool
G1 X-140 Y-70 F9000 ; reposition nozzle
G1 X-100 Y-70 E25 F300 ; purge nozzle
G1 X-110 Y-70 Z0.15 F1200 ; slow wipe
G1 X-100 Y-70 Z0.5 F1200 ; lift
G92 A0 B0 ; zero extruders
M135 T1 ; left or right tool
M73 P1 ;@body (notify GPX body has started)
; **** end of start.gcode ****
M83 ;relative extrusion mode
G1 F1800 E-1.3
;LAYER_COUNT:49
;LAYER:0
M127 T0
M104 T1 S175
;MESH:pliers_flexi.STL
G0 F2700 X9.837 Y-18.306 Z0.3
;TYPE:WALL-INNER
G1 F1800 E1.3
G1 F900 X9.837 Y-12.106 E0.30932
G1 X16.037 Y-12.106 E0.30932
G1 X16.037 Y-18.306 E0.30932
G1 X9.837 Y-18.306 E0.30932
G0 F2700 X9.767 Y-18.376
G0 X9.767 Y-25.376
G0 X9.837 Y-25.306
G1 F900 X9.837 Y-19.106 E0.30932
G1 X16.037 Y-19.106 E0.30932
G1 X16.037 Y-25.306 E0.30932
G1 X9.837 Y-25.306 E0.30932
G0 F2700 X9.767 Y-25.376
G0 X16.767 Y-25.376
G0 X16.837 Y-25.306
G1 F900 X16.837 Y-19.106 E0.30932
G1 X23.037 Y-19.106 E0.30932
G1 X23.037 Y-25.306 E0.30932
G1 X16.837 Y-25.306 E0.30932
G0 F2700 X16.767 Y-25.376
G0 X16.767 Y-32.376
G0 X16.837 Y-32.306
G1 F900 X16.837 Y-26.106 E0.30932
G1 X23.037 Y-26.106 E0.30932
G1 X23.037 Y-32.213 E0.30468
G1 X28.11 Y-32.213 E0.25309
G1 X28.11 Y-12.2 E0.99845
G1 X23.037 Y-12.2 E0.25309
G1 X23.037 Y-18.306 E0.30463
G1 X16.837 Y-18.306 E0.30932
G1 X16.837 Y-12.106 E0.30932
G1 X22.944 Y-12.106 E0.30468
G1 X22.944 Y-6.043 E0.30248
G1 X2.93 Y-6.043 E0.9985
G1 X2.93 Y-12.106 E0.30248
G1 X9.037 Y-12.106 E0.30468
G1 X9.037 Y-18.306 E0.30932
G1 X2.837 Y-18.306 E0.30932
G1 X2.837 Y-12.2 E0.30463
G1 X-3.226 Y-12.2 E0.30248
G1 X-3.226 Y-32.213 E0.99845
G1 X2.837 Y-32.213 E0.30248
G1 X2.837 Y-26.106 E0.30468
G1 X9.037 Y-26.106 E0.30932
G1 X9.037 Y-32.306 E0.30932
G1 X2.93 Y-32.306 E0.30468
G1 X2.93 Y-38.13 E0.29056
G1 X2.93 Y-38.131 E0.00005
G1 X2.93 Y-38.339 E0.01038
G1 X3.138 Y-38.33 E0.00664
G1 X22.944 Y-37.406 E0.9892
G1 X22.944 Y-32.306 E0.25444
G1 X16.837 Y-32.306 E0.30468
G0 F2700 X16.767 Y-32.376
G0 X9.767 Y-32.376
G0 X9.837 Y-32.306
G1 F900 X9.837 Y-26.106 E0.30932
G1 X16.037 Y-26.106 E0.30932
G1 X16.037 Y-32.306 E0.30932
G1 X9.837 Y-32.306 E0.30932
G0 F2700 X9.767 Y-32.376
G0 X9.065 Y-26.078
G0 X2.767 Y-25.376
G0 X2.837 Y-25.306
G1 F900 X2.837 Y-19.106 E0.30932
G1 X9.037 Y-19.106 E0.30932
G1 X9.037 Y-25.306 E0.30932
G1 X2.837 Y-25.306 E0.30932
G0 F2700 X3.237 Y-24.906
;TYPE:WALL-OUTER
G1 F900 X3.237 Y-19.506 E0.26941
G1 X8.637 Y-19.506 E0.26941
G1 X8.637 Y-24.906 E0.26941
G1 X3.237 Y-24.906 E0.26941
G0 F2700 X3.237 Y-24.706
G0 X2.737 Y-24.706
G0 X2.809 Y-19.078
G0 X3.237 Y-17.906
G1 F900 X3.237 Y-12.506 E0.26941
G1 X8.637 Y-12.506 E0.26941
G1 X8.637 Y-17.906 E0.26941
G1 X3.237 Y-17.906 E0.26941
G0 F2700 X3.237 Y-17.706
G0 X2.737 Y-17.706
G0 X9.065 Y-18.334
G0 X10.237 Y-17.906
G1 F900 X10.237 Y-12.506 E0.26941
G1 X15.637 Y-12.506 E0.26941
G1 X15.637 Y-17.906 E0.26941
G1 X10.237 Y-17.906 E0.26941
G0 F2700 X10.237 Y-17.706
G0 X9.737 Y-17.706
G0 X17.237 Y-18.406
G0 X17.237 Y-17.906
G1 F900 X17.237 Y-12.506 E0.26941
G1 X22.637 Y-12.506 E0.26941
G1 X22.637 Y-17.906 E0.26941
G1 X17.237 Y-17.906 E0.26941
G0 F2700 X17.237 Y-17.706
G0 X16.737 Y-17.706
G0 X16.737 Y-24.906
G0 X17.237 Y-24.906
G1 F900 X17.237 Y-19.506 E0.26941
G1 X22.637 Y-19.506 E0.26941
G1 X22.637 Y-24.906 E0.26941
G1 X17.237 Y-24.906 E0.26941
G0 F2700 X17.237 Y-24.706
G0 X16.737 Y-24.706
G0 X16.065 Y-25.334
G0 X9.809 Y-25.334
G0 X10.237 Y-24.906
G1 F900 X10.237 Y-19.506 E0.26941
G1 X15.637 Y-19.506 E0.26941
G1 X15.637 Y-24.906 E0.26941
G1 X10.237 Y-24.906 E0.26941
G0 F2700 X10.237 Y-24.706
G0 X9.737 Y-24.706
G0 X9.737 Y-31.906
G0 X10.237 Y-31.906
G1 F900 X10.237 Y-26.506 E0.26941
G1 X15.637 Y-26.506 E0.26941
G1 X15.637 Y-31.906 E0.26941
G1 X10.237 Y-31.906 E0.26941
G0 F2700 X10.237 Y-31.706
G0 X9.737 Y-31.706
G0 X17.237 Y-32.406
G0 X17.237 Y-31.906
G1 F900 X17.237 Y-26.506 E0.26941
G1 X22.637 Y-26.506 E0.26941
G1 X22.637 Y-31.906 E0.26941
G1 X17.237 Y-31.906 E0.26941
G0 F2700 X17.237 Y-31.706
G0 X16.737 Y-31.706
G0 X22.844 Y-32.613
G0 X23.344 Y-32.613
G1 F900 X28.51 Y-32.613 E0.25773
G1 X28.51 Y-11.8 E1.03836
G1 X23.344 Y-11.8 E0.25773
G1 X23.344 Y-5.643 E0.30717
G1 X2.53 Y-5.643 E1.03841
G1 X2.53 Y-11.8 E0.30717
G1 X-3.626 Y-11.8 E0.30712
G1 X-3.626 Y-32.613 E1.03836
G1 X2.53 Y-32.613 E0.30712
G1 X2.53 Y-38.55 E0.2962
G1 X2.53 Y-38.551 E0.00005
G1 X2.53 Y-38.759 E0.01038
G1 X2.738 Y-38.75 E0.00664
G1 X23.344 Y-37.788 E1.02916
G1 X23.344 Y-32.613 E0.25818
G0 F2700 X23.544 Y-32.613
G0 X23.544 Y-32.113
G0 X23.065 Y-26.078
G0 X2.809 Y-26.078
G0 X2.737 Y-31.906
G0 X3.237 Y-31.906
G1 F900 X3.237 Y-26.506 E0.26941
G1 X8.637 Y-26.506 E0.26941
G1 X8.637 Y-31.906 E0.26941
G1 X3.237 Y-31.906 E0.26941
G0 F2700 X3.237 Y-31.706
G0 X2.447 Y-31.823
;TYPE:SKIN
G1 F900 X2.447 Y-25.716 E0.30468
G1 X9.427 Y-25.716 E0.34823
G1 X9.427 Y-32.696 E0.34823
G1 X3.32 Y-32.696 E0.30468
G1 X3.32 Y-37.93 E0.26113
G1 X22.554 Y-37.033 E0.96063
G1 X22.554 Y-32.696 E0.21637
G1 X16.447 Y-32.696 E0.30468
G1 X16.447 Y-25.716 E0.34823
G1 X23.427 Y-25.716 E0.34823
G1 X23.427 Y-31.823 E0.30468
G1 X27.72 Y-31.823 E0.21418
G1 X27.72 Y-12.59 E0.95954
G1 X23.427 Y-12.59 E0.21418
G1 X23.427 Y-18.696 E0.30463
G1 X16.447 Y-18.696 E0.34823
G1 X16.447 Y-11.716 E0.34823
G1 X22.554 Y-11.716 E0.30468
G1 X22.554 Y-6.433 E0.26357
G1 X3.32 Y-6.433 E0.95959
G1 X3.32 Y-11.716 E0.26357
G1 X9.427 Y-11.716 E0.30468
G1 X9.427 Y-18.696 E0.34823
G1 X2.447 Y-18.696 E0.34823
G1 X2.447 Y-12.59 E0.30463
G1 X-2.836 Y-12.59 E0.26357
G1 X-2.836 Y-31.823 E0.95954
G1 X2.447 Y-31.823 E0.26357
G0 F2700 X2.447 Y-25.696
G1 F900 X2.447 Y-18.716 E0.34823
G1 X9.427 Y-18.716 E0.34823
G1 X9.427 Y-25.696 E0.34823
G1 X2.447 Y-25.696 E0.34823
G0 F2700 X9.447 Y-25.696
G1 F900 X9.447 Y-18.716 E0.34823
G1 X16.427 Y-18.716 E0.34823
G1 X16.427 Y-25.696 E0.34823
G1 X9.447 Y-25.696 E0.34823
G0 F2700 X9.447 Y-18.696
G1 F900 X9.447 Y-11.716 E0.34823
G1 X16.427 Y-11.716 E0.34823
G1 X16.427 Y-18.696 E0.34823
G1 X9.447 Y-18.696 E0.34823
G0 F2700 X16.065 Y-19.078
G0 X16.447 Y-25.696
G1 F900 X16.447 Y-18.716 E0.34823
G1 X23.427 Y-18.716 E0.34823
G1 X23.427 Y-25.696 E0.34823
G1 X16.447 Y-25.696 E0.34823
G0 F2700 X9.809 Y-26.078
G0 X9.447 Y-32.696
G1 F900 X9.447 Y-25.716 E0.34823
G1 X16.427 Y-25.716 E0.34823
G1 X16.427 Y-32.696 E0.34823
G1 X9.447 Y-32.696 E0.34823
G0 F2700 X22.374 Y-36.457
G1 F900 X21.952 Y-36.879 E0.02977
G0 F2700 X21.358 Y-36.907
G1 F900 X22.374 Y-35.891 E0.07168
G0 F2700 X22.374 Y-35.325
G1 F900 X20.764 Y-36.935 E0.11359
G0 F2700 X20.171 Y-36.962
G1 F900 X22.374 Y-34.759 E0.15543
G0 F2700 X22.374 Y-34.194
G1 F900 X19.578 Y-36.99 E0.19727
G0 F2700 X18.985 Y-37.017
G1 F900 X22.374 Y-33.628 E0.23911
G0 F2700 X22.374 Y-33.062
G1 F900 X18.391 Y-37.045 E0.28102
G0 F2700 X17.798 Y-37.072
G1 F900 X21.995 Y-32.875 E0.29612
G0 F2700 X21.43 Y-32.875
G1 F900 X17.205 Y-37.1 E0.2981
G0 F2700 X16.611 Y-37.128
G1 F900 X20.864 Y-32.875 E0.30007
G0 F2700 X20.298 Y-32.875
G1 F900 X16.018 Y-37.156 E0.30201
G0 F2700 X15.424 Y-37.183
G1 F900 X19.733 Y-32.875 E0.30399
G0 F2700 X19.167 Y-32.875
G1 F900 X14.831 Y-37.211 E0.30593
G0 F2700 X14.238 Y-37.239
G1 F900 X18.601 Y-32.875 E0.30787
G0 F2700 X18.036 Y-32.875
G1 F900 X13.645 Y-37.266 E0.30981
G0 F2700 X13.051 Y-37.294
G1 F900 X17.47 Y-32.875 E0.31178
G0 F2700 X16.904 Y-32.875
G1 F900 X12.457 Y-37.322 E0.31376
G0 F2700 X11.864 Y-37.35
G1 F900 X16.339 Y-32.875 E0.31574
G0 F2700 X15.773 Y-32.875
G1 F900 X11.271 Y-37.377 E0.31764
G0 F2700 X10.678 Y-37.405
G1 F900 X15.207 Y-32.875 E0.31958
G0 F2700 X14.642 Y-32.875
G1 F900 X10.084 Y-37.432 E0.32156
G0 F2700 X9.491 Y-37.46
G1 F900 X14.076 Y-32.875 E0.3235
G0 F2700 X13.51 Y-32.875
G1 F900 X8.898 Y-37.487 E0.3254
G0 F2700 X8.304 Y-37.516
G1 F900 X12.945 Y-32.875 E0.32745
G0 F2700 X12.379 Y-32.875
G1 F900 X7.71 Y-37.543 E0.32939
G0 F2700 X7.117 Y-37.571
G1 F900 X11.813 Y-32.875 E0.33133
G0 F2700 X11.247 Y-32.875
G1 F900 X6.524 Y-37.598 E0.33323
G0 F2700 X5.931 Y-37.626
G1 F900 X10.682 Y-32.875 E0.33521
G0 F2700 X10.116 Y-32.875
G1 F900 X5.337 Y-37.654 E0.33718
G0 F2700 X4.744 Y-37.681
G1 F900 X9.55 Y-32.875 E0.33909
G0 F2700 X8.985 Y-32.875
G1 F900 X4.15 Y-37.71 E0.34114
G0 F2700 X3.557 Y-37.737
G1 F900 X8.419 Y-32.875 E0.34304
G0 F2700 X7.853 Y-32.875
G1 F900 X3.499 Y-37.229 E0.3072
G0 F2700 X3.499 Y-36.664
G1 F900 X7.288 Y-32.875 E0.26733
G0 F2700 X6.722 Y-32.875
G1 F900 X3.499 Y-36.098 E0.2274
G0 F2700 X3.499 Y-35.532
G1 F900 X6.156 Y-32.875 E0.18747
G0 F2700 X5.591 Y-32.875
G1 F900 X3.499 Y-34.967 E0.1476
G0 F2700 X3.499 Y-34.401
G1 F900 X5.025 Y-32.875 E0.10767
G0 F2700 X4.459 Y-32.875
G1 F900 X3.499 Y-33.835 E0.06773
G0 F2700 X3.499 Y-33.27
G1 F900 X3.894 Y-32.875 E0.02787
G0 F2700 X9.065 Y-32.334
G0 X9.065 Y-26.078
G0 X2.809 Y-26.078
G0 X2.266 Y-31.108
G1 F900 X1.733 Y-31.641 E0.03761
G0 F2700 X1.168 Y-31.641
G1 F900 X2.266 Y-30.542 E0.07751
G0 F2700 X2.266 Y-29.977
G1 F900 X0.602 Y-31.641 E0.1174
G0 F2700 X0.036 Y-31.641
G1 F900 X2.266 Y-29.411 E0.15734
G0 F2700 X2.266 Y-28.845
G1 F900 X-.528 Y-31.641 E0.1972
G0 F2700 X-1.094 Y-31.641
G1 F900 X2.266 Y-28.28 E0.2371
G0 F2700 X2.266 Y-27.714
G1 F900 X-1.66 Y-31.641 E0.27704
G0 F2700 X-2.225 Y-31.641
G1 F900 X2.266 Y-27.148 E0.31693
G0 F2700 X2.266 Y-26.582
G1 F900 X-2.656 Y-31.506 E0.34734
G0 F2700 X-2.656 Y-30.94
G1 F900 X2.266 Y-26.017 E0.34731
G0 F2700 X2.266 Y-25.451
G1 F900 X-2.656 Y-30.375 E0.34734
G0 F2700 X-2.656 Y-29.809
G1 F900 X2.266 Y-24.885 E0.34734
G0 F2700 X2.266 Y-24.32
G1 F900 X-2.656 Y-29.243 E0.34731
G0 F2700 X-2.656 Y-28.678
G1 F900 X2.266 Y-23.754 E0.34734
G0 F2700 X2.266 Y-23.188
G1 F900 X-2.656 Y-28.112 E0.34734
G0 F2700 X-2.656 Y-27.546
G1 F900 X2.266 Y-22.623 E0.34731
G0 F2700 X2.266 Y-22.057
G1 F900 X-2.656 Y-26.981 E0.34734
G0 F2700 X-2.656 Y-26.415
G1 F900 X2.266 Y-21.491 E0.34734
G0 F2700 X2.266 Y-20.926
G1 F900 X-2.656 Y-25.849 E0.34731
G0 F2700 X-2.656 Y-25.284
G1 F900 X2.266 Y-20.36 E0.34734
G0 F2700 X2.266 Y-19.794
G1 F900 X-2.656 Y-24.718 E0.34734
G0 F2700 X-2.656 Y-24.152
G1 F900 X2.266 Y-19.229 E0.34731
G0 F2700 X2.266 Y-18.663
G1 F900 X-2.656 Y-23.586 E0.34731
G0 F2700 X-2.656 Y-23.021
G1 F900 X2.266 Y-18.097 E0.34734
G0 F2700 X2.266 Y-17.532
G1 F900 X-2.656 Y-22.455 E0.34731
G0 F2700 X-2.656 Y-21.889
G1 F900 X2.266 Y-16.966 E0.34731
G0 F2700 X2.266 Y-16.4
G1 F900 X-2.656 Y-21.324 E0.34734
G0 F2700 X-2.656 Y-20.758
G1 F900 X2.266 Y-15.834 E0.34734
G0 F2700 X2.266 Y-15.269
G1 F900 X-2.656 Y-20.192 E0.34731
G0 F2700 X-2.656 Y-19.627
G1 F900 X2.266 Y-14.703 E0.34734
G0 F2700 X2.266 Y-14.137
G1 F900 X-2.656 Y-19.061 E0.34734
G0 F2700 X-2.656 Y-18.495
G1 F900 X2.266 Y-13.572 E0.34731
G0 F2700 X2.266 Y-13.006
G1 F900 X-2.656 Y-17.93 E0.34734
G0 F2700 X-2.656 Y-17.364
G1 F900 X1.938 Y-12.768 E0.3242
G0 F2700 X1.373 Y-12.768
G1 F900 X-2.656 Y-16.798 E0.2843
G0 F2700 X-2.656 Y-16.233
G1 F900 X0.807 Y-12.768 E0.2444
G0 F2700 X0.241 Y-12.768
G1 F900 X-2.656 Y-15.667 E0.20447
G0 F2700 X-2.656 Y-15.101
G1 F900 X-.323 Y-12.768 E0.16461
G0 F2700 X-.889 Y-12.768
G1 F900 X-2.656 Y-14.535 E0.12467
G0 F2700 X-2.656 Y-13.97
G1 F900 X-1.455 Y-12.768 E0.08477
G0 F2700 X-2.02 Y-12.768
G1 F900 X-2.656 Y-13.404 E0.04487
G0 F2700 X-2.656 Y-12.838
G1 F900 X-2.586 Y-12.768 E0.00494
G0 F2700 X2.809 Y-18.334
G0 X9.065 Y-18.334
G0 X9.065 Y-12.078
G0 X3.499 Y-11.208
G1 F900 X8.094 Y-6.612 E0.32424
G0 F2700 X7.529 Y-6.612
G1 F900 X3.499 Y-10.642 E0.28434
G0 F2700 X3.499 Y-10.076
G1 F900 X6.963 Y-6.612 E0.2444
G0 F2700 X6.397 Y-6.612
G1 F900 X3.499 Y-9.511 E0.2045
G0 F2700 X3.499 Y-8.945
G1 F900 X5.832 Y-6.612 E0.16461
G0 F2700 X5.266 Y-6.612
G1 F900 X3.499 Y-8.379 E0.12467
G0 F2700 X3.499 Y-7.814
G1 F900 X4.7 Y-6.612 E0.08477
G0 F2700 X4.135 Y-6.612
G1 F900 X3.499 Y-7.248 E0.04487
G0 F2700 X3.499 Y-6.682
G1 F900 X3.569 Y-6.612 E0.00494
G0 F2700 X3.737 Y-11.535
G1 F900 X8.66 Y-6.612 E0.34734
G0 F2700 X9.226 Y-6.612
G1 F900 X4.303 Y-11.535 E0.34734
G0 F2700 X4.869 Y-11.535
G1 F900 X9.792 Y-6.612 E0.34734
G0 F2700 X10.357 Y-6.612
G1 F900 X5.434 Y-11.535 E0.34734
G0 F2700 X6 Y-11.535
M104 T1 S230
G1 F900 X10.923 Y-6.612 E0.34734
G0 F2700 X11.489 Y-6.612
G1 F900 X6.566 Y-11.535 E0.34734
G0 F2700 X7.131 Y-11.535
G1 F900 X12.054 Y-6.612 E0.34734
G0 F2700 X12.62 Y-6.612
G1 F900 X7.697 Y-11.535 E0.34734
G0 F2700 X8.263 Y-11.535
G1 F900 X13.186 Y-6.612 E0.34734
G0 F2700 X13.751 Y-6.612
G1 F900 X8.828 Y-11.535 E0.34734
G0 F2700 X9.394 Y-11.535
G1 F900 X14.317 Y-6.612 E0.34734
G0 F2700 X14.883 Y-6.612
G1 F900 X9.96 Y-11.535 E0.34734
G0 F2700 X10.525 Y-11.535
G1 F900 X15.448 Y-6.612 E0.34734
G0 F2700 X16.014 Y-6.612
G1 F900 X11.091 Y-11.535 E0.34734
G0 F2700 X11.657 Y-11.535
G1 F900 X16.58 Y-6.612 E0.34734
G0 F2700 X17.145 Y-6.612
G1 F900 X12.223 Y-11.535 E0.34731
G0 F2700 X12.788 Y-11.535
G1 F900 X17.711 Y-6.612 E0.34734
G0 F2700 X18.277 Y-6.612
G1 F900 X13.354 Y-11.535 E0.34734
G0 F2700 X13.92 Y-11.535
G1 F900 X18.842 Y-6.612 E0.34731
G0 F2700 X19.408 Y-6.612
G1 F900 X14.485 Y-11.535 E0.34734
G0 F2700 X15.051 Y-11.535
G1 F900 X19.974 Y-6.612 E0.34734
G0 F2700 X20.54 Y-6.612
G1 F900 X15.617 Y-11.535 E0.34734
G0 F2700 X16.182 Y-11.535
G1 F900 X21.105 Y-6.612 E0.34734
G0 F2700 X21.671 Y-6.612
G1 F900 X16.748 Y-11.535 E0.34734
G0 F2700 X17.314 Y-11.535
G1 F900 X22.237 Y-6.612 E0.34734
G0 F2700 X22.372 Y-7.042
G1 F900 X17.879 Y-11.535 E0.31701
G0 F2700 X18.445 Y-11.535
G1 F900 X22.372 Y-7.608 E0.27707
G0 F2700 X22.372 Y-8.174
G1 F900 X19.011 Y-11.535 E0.23714
G0 F2700 X19.576 Y-11.535
G1 F900 X22.372 Y-8.739 E0.19727
G0 F2700 X22.372 Y-9.305
G1 F900 X20.142 Y-11.535 E0.15734
G0 F2700 X20.708 Y-11.535
G1 F900 X22.372 Y-9.871 E0.1174
G0 F2700 X22.372 Y-10.436
G1 F900 X21.274 Y-11.535 E0.07751
G0 F2700 X21.839 Y-11.535
G1 F900 X22.372 Y-11.002 E0.03761
G0 F2700 X16.809 Y-12.078
G0 X16.809 Y-18.334
G0 X23.065 Y-18.334
G0 X23.999 Y-12.77
G1 F900 X23.606 Y-13.163 E0.02773
G0 F2700 X23.606 Y-13.729
G1 F900 X24.564 Y-12.77 E0.06763
G0 F2700 X25.13 Y-12.77
G1 F900 X23.606 Y-14.294 E0.10753
G0 F2700 X23.606 Y-14.86
G1 F900 X25.696 Y-12.77 E0.14746
G0 F2700 X26.261 Y-12.77
G1 F900 X23.606 Y-15.426 E0.18736
G0 F2700 X23.606 Y-15.991
G1 F900 X26.827 Y-12.77 E0.22726
G0 F2700 X27.393 Y-12.77
G1 F900 X23.606 Y-16.557 E0.26719
G0 F2700 X23.606 Y-17.123
G1 F900 X27.539 Y-13.189 E0.27753
G0 F2700 X27.539 Y-13.755
G1 F900 X23.606 Y-17.688 E0.27749
G0 F2700 X23.606 Y-18.254
G1 F900 X27.539 Y-14.321 E0.27749
G0 F2700 X27.539 Y-14.886
G1 F900 X23.606 Y-18.82 E0.27753
G0 F2700 X23.606 Y-19.386
G1 F900 X27.539 Y-15.452 E0.27753
G0 F2700 X27.539 Y-16.018
G1 F900 X23.606 Y-19.951 E0.27749
G0 F2700 X23.606 Y-20.517
G1 F900 X27.539 Y-16.583 E0.27753
G0 F2700 X27.539 Y-17.149
G1 F900 X23.606 Y-21.083 E0.27753
G0 F2700 X23.606 Y-21.648
G1 F900 X27.539 Y-17.715 E0.27749
G0 F2700 X27.539 Y-18.28
G1 F900 X23.606 Y-22.214 E0.27753
G0 F2700 X23.606 Y-22.78
G1 F900 X27.539 Y-18.846 E0.27753
G0 F2700 X27.539 Y-19.412
