;FLAVOR:Makerbot
;TIME:3233
;MINX:-34
;MINY:-14.984
;MINZ:0.3
;MAXX:112.5
;MAXY:73
;MAXZ:13.7
;Generated with Cura_SteamEngine 4.7.1
T0
M82 ;absolute extrusion mode
; **** FlashForge Creator Pro PRINTER start.gcode for dual extrusion only ****
M83 ; relative extrusion mode
M73 P0 ; enable build progress
G162 X Y F3000 ; home XY maximum
G161 Z F1200 ; home Z minimum
G92 Z-5 ; set Z to -5
G1 Z0 ; move Z to 0
G161 Z F100 ; home Z slowly
M132 X Y Z A B ; recall home offsets
M135 T0 ; load right extruder offsets
G1 X150 Y-70 Z30 F9000 ; move to wait position right hand side of the table
G130 X20 Y20 Z20 A20 B20 ; lower stepper Vrefs while heating
M127
M140 S80 T0 ; set bed temperature
M134 T0 ; stabilize bed temperature
M104 S230 T0 ; set right extruder temp
M104 S228 T1 ; set left extruder temp
M133 T0 ; stabilize right extruder temperature
M133 T1 ; stabilize left extruder temperature
G130 X127 Y127 Z40 A127 B127 ; default stepper Vrefs
G92 A0 B0 ; zero extruders
M135 T0 ; right tool
G1 Z0.4 ; position nozzle
G1 X110 Y-70 E25 F300 ; purge nozzle
G1 X120 Y-70 Z0.15 F1200 ; slow wipe
G1 X110 Y-70 Z0.5 F1200 ; lift
G1 Z4 F1200 ; raise
G1 X-110 F4000 ; move nozzle to left side of bed
G1 Z0.4 F1200 ; lower
M135 T1 ; left tool
G1 X-140 Y-70 F9000 ; reposition nozzle
G1 X-100 Y-70 E25 F300 ; purge nozzle
G1 X-110 Y-70 Z0.15 F1200 ; slow wipe
G1 X-100 Y-70 Z0.5 F1200 ; lift
G92 A0 B0 ; zero extruders
M135 T0 ; left or right tool
M73 P1 ;@body (notify GPX body has started)
; **** end of start.gcode ****
M83 ;relative extrusion mode
G1 F1800 E-1.3
;LAYER_COUNT:125
;LAYER:0
M127 T0
M104 T1 S175
G0 F1800 X0.336 Y14.15 Z0.3
;TYPE:SKIRT
G1 F1800 E1.3
G1 F900 X0.048 Y14.169 E0.0144
G1 X-.507 Y14.15 E0.02771
G1 X-25.4 Y14.15 E1.24192
G1 X-26.189 Y14.11 E0.03941
G1 X-26.969 Y13.991 E0.03936
G1 X-27.734 Y13.793 E0.03942
G1 X-28.474 Y13.519 E0.03937
G1 X-29.183 Y13.171 E0.0394
G1 X-29.854 Y12.753 E0.03944
G1 X-30.478 Y12.27 E0.03937
G1 X-31.051 Y11.727 E0.03938
G1 X-31.566 Y11.128 E0.03941
G1 X-32.017 Y10.48 E0.03939
G1 X-32.401 Y9.789 E0.03944
G1 X-32.713 Y9.064 E0.03938
G1 X-32.95 Y8.311 E0.03938
G1 X-33.109 Y7.537 E0.03942
G1 X-33.19 Y6.752 E0.03937
G1 X-33.2 Y6.35 E0.02006
G1 X-33.2 Y-6.35 E0.63361
G1 X-33.16 Y-7.139 E0.03941
G1 X-33.041 Y-7.919 E0.03936
G1 X-32.843 Y-8.684 E0.03942
G1 X-32.569 Y-9.424 E0.03937
G1 X-32.221 Y-10.133 E0.0394
G1 X-31.803 Y-10.804 E0.03944
G1 X-31.32 Y-11.428 E0.03937
G1 X-30.777 Y-12.001 E0.03938
G1 X-30.178 Y-12.516 E0.03941
G1 X-29.53 Y-12.967 E0.03939
G1 X-28.839 Y-13.351 E0.03944
G1 X-28.114 Y-13.663 E0.03938
G1 X-27.361 Y-13.9 E0.03938
G1 X-26.587 Y-14.059 E0.03942
G1 X-25.802 Y-14.14 E0.03937
G1 X-25.4 Y-14.15 E0.02006
G1 X-.586 Y-14.15 E1.23798
G1 X-0.084 Y-14.187 E0.02511
G1 X0.705 Y-14.165 E0.03938
G1 X0.82 Y-14.15 E0.00579
G1 X25.4 Y-14.15 E1.2263
G1 X26.189 Y-14.11 E0.03941
G1 X26.969 Y-13.991 E0.03936
G1 X27.734 Y-13.793 E0.03942
G1 X28.474 Y-13.519 E0.03937
G1 X29.183 Y-13.171 E0.0394
G1 X29.854 Y-12.753 E0.03944
G1 X30.478 Y-12.27 E0.03937
G1 X31.051 Y-11.727 E0.03938
G1 X31.566 Y-11.128 E0.03941
G1 X32.017 Y-10.48 E0.03939
G1 X32.401 Y-9.789 E0.03944
G1 X32.713 Y-9.064 E0.03938
G1 X32.95 Y-8.311 E0.03938
G1 X33.109 Y-7.537 E0.03942
G1 X33.19 Y-6.752 E0.03937
G1 X33.2 Y-6.35 E0.02006
G1 X33.2 Y6.35 E0.63361
G1 X33.16 Y7.139 E0.03941
G1 X33.041 Y7.919 E0.03936
G1 X32.843 Y8.684 E0.03942
G1 X32.569 Y9.424 E0.03937
G1 X32.221 Y10.133 E0.0394
G1 X31.803 Y10.804 E0.03944
G1 X31.32 Y11.428 E0.03937
G1 X30.777 Y12.001 E0.03938
G1 X30.178 Y12.516 E0.03941
G1 X29.53 Y12.967 E0.03939
G1 X28.839 Y13.351 E0.03944
G1 X28.114 Y13.663 E0.03938
G1 X27.361 Y13.9 E0.03938
G1 X26.587 Y14.059 E0.03942
G1 X25.802 Y14.14 E0.03937
G1 X25.4 Y14.15 E0.02006
G1 X0.336 Y14.15 E1.25045
G0 F1800 X0.314 Y13.75
G1 F900 X-25.4 Y13.75 E1.28288
G1 X-26.168 Y13.71 E0.03837
G1 X-26.928 Y13.591 E0.03838
G1 X-27.671 Y13.393 E0.03836
G1 X-28.39 Y13.119 E0.03839
G1 X-29.076 Y12.772 E0.03835
G1 X-29.723 Y12.356 E0.03838
G1 X-30.323 Y11.875 E0.03837
G1 X-30.87 Y11.334 E0.03838
G1 X-31.358 Y10.739 E0.03839
G1 X-31.781 Y10.097 E0.03836
G1 X-32.136 Y9.414 E0.0384
G1 X-32.417 Y8.699 E0.03833
G1 X-32.623 Y7.957 E0.03842
G1 X-32.751 Y7.199 E0.03835
G1 X-32.8 Y6.35 E0.04243
G1 X-32.8 Y-6.35 E0.63361
G1 X-32.76 Y-7.118 E0.03837
G1 X-32.641 Y-7.878 E0.03838
G1 X-32.443 Y-8.621 E0.03836
G1 X-32.169 Y-9.34 E0.03839
G1 X-31.822 Y-10.026 E0.03835
G1 X-31.406 Y-10.673 E0.03838
G1 X-30.925 Y-11.273 E0.03837
G1 X-30.384 Y-11.82 E0.03838
G1 X-29.789 Y-12.308 E0.03839
G1 X-29.147 Y-12.731 E0.03836
G1 X-28.464 Y-13.086 E0.0384
G1 X-27.749 Y-13.367 E0.03833
G1 X-27.007 Y-13.573 E0.03842
G1 X-26.249 Y-13.701 E0.03835
G1 X-25.4 Y-13.75 E0.04243
G1 X-.575 Y-13.75 E1.23852
G1 X-0.035 Y-13.788 E0.02701
G1 X0.734 Y-13.761 E0.03839
G1 X0.813 Y-13.75 E0.00398
G1 X25.4 Y-13.75 E1.22665
G1 X26.168 Y-13.71 E0.03837
G1 X26.928 Y-13.591 E0.03838
G1 X27.671 Y-13.393 E0.03836
G1 X28.39 Y-13.119 E0.03839
G1 X29.076 Y-12.772 E0.03835
G1 X29.723 Y-12.356 E0.03838
G1 X30.323 Y-11.875 E0.03837
G1 X30.87 Y-11.334 E0.03838
G1 X31.358 Y-10.739 E0.03839
G1 X31.781 Y-10.097 E0.03836
G1 X32.136 Y-9.414 E0.0384
G1 X32.417 Y-8.699 E0.03833
G1 X32.623 Y-7.957 E0.03842
G1 X32.751 Y-7.199 E0.03835
G1 X32.8 Y-6.35 E0.04243
G1 X32.8 Y6.35 E0.63361
G1 X32.76 Y7.118 E0.03837
G1 X32.641 Y7.878 E0.03838
G1 X32.443 Y8.621 E0.03836
G1 X32.169 Y9.34 E0.03839
G1 X31.822 Y10.026 E0.03835
G1 X31.406 Y10.673 E0.03838
G1 X30.925 Y11.273 E0.03837
G1 X30.384 Y11.82 E0.03838
G1 X29.789 Y12.308 E0.03839
G1 X29.147 Y12.731 E0.03836
G1 X28.464 Y13.086 E0.0384
G1 X27.749 Y13.367 E0.03833
G1 X27.007 Y13.573 E0.03842
G1 X26.249 Y13.701 E0.03835
G1 X25.4 Y13.75 E0.04243
G1 X0.314 Y13.75 E1.25155
G0 F1800 X0.307 Y13.35
G1 F900 X-25.4 Y13.35 E1.28253
G1 X-26.147 Y13.31 E0.03732
G1 X-26.885 Y13.191 E0.03729
G1 X-27.607 Y12.993 E0.03735
G1 X-28.303 Y12.72 E0.0373
G1 X-28.966 Y12.373 E0.03733
G1 X-29.589 Y11.958 E0.03735
G1 X-30.163 Y11.479 E0.0373
G1 X-30.684 Y10.942 E0.03733
G1 X-31.143 Y10.352 E0.03729
G1 X-31.538 Y9.716 E0.03735
G1 X-31.862 Y9.042 E0.03731
G1 X-32.112 Y8.337 E0.03732
G1 X-32.286 Y7.609 E0.03734
G1 X-32.381 Y6.867 E0.03732
G1 X-32.4 Y6.35 E0.02581
G1 X-32.4 Y-6.35 E0.63361
G1 X-32.36 Y-7.097 E0.03732
G1 X-32.241 Y-7.835 E0.03729
G1 X-32.043 Y-8.557 E0.03735
G1 X-31.77 Y-9.253 E0.0373
G1 X-31.423 Y-9.916 E0.03733
G1 X-31.008 Y-10.539 E0.03735
G1 X-30.529 Y-11.113 E0.0373
G1 X-29.992 Y-11.634 E0.03733
G1 X-29.402 Y-12.093 E0.03729
G1 X-28.766 Y-12.488 E0.03735
G1 X-28.092 Y-12.812 E0.03731
G1 X-27.387 Y-13.062 E0.03732
G1 X-26.659 Y-13.236 E0.03734
G1 X-25.917 Y-13.331 E0.03732
G1 X-25.4 Y-13.35 E0.02581
G1 X-.581 Y-13.35 E1.23822
G1 X0.013 Y-13.389 E0.0297
G1 X0.761 Y-13.357 E0.03735
G1 X0.808 Y-13.35 E0.00237
G1 X25.4 Y-13.35 E1.2269
G1 X26.147 Y-13.31 E0.03732
G1 X26.885 Y-13.191 E0.03729
G1 X27.607 Y-12.993 E0.03735
G1 X28.303 Y-12.72 E0.0373
G1 X28.966 Y-12.373 E0.03733
G1 X29.589 Y-11.958 E0.03735
G1 X30.163 Y-11.479 E0.0373
G1 X30.684 Y-10.942 E0.03733
G1 X31.143 Y-10.352 E0.03729
G1 X31.538 Y-9.716 E0.03735
G1 X31.862 Y-9.042 E0.03731
G1 X32.112 Y-8.337 E0.03732
G1 X32.286 Y-7.609 E0.03734
G1 X32.381 Y-6.867 E0.03732
G1 X32.4 Y-6.35 E0.02581
G1 X32.4 Y6.35 E0.63361
G1 X32.36 Y7.097 E0.03732
G1 X32.241 Y7.835 E0.03729
G1 X32.043 Y8.557 E0.03735
G1 X31.77 Y9.253 E0.0373
G1 X31.423 Y9.916 E0.03733
G1 X31.008 Y10.539 E0.03735
G1 X30.529 Y11.113 E0.0373
G1 X29.992 Y11.634 E0.03733
G1 X29.402 Y12.093 E0.03729
G1 X28.766 Y12.488 E0.03735
G1 X28.092 Y12.812 E0.03731
G1 X27.387 Y13.062 E0.03732
G1 X26.659 Y13.236 E0.03734
G1 X25.917 Y13.331 E0.03732
G1 X25.4 Y13.35 E0.02581
G1 X0.307 Y13.35 E1.25189
G0 F1800 X0.293 Y12.95
G1 F900 X-25.4 Y12.95 E1.28183
G1 X-26.125 Y12.91 E0.03623
G1 X-26.842 Y12.791 E0.03626
G1 X-27.541 Y12.593 E0.03625
G1 X-28.214 Y12.32 E0.03623
G1 X-28.853 Y11.975 E0.03623
G1 X-29.45 Y11.561 E0.03625
G1 X-29.998 Y11.085 E0.03621
G1 X-30.491 Y10.551 E0.03626
G1 X-30.921 Y9.966 E0.03622
G1 X-31.285 Y9.337 E0.03626
G1 X-31.578 Y8.672 E0.03625
G1 X-31.796 Y7.979 E0.03624
G1 X-31.936 Y7.267 E0.0362
G1 X-32 Y6.35 E0.04586
G1 X-32 Y-6.35 E0.63361
G1 X-31.96 Y-7.075 E0.03623
G1 X-31.841 Y-7.792 E0.03626
G1 X-31.643 Y-8.491 E0.03625
G1 X-31.37 Y-9.164 E0.03623
G1 X-31.025 Y-9.803 E0.03623
G1 X-30.611 Y-10.4 E0.03625
G1 X-30.135 Y-10.948 E0.03621
G1 X-29.601 Y-11.441 E0.03626
G1 X-29.016 Y-11.871 E0.03622
G1 X-28.387 Y-12.235 E0.03626
G1 X-27.722 Y-12.528 E0.03625
G1 X-27.029 Y-12.746 E0.03624
G1 X-26.317 Y-12.886 E0.0362
G1 X-25.4 Y-12.95 E0.04586
G1 X-.583 Y-12.95 E1.23813
G1 X0.06 Y-12.989 E0.03214
G1 X0.786 Y-12.953 E0.03626
G1 X0.805 Y-12.95 E0.00096
G1 X25.4 Y-12.95 E1.22705
G1 X26.125 Y-12.91 E0.03623
G1 X26.842 Y-12.791 E0.03626
G1 X27.541 Y-12.593 E0.03625
G1 X28.214 Y-12.32 E0.03623
G1 X28.853 Y-11.975 E0.03623
G1 X29.45 Y-11.561 E0.03625
G1 X29.998 Y-11.085 E0.03621
G1 X30.491 Y-10.551 E0.03626
G1 X30.921 Y-9.966 E0.03622
G1 X31.285 Y-9.337 E0.03626
G1 X31.578 Y-8.672 E0.03625
G1 X31.796 Y-7.979 E0.03624
G1 X31.936 Y-7.267 E0.0362
G1 X32 Y-6.35 E0.04586
G1 X32 Y6.35 E0.63361
G1 X31.96 Y7.075 E0.03623
G1 X31.841 Y7.792 E0.03626
G1 X31.643 Y8.491 E0.03625
G1 X31.37 Y9.164 E0.03623
G1 X31.025 Y9.803 E0.03623
G1 X30.611 Y10.4 E0.03625
G1 X30.135 Y10.948 E0.03621
G1 X29.601 Y11.441 E0.03626
G1 X29.016 Y11.871 E0.03622
G1 X28.387 Y12.235 E0.03626
G1 X27.722 Y12.528 E0.03625
G1 X27.029 Y12.746 E0.03624
G1 X26.317 Y12.886 E0.0362
G1 X25.4 Y12.95 E0.04586
G1 X0.293 Y12.95 E1.25259
G0 F1800 X0.281 Y12.55
G1 F900 X-25.4 Y12.55 E1.28123
G1 X-26.103 Y12.51 E0.03513
G1 X-26.797 Y12.391 E0.03513
G1 X-27.472 Y12.193 E0.03509
G1 X-28.121 Y11.921 E0.03511
G1 X-28.735 Y11.576 E0.03514
G1 X-29.306 Y11.165 E0.0351
G1 X-29.827 Y10.691 E0.03514
G1 X-30.291 Y10.161 E0.03514
G1 X-30.691 Y9.582 E0.03511
G1 X-31.023 Y8.961 E0.03513
G1 X-31.283 Y8.307 E0.03511
G1 X-31.467 Y7.627 E0.03515
G1 X-31.573 Y6.931 E0.03512
G1 X-31.6 Y6.35 E0.02902
G1 X-31.6 Y-6.35 E0.63361
G1 X-31.56 Y-7.053 E0.03513
G1 X-31.441 Y-7.747 E0.03513
G1 X-31.243 Y-8.422 E0.03509
G1 X-30.971 Y-9.071 E0.03511
G1 X-30.626 Y-9.685 E0.03514
G1 X-30.215 Y-10.256 E0.0351
G1 X-29.741 Y-10.777 E0.03514
G1 X-29.211 Y-11.241 E0.03514
G1 X-28.632 Y-11.641 E0.03511
G1 X-28.011 Y-11.973 E0.03513
G1 X-27.357 Y-12.233 E0.03511
G1 X-26.677 Y-12.417 E0.03515
G1 X-25.981 Y-12.523 E0.03512
G1 X-25.4 Y-12.55 E0.02902
G1 X-.597 Y-12.55 E1.23743
G1 X0.106 Y-12.589 E0.03513
G1 X0.774 Y-12.55 E0.03338
G1 X25.4 Y-12.55 E1.2286
G1 X26.103 Y-12.51 E0.03513
G1 X26.797 Y-12.391 E0.03513
G1 X27.472 Y-12.193 E0.03509
G1 X28.121 Y-11.921 E0.03511
G1 X28.735 Y-11.576 E0.03514
G1 X29.306 Y-11.165 E0.0351
G1 X29.827 Y-10.691 E0.03514
G1 X30.291 Y-10.161 E0.03514
G1 X30.691 Y-9.582 E0.03511
G1 X31.023 Y-8.961 E0.03513
G1 X31.283 Y-8.307 E0.03511
G1 X31.467 Y-7.627 E0.03515
G1 X31.573 Y-6.931 E0.03512
G1 X31.6 Y-6.35 E0.02902
G1 X31.6 Y6.35 E0.63361
G1 X31.56 Y7.053 E0.03513
G1 X31.441 Y7.747 E0.03513
G1 X31.243 Y8.422 E0.03509
G1 X30.971 Y9.071 E0.03511
G1 X30.626 Y9.685 E0.03514
G1 X30.215 Y10.256 E0.0351
G1 X29.741 Y10.777 E0.03514
G1 X29.211 Y11.241 E0.03514
G1 X28.632 Y11.641 E0.03511
G1 X28.011 Y11.973 E0.03513
G1 X27.357 Y12.233 E0.03511
G1 X26.677 Y12.417 E0.03515
G1 X25.981 Y12.523 E0.03512
G1 X25.4 Y12.55 E0.02902
G1 X0.281 Y12.55 E1.25319
G0 F1800 X0.263 Y12.15
G1 F900 X-25.4 Y12.15 E1.28033
G1 X-26.08 Y12.11 E0.03398
G1 X-26.75 Y11.991 E0.03395
G1 X-27.402 Y11.794 E0.03398
G1 X-28.026 Y11.522 E0.03396
G1 X-28.614 Y11.178 E0.03399
G1 X-29.158 Y10.768 E0.03399
G1 X-29.649 Y10.297 E0.03394
G1 X-30.083 Y9.772 E0.03398
G1 X-30.452 Y9.2 E0.03396
G1 X-30.751 Y8.588 E0.03398
G1 X-30.976 Y7.946 E0.03394
G1 X-31.125 Y7.281 E0.034
G1 X-31.2 Y6.35 E0.0466
G1 X-31.2 Y-6.35 E0.63361
G1 X-31.16 Y-7.03 E0.03398
G1 X-31.041 Y-7.7 E0.03395
G1 X-30.844 Y-8.352 E0.03398
G1 X-30.572 Y-8.976 E0.03396
G1 X-30.228 Y-9.564 E0.03399
G1 X-29.818 Y-10.108 E0.03399
G1 X-29.347 Y-10.599 E0.03394
G1 X-28.822 Y-11.033 E0.03398
G1 X-28.25 Y-11.402 E0.03396
G1 X-27.638 Y-11.701 E0.03398
G1 X-26.996 Y-11.926 E0.03394
G1 X-26.331 Y-12.075 E0.034
G1 X-25.4 Y-12.15 E0.0466
G1 X-.56 Y-12.15 E1.23927
G1 X-.53 Y-12.155 E0.00152
G1 X0.15 Y-12.189 E0.03397
G1 X0.713 Y-12.15 E0.02816
G1 X25.4 Y-12.15 E1.23164
G1 X26.08 Y-12.11 E0.03398
G1 X26.75 Y-11.991 E0.03395
G1 X27.402 Y-11.794 E0.03398
G1 X28.026 Y-11.522 E0.03396
G1 X28.614 Y-11.178 E0.03399
G1 X29.158 Y-10.768 E0.03399
G1 X29.649 Y-10.297 E0.03394
G1 X30.083 Y-9.772 E0.03398
G1 X30.452 Y-9.2 E0.03396
G1 X30.751 Y-8.588 E0.03398
G1 X30.976 Y-7.946 E0.03394
G1 X31.125 Y-7.281 E0.034
G1 X31.2 Y-6.35 E0.0466
G1 X31.2 Y6.35 E0.63361
G1 X31.16 Y7.03 E0.03398
G1 X31.041 Y7.7 E0.03395
G1 X30.844 Y8.352 E0.03398
G1 X30.572 Y8.976 E0.03396
G1 X30.228 Y9.564 E0.03399
G1 X29.818 Y10.108 E0.03399
G1 X29.347 Y10.599 E0.03394
G1 X28.822 Y11.033 E0.03398
G1 X28.25 Y11.402 E0.03396
G1 X27.638 Y11.701 E0.03398
G1 X26.996 Y11.926 E0.03394
G1 X26.331 Y12.075 E0.034
G1 X25.4 Y12.15 E0.0466
G1 X0.263 Y12.15 E1.25409
G0 F1800 X0.255 Y11.75
G1 F900 X-25.4 Y11.75 E1.27993
G1 X-26.056 Y11.71 E0.03279
G1 X-26.702 Y11.591 E0.03277
G1 X-27.329 Y11.394 E0.03279
G1 X-27.927 Y11.122 E0.03278
G1 X-28.488 Y10.78 E0.03278
G1 X-29.003 Y10.372 E0.03278
G1 X-29.465 Y9.905 E0.03277
G1 X-29.866 Y9.385 E0.03276
G1 X-30.202 Y8.821 E0.03275
G1 X-30.466 Y8.219 E0.03279
G1 X-30.656 Y7.59 E0.03278
G1 X-30.767 Y6.943 E0.03275
G1 X-30.8 Y6.35 E0.02963
G1 X-30.8 Y-6.35 E0.63361
G1 X-30.76 Y-7.006 E0.03279
G1 X-30.641 Y-7.652 E0.03277
G1 X-30.444 Y-8.279 E0.03279
G1 X-30.172 Y-8.877 E0.03278
G1 X-29.83 Y-9.438 E0.03278
G1 X-29.422 Y-9.953 E0.03278
G1 X-28.955 Y-10.415 E0.03277
G1 X-28.435 Y-10.816 E0.03276
G1 X-27.871 Y-11.152 E0.03275
G1 X-27.269 Y-11.416 E0.03279
G1 X-26.64 Y-11.606 E0.03278
G1 X-25.993 Y-11.717 E0.03275
G1 X-25.4 Y-11.75 E0.02963
G1 X-.524 Y-11.75 E1.24107
G1 X-.464 Y-11.76 E0.00303
G1 X0.192 Y-11.788 E0.03276
G1 X0.671 Y-11.75 E0.02397
G1 X25.4 Y-11.75 E1.23373
G1 X26.056 Y-11.71 E0.03279
G1 X26.702 Y-11.591 E0.03277
G1 X27.329 Y-11.394 E0.03279
G1 X27.927 Y-11.122 E0.03278
G1 X28.488 Y-10.78 E0.03278
G1 X29.003 Y-10.372 E0.03278
G1 X29.465 Y-9.905 E0.03277
G1 X29.866 Y-9.385 E0.03276
G1 X30.202 Y-8.821 E0.03275
G1 X30.466 Y-8.219 E0.03279
G1 X30.656 Y-7.59 E0.03278
G1 X30.767 Y-6.943 E0.03275
G1 X30.8 Y-6.35 E0.02963
G1 X30.8 Y6.35 E0.63361
G1 X30.76 Y7.006 E0.03279
G1 X30.641 Y7.652 E0.03277
G1 X30.444 Y8.279 E0.03279
G1 X30.172 Y8.877 E0.03278
G1 X29.83 Y9.438 E0.03278
G1 X29.422 Y9.953 E0.03278
G1 X28.955 Y10.415 E0.03277
G1 X28.435 Y10.816 E0.03276
G1 X27.871 Y11.152 E0.03275
G1 X27.269 Y11.416 E0.03279
G1 X26.64 Y11.606 E0.03278
G1 X25.993 Y11.717 E0.03275
G1 X25.4 Y11.75 E0.02963
G1 X0.255 Y11.75 E1.25449
G0 F1800 X0.249 Y11.35
G1 F900 X-25.4 Y11.35 E1.27963
G1 X-26.031 Y11.31 E0.03154
G1 X-26.652 Y11.191 E0.03155
G1 X-27.252 Y10.994 E0.03151
G1 X-27.824 Y10.723 E0.03158
G1 X-28.356 Y10.383 E0.0315
G1 X-28.841 Y9.977 E0.03156
G1 X-29.271 Y9.514 E0.03152
G1 X-29.64 Y9 E0.03157
G1 X-29.94 Y8.444 E0.03152
G1 X-30.168 Y7.855 E0.03151
G1 X-30.32 Y7.241 E0.03156
G1 X-30.4 Y6.35 E0.04463
G1 X-30.4 Y-6.35 E0.63361
G1 X-30.36 Y-6.981 E0.03154
G1 X-30.241 Y-7.602 E0.03155
G1 X-30.044 Y-8.202 E0.03151
G1 X-29.773 Y-8.774 E0.03158
G1 X-29.433 Y-9.306 E0.0315
G1 X-29.027 Y-9.791 E0.03156
G1 X-28.564 Y-10.221 E0.03152
G1 X-28.05 Y-10.59 E0.03157
G1 X-27.494 Y-10.89 E0.03152
G1 X-26.905 Y-11.118 E0.03151
G1 X-26.291 Y-11.27 E0.03156
G1 X-25.4 Y-11.35 E0.04463
G1 X-.49 Y-11.35 E1.24276
G1 X-.399 Y-11.365 E0.0046
G1 X0.233 Y-11.387 E0.03155
G1 X0.641 Y-11.35 E0.02044
G1 X25.4 Y-11.35 E1.23523
G1 X26.031 Y-11.31 E0.03154
G1 X26.652 Y-11.191 E0.03155
G1 X27.252 Y-10.994 E0.03151
G1 X27.824 Y-10.723 E0.03158
G1 X28.356 Y-10.383 E0.0315
G1 X28.841 Y-9.977 E0.03156
G1 X29.271 Y-9.514 E0.03152
G1 X29.64 Y-9 E0.03157
G1 X29.94 Y-8.444 E0.03152
G1 X30.168 Y-7.855 E0.03151
G1 X30.32 Y-7.241 E0.03156
G1 X30.4 Y-6.35 E0.04463
G1 X30.4 Y6.35 E0.63361
