;FLAVOR:Makerbot
;TIME:2976
;MINX:-12.978
;MINY:-11.792
;MINZ:0.3
;MAXX:112.5
;MAXY:73
;MAXZ:33.3
;Generated with Cura_SteamEngine 4.8.0
T0
M82 ;absolute extrusion mode
; **** FlashForge Creator Pro PRINTER start.gcode for dual extrusion only ****
M83 ; relative extrusion mode
M73 P0 ; enable build progress
G162 X Y F3000 ; home XY maximum
G161 Z F1200 ; home Z minimum
G92 Z-5 ; set Z to -5
G1 Z0 ; move Z to 0
G161 Z F100 ; home Z slowly
M132 X Y Z A B ; recall home offsets
M135 T0 ; load right extruder offsets
G1 X150 Y-70 Z30 F9000 ; move to wait position right hand side of the table
G130 X20 Y20 Z20 A20 B20 ; lower stepper Vrefs while heating
M127
M140 S80 T0 ; set bed temperature
M134 T0 ; stabilize bed temperature
M104 S230 T0 ; set right extruder temp
M104 S240 T1 ; set left extruder temp
M133 T0 ; stabilize right extruder temperature
M133 T1 ; stabilize left extruder temperature
G130 X127 Y127 Z40 A127 B127 ; default stepper Vrefs
G92 A0 B0 ; zero extruders
M135 T0 ; right tool
G1 Z0.4 ; position nozzle
G1 X110 Y-70 E25 F300 ; purge nozzle
G1 X120 Y-70 Z0.15 F1200 ; slow wipe
G1 X110 Y-70 Z0.5 F1200 ; lift
G1 Z4 F1200 ; raise
G1 X-110 F4000 ; move nozzle to left side of bed
G1 Z0.4 F1200 ; lower
M135 T1 ; left tool
G1 X-140 Y-70 F9000 ; reposition nozzle
G1 X-100 Y-70 E25 F300 ; purge nozzle
G1 X-110 Y-70 Z0.15 F1200 ; slow wipe
G1 X-100 Y-70 Z0.5 F1200 ; lift
G92 A0 B0 ; zero extruders
M135 T1 ; left or right tool
M73 P1 ;@body (notify GPX body has started)
; **** end of start.gcode ****
M83 ;relative extrusion mode
G1 F1800 E-1.3
;LAYER_COUNT:166
;LAYER:0
M127 T0
M104 T1 S240
M104 S215
G0 X112.5 Y73 Z0.3
G1 F1200 E-14.7
G1 F600 Z1.3
M135 T1
M104 S240
M116
M104 T0 S175
G1 F1800 E-1.3
G0 X78.5 Y73 Z1.3
G0 X9.111 Y7.012
;TYPE:SUPPORT
G1 F600 Z0.3
G1 F1800 E1.3
G1 F900 X8.784 Y7.172 E0.01816
G1 X8.403 Y7.55 E0.02678
G1 X8.027 Y7.625 E0.01913
G1 X7.494 Y8.03 E0.0334
G1 X7.204 Y8.089 E0.01476
G1 X7.487 Y7.851 E0.01845
G1 X7.673 Y7.559 E0.01727
G1 X7.698 Y7.178 E0.01905
G1 X7.375 Y6.748 E0.02683
G1 X6.853 Y6.396 E0.03141
G1 X6.329 Y6.118 E0.02959
G1 X6.276 Y6.097 E0.00284
G1 X5.703 Y5.984 E0.02914
G1 X5.205 Y6.059 E0.02513
G1 X4.763 Y6.492 E0.03087
G1 X4.454 Y7.024 E0.03069
G1 X4.323 Y7.504 E0.02482
G1 X4.383 Y7.82 E0.01605
G1 X4.613 Y8.126 E0.0191
G1 X4.893 Y8.296 E0.01634
G1 X4.693 Y8.31 E0.01
G1 X4.559 Y8.273 E0.00694
G1 X4.066 Y8.443 E0.02602
G1 X4.051 Y8.463 E0.00125
G1 X2.572 Y7.893 E0.07908
G1 X1.825 Y8.008 E0.03771
G1 X1.72 Y7.813 E0.01105
G1 X1.268 Y7.563 E0.02577
G1 X0.829 Y7.595 E0.02196
G1 X0.844 Y7.585 E0.0009
G1 X0.984 Y7.562 E0.00708
G1 X1.387 Y7.317 E0.02353
G1 X1.572 Y6.931 E0.02136
G1 X1.564 Y6.578 E0.01762
G1 X1.39 Y6.219 E0.0199
G1 X1.318 Y6.136 E0.00548
G1 X1.313 Y6.106 E0.00152
G1 X0.824 Y5.466 E0.04018
G1 X0.15 Y5.089 E0.03853
G1 X-.538 Y4.915 E0.03541
G1 X-.55 Y4.917 E0.00061
G1 X-.64 Y4.892 E0.00466
G1 X-1.086 Y4.932 E0.02234
G1 X-1.569 Y5.206 E0.0277
G1 X-2.049 Y5.549 E0.02943
G1 X-2.31 Y5.87 E0.02064
G1 X-2.373 Y6.251 E0.01927
G1 X-2.194 Y6.662 E0.02237
G1 X-1.752 Y7.07 E0.03001
G1 X-1.686 Y7.102 E0.00366
G1 X-1.597 Y7.247 E0.00849
G1 X-1.381 Y7.361 E0.01219
G1 X-2.602 Y6.969 E0.06398
G1 X-4.307 Y5.956 E0.09894
G1 X-4.644 Y5.901 E0.01704
G1 X-4.874 Y5.518 E0.02229
G1 X-5.343 Y5.293 E0.02595
G1 X-5.788 Y5.357 E0.02243
G1 X-6.076 Y5.14 E0.01799
G1 X-7.406 Y4.845 E0.06797
G1 X-7.429 Y4.838 E0.0012
G1 X-7.816 Y4.681 E0.02084
G1 X-8.017 Y4.349 E0.01936
G1 X-9.577 Y3.499 E0.08863
G1 X-9.626 Y3.33 E0.00878
G1 X-10.368 Y2.509 E0.05521
G1 X-11.109 Y1.016 E0.08316
G1 X-11.451 Y0.796 E0.02029
G1 X-11.584 Y0.567 E0.01321
G1 X-12.013 Y-.616 E0.06278
G1 X-11.929 Y-.999 E0.01956
G1 X-12.015 Y-1.91 E0.04565
G1 X-11.604 Y-2.956 E0.05607
G1 X-11.529 Y-3.048 E0.00592
G1 X-11.302 Y-3.62 E0.0307
G1 X-11.243 Y-3.831 E0.01093
G1 X-11.059 Y-4.064 E0.01481
G1 X-10.908 Y-4.437 E0.02008
G1 X-10.476 Y-4.973 E0.03435
G1 X-10.405 Y-5.098 E0.00717
G1 X-10.182 Y-5.098 E0.01113
G1 X-9.753 Y-5.398 E0.02612
G1 X-9.223 Y-6.836 E0.07646
G1 X-8.803 Y-7.231 E0.02876
G1 X-8.787 Y-7.278 E0.00248
G1 X-8.303 Y-7.627 E0.02977
G1 X-8.166 Y-7.909 E0.01564
G1 X-7.387 Y-8.745 E0.05701
G1 X-7.071 Y-8.953 E0.01887
G1 X-6.414 Y-9.456 E0.04128
G1 X-6.073 Y-9.575 E0.01802
G1 X-5.066 Y-9.468 E0.05052
G1 X-4.592 Y-9.822 E0.02952
G1 X-4.312 Y-9.889 E0.01436
G1 X-4.528 Y-9.723 E0.01359
G1 X-4.767 Y-9.381 E0.02082
G1 X-4.859 Y-8.853 E0.02674
G1 X-4.759 Y-8.41 E0.02266
G1 X-4.557 Y-7.894 E0.02765
G1 X-4.272 Y-7.442 E0.02666
G1 X-3.902 Y-7.161 E0.02318
G1 X-3.437 Y-7.058 E0.02376
G1 X-2.924 Y-7.299 E0.02828
G1 X-2.554 Y-7.657 E0.02569
G1 X-2.36 Y-7.9 E0.01551
G1 X-2.213 Y-8.043 E0.01023
G1 X-2.109 Y-8.091 E0.00571
G1 X-2.05 Y-8.311 E0.01136
G1 X-1.944 Y-8.46 E0.00912
G1 X-1.802 Y-8.825 E0.01954
G1 X-1.807 Y-9.09 E0.01322
G1 X-2.031 Y-9.54 E0.02508
G1 X-2.423 Y-9.91 E0.02689
G1 X-2.463 Y-9.966 E0.00343
G1 X-2.386 Y-9.965 E0.00384
G1 X-1.287 Y-9.359 E0.06261
G1 X-.769 Y-9.42 E0.02602
G1 X-.703 Y-9.366 E0.00425
G1 X1.405 Y-8.635 E0.11131
G1 X1.763 Y-8.567 E0.01818
G1 X2.539 Y-7.984 E0.04842
G1 X2.914 Y-7.506 E0.03031
G1 X3.355 Y-7.29 E0.0245
G1 X3.631 Y-7.29 E0.01377
G1 X3.848 Y-6.89 E0.0227
G1 X5.242 Y-6.118 E0.0795
G1 X5.311 Y-6.111 E0.00346
G1 X5.653 Y-5.923 E0.01947
G1 X6.13 Y-5.809 E0.02447
G1 X6.423 Y-5.536 E0.01998
G1 X7.224 Y-5.35 E0.04103
G1 X7.496 Y-5.072 E0.0194
G1 X7.622 Y-5.031 E0.00661
G1 X7.868 Y-4.766 E0.01804
G1 X7.244 Y-4.635 E0.03181
G1 X6.766 Y-4.375 E0.02715
G1 X6.265 Y-3.891 E0.03475
G1 X5.992 Y-3.115 E0.04104
G1 X5.987 Y-2.247 E0.04331
G1 X6.065 Y-2.042 E0.01094
G1 X6.148 Y-1.747 E0.01529
G1 X6.205 Y-1.677 E0.0045
G1 X6.272 Y-1.503 E0.0093
G1 X7.045 Y-1.139 E0.04263
G1 X7.812 Y-1.362 E0.03985
G1 X8.457 Y-1.536 E0.03333
G1 X8.828 Y-1.596 E0.01875
G1 X8.99 Y-1.557 E0.00831
G1 X9.377 Y-1.608 E0.01947
G1 X9.678 Y-1.827 E0.01857
G1 X9.815 Y-2.176 E0.01871
G1 X9.869 Y-2.72 E0.02727
G1 X9.929 Y-2.932 E0.01099
G1 X9.873 Y-3.184 E0.01288
G1 X10.055 Y-2.901 E0.01679
G1 X10.509 Y-2.641 E0.0261
G1 X10.638 Y-2.256 E0.02026
G1 X11.044 Y-1.486 E0.04343
G1 X11.599 Y-.796 E0.04418
G1 X11.618 Y0.063 E0.04287
G1 X11.683 Y0.422 E0.0182
G1 X11.562 Y0.815 E0.02052
G1 X11.621 Y1.19 E0.01894
G1 X11.446 Y1.602 E0.02233
G1 X11.201 Y2.093 E0.02738
G1 X11.004 Y2.637 E0.02887
G1 X10.932 Y3.139 E0.0253
G1 X10.688 Y3.113 E0.01224
G1 X10.248 Y3.467 E0.02817
G1 X10.078 Y4.998 E0.07685
G1 X9.847 Y5.329 E0.02014
G1 X9.826 Y5.593 E0.01321
G1 X9.637 Y5.925 E0.01906
G1 X9.529 Y6.364 E0.02255
G1 X9.279 Y6.655 E0.01914
G1 X9.111 Y7.012 E0.01968
G0 F1800 X-7.092 Y2.482
G1 F900 X-6.894 Y2.055 E0.02348
G1 X-6.869 Y1.725 E0.01651
G1 X-6.966 Y1.282 E0.02262
G1 X-7.215 Y0.779 E0.028
G1 X-7.34 Y0.275 E0.02591
G1 X-7.456 Y0.025 E0.01375
G1 X-7.699 Y-.182 E0.01593
G1 X-8.158 Y-.237 E0.02306
G1 X-8.812 Y-.129 E0.03307
G1 X-9.416 Y0.069 E0.03171
G1 X-9.925 Y0.313 E0.02816
G1 X-10.127 Y0.5 E0.01373
G1 X-10.359 Y0.901 E0.02311
G1 X-10.402 Y1.366 E0.0233
G1 X-10.213 Y1.925 E0.02944
G1 X-9.996 Y2.303 E0.02175
G1 X-9.71 Y2.568 E0.01945
G1 X-9.22 Y2.827 E0.02765
G1 X-8.783 Y2.927 E0.02237
G1 X-8.234 Y2.97 E0.02747
G1 X-7.664 Y2.865 E0.02892
G1 X-7.584 Y2.831 E0.00434
G1 X-7.092 Y2.482 E0.03009
G0 F1800 X-7.076 Y2.666
G1 F900 X10.838 Y2.667 E0.89373
G0 F1800 X10.668 Y2.949
G1 F900 X10.668 Y-1.856 E0.23972
G0 F1800 X10.141 Y-2.666
G1 F900 X10.025 Y-2.666 E0.00579
G1 F1800 E-1.3
G0 X8.001 Y-1.247
G1 F1800 E1.3
G1 F900 X8.001 Y7.467 E0.43474
G0 F1800 X9.686 Y5.334
G1 F900 X0.914 Y5.334 E0.43764
G0 F1800 X0.00 Y4.886
G1 F900 X0.00 Y-8.953 E0.69043
G0 F1800 X-1.966 Y-8.001
G1 F900 X2.25 Y-8.001 E0.21034
G0 F1800 X2.667 Y-7.563
G1 F900 X2.667 Y7.757 E0.76432
G0 F1800 X3.297 Y8.001
G1 F900 X4.318 Y8.001 E0.05094
G0 F1800 X5.334 Y5.879
G1 F900 X5.334 Y-5.915 E0.58841
G0 F1800 X6.585 Y-5.334
G1 F900 X-9.606 Y-5.334 E0.80777
G0 F1800 X-10.668 Y-4.479
G1 F900 X-10.668 Y1.544 E0.30049
G0 F1800 X-10.01 Y2.666
G1 F900 X-9.839 Y2.666 E0.00853
G0 F1800 X-8.001 Y3.089
G1 F900 X-8.001 Y4.175 E0.05418
G0 F1800 X-5.334 Y5.131
G1 F900 X-5.334 Y-9.336 E0.72176
G0 F1800 X-4.769 Y-8.001
G1 F900 X-7.86 Y-8.001 E0.15421
G0 F1800 X-8.001 Y-7.853
G1 F900 X-8.001 Y-.38 E0.37283
G0 F1800 X-7.292 Y0.00
G1 F900 X11.457 Y0.00 E0.93539
G1 F1800 E-1.3
G0 X7.066 Y-1.393
G0 X5.829 Y-2.666
G1 F1800 E1.3
G1 F900 X-11.545 Y-2.667 E0.86679
G0 F1800 X-11.62 Y0.00
G1 F900 X-9.642 Y0.00 E0.09868
G0 F1800 X-4.888 Y5.334
G1 F900 X-2.023 Y5.334 E0.14294
G0 F1800 X-2.667 Y6.744
G1 F900 X-2.667 Y-7.326 E0.70196
G1 F1800 E-1.3
;MESH:tooth_PETG.stl
G0 X-3.22 Y-8.615
G0 X-3.146 Y-8.823
;TYPE:WALL-OUTER
G1 F1800 E1.3
G1 F900 X-3.147 Y-8.813 E0.0005
G1 X-3.164 Y-8.651 E0.00813
G1 X-3.198 Y-8.618 E0.00236
G1 X-3.221 Y-8.596 E0.00159
G1 X-3.286 Y-8.678 E0.00277
G1 X-3.303 Y-8.699
G1 X-3.413 Y-8.84 E0.0051
G1 X-3.456 Y-9.033 E0.00865
G1 X-3.467 Y-9.08 E0.00241
G1 X-3.324 Y-9.119 E0.00739
G1 X-3.194 Y-9.093 E0.00471
G1 X-3.148 Y-9.028 E0.00219
G1 X-3.051 Y-8.89 E0.00668
G1 X-3.039 Y-8.873 E0.00027
G1 X-3.081 Y-8.853
G1 X-3.146 Y-8.823 E0.00201
G0 F1800 X-3.147 Y-8.813
G0 X-3.164 Y-8.651
G0 X-3.184 Y-8.632
G1 F1800 E-1.3
G0 X-3.207 Y-8.738
G0 X-2.399 Y-8.221
G0 X6.38 Y-3.507
G0 X7.388 Y-3.153
G0 X8.135 Y-3.002
;TYPE:WALL-INNER
G1 F1800 E1.3
G1 F900 X7.969 Y-2.958 E0.00857
G1 X7.847 Y-2.925 E0.00631
G1 X7.599 Y-2.859 E0.0128
G1 X7.49 Y-2.829 E0.00564
G1 X7.548 Y-3.047 E0.00561
G1 X7.769 Y-3.215 E0.00884
G1 X7.891 Y-3.246 E0.00468
G1 X8.183 Y-3.153 E0.01035
G1 X8.231 Y-3.137 E0.00018
G1 X8.242 Y-3.127
G1 X8.347 Y-3.037 E0.00463
G1 X8.251 Y-3.022 E0.0002
G1 X8.135 Y-3.002 E0.00187
G0 F1800 X8.22 Y-2.611
;TYPE:WALL-OUTER
G1 F900 X7.518 Y-2.422 E0.03627
G1 X7.312 Y-2.361 E0.01072
G1 X7.138 Y-2.311 E0.00903
G1 X7.088 Y-2.43 E0.00644
G1 X7.089 Y-2.611 E0.00659
G1 X7.091 Y-2.942 E0.01651
G1 X7.2 Y-3.265 E0.01701
G1 X7.412 Y-3.474 E0.01485
G1 X7.621 Y-3.59 E0.01193
G1 X7.903 Y-3.662 E0.01452
G1 X8.43 Y-3.493 E0.02761
G1 X8.738 Y-3.228 E0.02027
G1 X8.79 Y-3.023 E0.01055
G1 X8.801 Y-2.977 E0.00236
G1 X8.75 Y-2.73 E0.01258
G1 X8.688 Y-2.688 E0.00374
G1 X8.641 Y-2.681 E0.00237
G1 X8.22 Y-2.611 E0.02129
G0 F1800 X8.027 Y-2.559
G0 X7.895 Y-3.039
G1 F1800 E-1.3
G0 X7.177 Y-2.565
G0 X6.788 Y-1.52
G0 X0.495 Y5.552
G0 X0.068 Y6.317
G0 X0.075 Y6.3
G1 F1800 E1.3
G1 F900 X0.08 Y6.302 E0.00027
G1 X0.18 Y6.423 E0.00783
G1 X0.268 Y6.531 E0.00695
G1 X0.285 Y6.637 E0.00536
G1 X0.281 Y6.64 E0.00025
G1 X0.218 Y6.691 E0.00404
G1 X0.032 Y6.719 E0.00938
G1 X-.105 Y6.691 E0.00616
G1 X-.424 Y6.624 E0.01626
G1 X-.736 Y6.471 E0.01734
G1 X-.802 Y6.439 E0.00366
G1 X-.855 Y6.351 E0.00513
G1 X-.895 Y6.286 E0.00381
G1 X-.829 Y6.127 E0.00859
G1 X-.768 Y6.085 E0.00369
G1 X-.713 Y6.047 E0.00334
G1 X-.636 Y6.038 E0.00387
G1 X-.585 Y6.031 E0.00257
G1 X-.27 Y6.114 E0.01625
G1 X0.075 Y6.3 E0.01955
G0 F1800 X0.08 Y6.302
G0 X0.18 Y6.423
G0 X0.204 Y6.453
G0 X-0.021 Y6.299
G1 F1800 E-1.3
;MESH:NONMESH
G0 F600 X-0.021 Y6.299 Z0.5
G0 F1800 X-0.047 Y6.347
G0 X-2.667 Y5.319
;TIME_ELAPSED:35.432398
;LAYER:1
;TYPE:SUPPORT
G1 F1800 E1.3
G1 F2250 X-2.257 Y5.083 E0.01573
G1 X-1.786 Y4.822 E0.01791
G1 X-1.239 Y4.537 E0.02051
G1 X-.834 Y4.47 E0.01365
G1 X-.391 Y4.514 E0.01481
G1 X0.00 Y4.691 E0.01428
G1 X0.00 Y-9.122 E0.45942
G1 X1.405 Y-8.635 E0.04946
G1 X1.762 Y-8.568 E0.01208
G1 X2.538 Y-7.984 E0.0323
G1 X2.667 Y-7.819 E0.00697
G1 X2.667 Y7.928 E0.52375
G1 X4.051 Y8.463 E0.04935
G1 X4.065 Y8.444 E0.00078
G1 X4.403 Y8.328 E0.01189
G1 X4.396 Y8.324 E0.00027
G1 X3.99 Y7.911 E0.01926
G1 X3.89 Y7.458 E0.01543
G1 X4.064 Y7.014 E0.01586
G1 X4.359 Y6.512 E0.01937
G1 X4.66 Y6.048 E0.0184
G1 X5.041 Y5.655 E0.01821
G1 X5.334 Y5.554 E0.01031
G1 X5.334 Y-6.097 E0.38751
G1 X5.652 Y-5.923 E0.01206
G1 X6.129 Y-5.809 E0.01631
G1 X6.422 Y-5.536 E0.01332
G1 X7.223 Y-5.35 E0.02735
G1 X7.495 Y-5.071 E0.01296
G1 X7.622 Y-5.03 E0.00444
G1 X7.692 Y-4.955 E0.00341
G1 X7.635 Y-4.968 E0.00194
G1 X7.087 Y-4.951 E0.01824
G1 X6.601 Y-4.704 E0.01813
G1 X6.351 Y-4.443 E0.01202
G1 X6.089 Y-3.943 E0.01877
G1 X5.881 Y-3.441 E0.01807
G1 X5.705 Y-2.856 E0.02032
G1 X5.567 Y-2.338 E0.01783
G1 X5.546 Y-1.718 E0.02063
G1 X5.727 Y-1.35 E0.01364
G1 X6.079 Y-1.13 E0.01381
G1 X6.418 Y-1.081 E0.01139
G1 X6.799 Y-1.136 E0.0128
G1 X7.223 Y-1.289 E0.01499
G1 X7.302 Y-1.304 E0.00267
G1 X7.486 Y-1.378 E0.0066
G1 X7.77 Y-1.471 E0.00994
G1 X7.984 Y-1.478 E0.00712
G1 X8.001 Y-1.47 E0.00062
G1 X8.001 Y6.583 E0.26784
G1 X8.216 Y6.758 E0.00922
G1 X8.361 Y7.065 E0.01129
G1 X8.305 Y7.425 E0.01212
G1 X8.166 Y7.596 E0.00733
G1 X8.405 Y7.549 E0.0081
G1 X8.785 Y7.172 E0.0178
G1 X9.112 Y7.012 E0.01211
G1 X9.281 Y6.653 E0.0132
G1 X9.529 Y6.365 E0.01264
G1 X9.636 Y5.928 E0.01496
G1 X9.825 Y5.595 E0.01274
G1 X9.846 Y5.329 E0.00887
G1 X10.078 Y4.997 E0.01347
G1 X10.247 Y3.466 E0.05123
G1 X10.668 Y3.128 E0.01796
G1 X10.687 Y3.112 E0.00083
G1 X10.932 Y3.138 E0.00819
G1 X11.004 Y2.64 E0.01674
G1 X11.203 Y2.089 E0.01948
G1 X11.45 Y1.594 E0.0184
G1 X11.622 Y1.19 E0.0146
G1 X11.561 Y0.815 E0.01264
G1 X11.682 Y0.421 E0.01371
G1 X11.617 Y0.059 E0.01223
G1 X11.598 Y-.796 E0.02844
G1 X11.045 Y-1.485 E0.02938
G1 X10.668 Y-2.198 E0.02683
G1 X10.668 Y3.128 E0.17714
G1 F1800 E-1.3
G0 F4500 X-1.227 Y4.479
G0 X-2.667 Y5.319
G1 F1800 E1.3
G1 F2250 X-2.78 Y5.383 E0.00432
G1 X-3.011 Y5.634 E0.01135
G1 X-3.12 Y5.96 E0.01143
G1 X-3.018 Y6.365 E0.01389
G1 X-2.756 Y6.692 E0.01394
G1 X-2.667 Y6.771 E0.00396
G1 X-2.348 Y7.05 E0.0141
G1 X-2.603 Y6.968 E0.00891
G1 X-2.667 Y6.929 E0.00249
G1 X-2.667 Y6.771 E0.00526
G1 F1800 E-1.3
G0 F4500 X-2.667 Y5.319
G1 F1800 E1.3
G1 F2250 X-2.667 Y-7.059 E0.41169
G1 X-2.962 Y-6.679 E0.016
G1 X-3.295 Y-6.436 E0.01371
G1 X-3.608 Y-6.387 E0.01054
G1 X-3.965 Y-6.471 E0.0122
G1 X-4.369 Y-6.796 E0.01725
G1 X-4.673 Y-7.249 E0.01815
G1 X-4.695 Y-7.289 E0.00152
G1 X-4.911 Y-7.857 E0.02021
G1 X-5.058 Y-8.423 E0.01945
G1 X-5.126 Y-8.974 E0.01847
G1 X-5.06 Y-9.435 E0.01549
G1 X-5.025 Y-9.498 E0.0024
G1 X-5.066 Y-9.467 E0.00171
G1 X-5.334 Y-9.495 E0.00896
G1 X-5.334 Y5.298 E0.49202
G1 X-5.345 Y5.293 E0.0004
G1 X-5.788 Y5.357 E0.01489
G1 X-6.077 Y5.139 E0.01204
G1 X-7.405 Y4.845 E0.04524
G1 X-7.427 Y4.838 E0.00077
G1 X-7.816 Y4.681 E0.01395
G1 X-8.001 Y4.375 E0.01189
G1 X-8.001 Y3.634 E0.02465
G1 X-8.501 Y3.468 E0.01752
G1 X-9.049 Y3.303 E0.01903
G1 X-9.59 Y3.054 E0.01981
G1 X-10.017 Y2.743 E0.01757
G1 X-10.347 Y2.356 E0.01692
G1 X-10.589 Y1.785 E0.02063
G1 X-10.668 Y1.449 E0.01148
G1 X-10.73 Y1.185 E0.00902
G1 X-10.727 Y0.626 E0.01859
G1 X-10.668 Y0.464 E0.00573
G1 X-10.668 Y-4.735 E0.17292
G1 X-10.909 Y-4.436 E0.01277
G1 X-11.058 Y-4.066 E0.01327
G1 X-11.243 Y-3.832 E0.00992
G1 X-11.302 Y-3.621 E0.00729
G1 X-11.53 Y-3.043 E0.02067
G1 X-11.607 Y-2.949 E0.00404
G1 X-12.015 Y-1.91 E0.03713
G1 X-11.929 Y-.998 E0.03047
G1 X-12.012 Y-.616 E0.013
G1 X-11.584 Y0.567 E0.04184
G1 X-11.451 Y0.796 E0.00881
G1 X-11.11 Y1.014 E0.01346
G1 X-10.668 Y1.903 E0.03302
G1 X-10.668 Y1.449 E0.0151
G1 F1800 E-1.3
G0 F4500 X-10.844 Y1.509
G0 X-10.363 Y2.595
G0 X-9.497 Y3.205
G0 X-8.001 Y3.634
G1 F1800 E1.3
G1 F2250 X-7.962 Y3.646 E0.00136
G1 X-7.547 Y3.728 E0.01407
G1 X-7.152 Y3.642 E0.01345
G1 X-6.828 Y3.318 E0.01524
G1 X-6.606 Y2.766 E0.01979
G1 X-6.472 Y2.221 E0.01867
G1 X-6.447 Y1.674 E0.01821
G1 X-6.527 Y1.335 E0.01158
G1 X-6.681 Y1.044 E0.01095
G1 X-6.933 Y0.628 E0.01618
G1 X-6.96 Y0.169 E0.01529
G1 X-6.928 Y-.367 E0.01786
G1 X-7.002 Y-.622 E0.00883
G1 X-7.149 Y-.763 E0.00677
G1 X-7.466 Y-.852 E0.01095
G1 X-8.001 Y-.742 E0.01817
G1 X-8.001 Y-8.086 E0.24426
G1 X-8.166 Y-7.909 E0.00805
G1 X-8.303 Y-7.627 E0.01043
G1 X-8.789 Y-7.277 E0.01992
G1 X-8.805 Y-7.23 E0.00165
G1 X-9.223 Y-6.837 E0.01908
G1 X-9.753 Y-5.398 E0.051
G1 X-10.182 Y-5.098 E0.01741
G1 X-10.405 Y-5.098 E0.00742
G1 X-10.476 Y-4.973 E0.00478
G1 X-10.668 Y-4.735 E0.01017
G1 F1800 E-1.3
;MESH:tooth_PETG.stl
G0 F4500 X-9.256 Y-.472
G0 X-8.862 Y0.729
G0 X-8.064 Y1.091
G0 X-7.971 Y1.057
;TYPE:WALL-INNER
G1 F1800 E1.3
G1 F2250 X-7.721 Y1.56 E0.01868
G1 X-7.677 Y1.853 E0.00985
G1 X-7.714 Y1.942 E0.00321
G1 X-7.941 Y2.102 E0.00924
G1 X-8.285 Y2.167 E0.01164
G1 X-8.931 Y2.075 E0.0217
G1 X-9.24 Y1.914 E0.01159
