;FLAVOR:Makerbot
;TIME:794
;MINX:-12.496
;MINY:-12.5
;MINZ:0.3
;MAXX:112.5
;MAXY:73
;MAXZ:2.1
;Generated with Cura_SteamEngine 4.8.0
T0
M82 ;absolute extrusion mode
; **** FlashForge Creator Pro PRINTER start.gcode for dual extrusion only ****
M83 ; relative extrusion mode
M73 P0 ; enable build progress
G162 X Y F3000 ; home XY maximum
G161 Z F1200 ; home Z minimum
G92 Z-5 ; set Z to -5
G1 Z0 ; move Z to 0
G161 Z F100 ; home Z slowly
M132 X Y Z A B ; recall home offsets
M135 T0 ; load right extruder offsets
G1 X150 Y-70 Z30 F9000 ; move to wait position right hand side of the table
G130 X20 Y20 Z20 A20 B20 ; lower stepper Vrefs while heating
M127
M140 S60 T0 ; set bed temperature
M134 T0 ; stabilize bed temperature
M104 S230 T0 ; set right extruder temp
M104 S228 T1 ; set left extruder temp
M133 T0 ; stabilize right extruder temperature
M133 T1 ; stabilize left extruder temperature
G130 X127 Y127 Z40 A127 B127 ; default stepper Vrefs
G92 A0 B0 ; zero extruders
M135 T0 ; right tool
G1 Z0.4 ; position nozzle
G1 X110 Y-70 E25 F300 ; purge nozzle
G1 X120 Y-70 Z0.15 F1200 ; slow wipe
G1 X110 Y-70 Z0.5 F1200 ; lift
G1 Z4 F1200 ; raise
G1 X-110 F4000 ; move nozzle to left side of bed
G1 Z0.4 F1200 ; lower
M135 T1 ; left tool
G1 X-140 Y-70 F9000 ; reposition nozzle
G1 X-100 Y-70 E25 F300 ; purge nozzle
G1 X-110 Y-70 Z0.15 F1200 ; slow wipe
G1 X-100 Y-70 Z0.5 F1200 ; lift
G92 A0 B0 ; zero extruders
M135 T1 ; left or right tool
M73 P1 ;@body (notify GPX body has started)
; **** end of start.gcode ****
M83 ;relative extrusion mode
G1 F1800 E-1.3
;LAYER_COUNT:18
;LAYER:0
M127 T0
M104 T1 S228
M104 S215
;MESH:FCPRO_cylinder_hole.3mf(1)
G0 X112.5 Y73 Z0.3
G1 F1200 E-14.7
G1 F600 Z1.3
M135 T1
M104 S228
M116
M104 T0 S175
G1 F1800 E-1.3
G0 X78.5 Y73 Z1.3
G1 F600 Z0.3
G0 F1800 X7.228 Y11.238
G0 X6.483 Y10.193
G0 X-.923 Y5.386
G0 X-.907 Y5.288
;TYPE:WALL-INNER
G1 F1800 E1.3
G1 F900 X0.00 Y5.364 E0.04541
G1 X0.907 Y5.288 E0.04541
G1 X1.788 Y5.057 E0.04544
G1 X2.617 Y4.683 E0.04537
G1 X3.37 Y4.173 E0.04537
G1 X4.027 Y3.544 E0.04538
G1 X4.568 Y2.812 E0.04541
G1 X4.977 Y2.001 E0.04532
G1 X5.244 Y1.13 E0.04545
G1 X5.36 Y0.227 E0.04542
G1 X5.321 Y-.681 E0.04534
G1 X5.13 Y-1.572 E0.04546
G1 X4.79 Y-2.415 E0.04535
G1 X4.313 Y-3.19 E0.0454
G1 X3.712 Y-3.873 E0.04539
G1 X3.004 Y-4.444 E0.04538
G1 X2.21 Y-4.889 E0.04541
G1 X1.351 Y-5.192 E0.04544
G1 X0.455 Y-5.345 E0.04535
G1 X-.455 Y-5.345 E0.0454
G1 X-1.351 Y-5.192 E0.04535
G1 X-2.21 Y-4.889 E0.04544
G1 X-3.004 Y-4.444 E0.04541
G1 X-3.712 Y-3.873 E0.04538
G1 X-4.313 Y-3.19 E0.04539
G1 X-4.79 Y-2.415 E0.0454
G1 X-5.13 Y-1.572 E0.04535
G1 X-5.321 Y-.681 E0.04546
G1 X-5.36 Y0.227 E0.04534
G1 X-5.244 Y1.13 E0.04542
G1 X-4.977 Y2.001 E0.04545
G1 X-4.568 Y2.812 E0.04532
G1 X-4.027 Y3.544 E0.04541
G1 X-3.37 Y4.173 E0.04538
G1 X-2.617 Y4.683 E0.04537
G1 X-1.788 Y5.057 E0.04537
G1 X-.907 Y5.288 E0.04544
G0 F1800 X-.923 Y5.386
G0 X-1.801 Y5.094
G0 X-2.636 Y4.717
G0 X-3.395 Y4.204
G0 X-4.057 Y3.57
G0 X-4.602 Y2.832
G0 X-5.014 Y2.015
G0 X-5.283 Y1.138
G0 X-5.399 Y0.228
G0 X-5.36 Y-.686
G0 X-5.168 Y-1.583
G0 X-4.86 Y-2.348
G0 X1.23 Y-11.937
G0 X1.24 Y-12.036
G1 F900 X2.478 Y-11.842 E0.06252
G1 X3.684 Y-11.525 E0.06221
G1 X4.839 Y-11.09 E0.06157
G1 X5.959 Y-10.529 E0.06249
G1 X7.017 Y-9.858 E0.0625
G1 X7.98 Y-9.094 E0.06133
G1 X8.882 Y-8.216 E0.0628
G1 X9.677 Y-7.264 E0.06188
G1 X10.372 Y-6.23 E0.06216
G1 X10.959 Y-5.126 E0.06238
G1 X11.427 Y-3.975 E0.06199
G1 X11.775 Y-2.777 E0.06224
G1 X12 Y-1.55 E0.06224
G1 X12.095 Y-.316 E0.06175
G1 X12.063 Y0.936 E0.06248
G1 X11.904 Y2.164 E0.06178
G1 X11.617 Y3.379 E0.06228
G1 X11.206 Y4.561 E0.06243
G1 X10.679 Y5.688 E0.06207
G1 X10.04 Y6.752 E0.06192
G1 X9.291 Y7.751 E0.06229
G1 X8.446 Y8.664 E0.06206
G1 X7.509 Y9.486 E0.06219
G1 X6.493 Y10.209 E0.06221
G1 X5.401 Y10.827 E0.0626
G1 X4.278 Y11.319 E0.06117
G1 X3.085 Y11.699 E0.06247
G1 X1.857 Y11.955 E0.06258
G1 X0.616 Y12.083 E0.06224
G1 X0.00 Y12.1 E0.03074
G1 X-.616 Y12.083 E0.03074
G1 X-1.857 Y11.955 E0.06224
G1 X-3.085 Y11.699 E0.06258
G1 X-4.278 Y11.319 E0.06247
G1 X-5.401 Y10.827 E0.06117
G1 X-6.493 Y10.209 E0.0626
G1 X-7.509 Y9.486 E0.06221
G1 X-8.446 Y8.664 E0.06219
G1 X-9.291 Y7.751 E0.06206
G1 X-10.04 Y6.752 E0.06229
G1 X-10.679 Y5.688 E0.06192
G1 X-11.206 Y4.561 E0.06207
G1 X-11.617 Y3.379 E0.06243
G1 X-11.904 Y2.164 E0.06228
G1 X-12.063 Y0.936 E0.06178
G1 X-12.095 Y-.316 E0.06248
G1 X-12 Y-1.55 E0.06175
G1 X-11.775 Y-2.777 E0.06224
G1 X-11.427 Y-3.975 E0.06224
G1 X-10.959 Y-5.126 E0.06199
G1 X-10.372 Y-6.23 E0.06238
G1 X-9.677 Y-7.264 E0.06216
G1 X-8.882 Y-8.216 E0.06188
G1 X-7.98 Y-9.094 E0.0628
G1 X-7.017 Y-9.858 E0.06133
G1 X-5.959 Y-10.529 E0.0625
G1 X-4.839 Y-11.09 E0.06249
G1 X-3.684 Y-11.525 E0.06157
G1 X-2.478 Y-11.842 E0.06221
G1 X-1.24 Y-12.036 E0.06252
G1 X0.00 Y-12.099 E0.06194
G1 X1.24 Y-12.036 E0.06194
G0 F1800 X1.284 Y-12.434
;TYPE:WALL-OUTER
G1 F900 X2.564 Y-12.233 E0.06464
G1 X3.801 Y-11.908 E0.06381
G1 X5.004 Y-11.455 E0.06413
G1 X6.155 Y-10.879 E0.06421
G1 X7.243 Y-10.188 E0.0643
G1 X8.251 Y-9.389 E0.06417
G1 X9.172 Y-8.492 E0.06414
G1 X9.998 Y-7.503 E0.06429
G1 X10.715 Y-6.436 E0.06414
G1 X11.325 Y-5.29 E0.06477
G1 X11.804 Y-4.112 E0.06344
G1 X12.164 Y-2.873 E0.06437
G1 X12.398 Y-1.595 E0.06482
G1 X12.496 Y-.327 E0.06345
G1 X12.462 Y0.968 E0.06463
G1 X12.299 Y2.231 E0.06353
G1 X12.001 Y3.494 E0.06474
G1 X11.578 Y4.711 E0.06428
G1 X11.032 Y5.878 E0.06428
G1 X10.373 Y6.975 E0.06385
G1 X9.6 Y8.006 E0.06429
G1 X8.721 Y8.955 E0.06453
G1 X7.76 Y9.799 E0.06381
G1 X6.71 Y10.546 E0.06429
G1 X5.584 Y11.183 E0.06454
G1 X4.416 Y11.694 E0.0636
G1 X3.18 Y12.088 E0.06472
G1 X1.922 Y12.351 E0.06412
G1 X0.641 Y12.483 E0.06425
G1 X0.00 Y12.5 E0.03199
G1 X-.641 Y12.483 E0.03199
G1 X-1.922 Y12.351 E0.06425
G1 X-3.18 Y12.088 E0.06412
G1 X-4.416 Y11.694 E0.06472
G1 X-5.584 Y11.183 E0.0636
G1 X-6.71 Y10.546 E0.06454
G1 X-7.76 Y9.799 E0.06429
G1 X-8.721 Y8.955 E0.06381
G1 X-9.6 Y8.006 E0.06453
G1 X-10.373 Y6.975 E0.06429
G1 X-11.032 Y5.878 E0.06385
G1 X-11.578 Y4.711 E0.06428
G1 X-12.001 Y3.494 E0.06428
G1 X-12.299 Y2.231 E0.06474
G1 X-12.462 Y0.968 E0.06353
G1 X-12.496 Y-.327 E0.06463
G1 X-12.398 Y-1.595 E0.06345
G1 X-12.164 Y-2.873 E0.06482
G1 X-11.804 Y-4.112 E0.06437
G1 X-11.325 Y-5.29 E0.06344
G1 X-10.715 Y-6.436 E0.06477
G1 X-9.998 Y-7.503 E0.06414
G1 X-9.172 Y-8.492 E0.06429
G1 X-8.251 Y-9.389 E0.06414
G1 X-7.243 Y-10.188 E0.06417
G1 X-6.155 Y-10.879 E0.0643
G1 X-5.004 Y-11.455 E0.06421
G1 X-3.801 Y-11.908 E0.06413
G1 X-2.564 Y-12.233 E0.06381
G1 X-1.284 Y-12.434 E0.06464
G1 X0.00 Y-12.499 E0.06414
G1 X1.284 Y-12.434 E0.06414
G0 F1800 X1.481 Y-12.403
G0 X1.404 Y-11.91
G0 X-2.288 Y-4.959
G0 X-2.045 Y-4.523
G1 F900 X-2.779 Y-4.112 E0.04197
G1 X-3.434 Y-3.583 E0.042
G1 X-3.99 Y-2.951 E0.042
G1 X-4.432 Y-2.234 E0.04202
G1 X-4.746 Y-1.454 E0.04195
G1 X-4.923 Y-.63 E0.04205
G1 X-4.959 Y0.21 E0.04195
G1 X-4.852 Y1.045 E0.042
G1 X-4.605 Y1.851 E0.04206
G1 X-4.226 Y2.602 E0.04197
G1 X-3.726 Y3.279 E0.04199
G1 X-3.118 Y3.861 E0.04199
G1 X-2.421 Y4.333 E0.042
G1 X-1.654 Y4.679 E0.04198
G1 X-.839 Y4.892 E0.04203
G1 X0.00 Y4.963 E0.04201
G1 X0.839 Y4.892 E0.04201
G1 X1.654 Y4.679 E0.04203
G1 X2.421 Y4.333 E0.04198
G1 X3.118 Y3.861 E0.042
G1 X3.726 Y3.279 E0.04199
G1 X4.226 Y2.602 E0.04199
G1 X4.605 Y1.851 E0.04197
G1 X4.852 Y1.045 E0.04206
G1 X4.959 Y0.21 E0.042
G1 X4.923 Y-.63 E0.04195
G1 X4.746 Y-1.454 E0.04205
G1 X4.432 Y-2.234 E0.04195
G1 X3.99 Y-2.951 E0.04202
G1 X3.434 Y-3.583 E0.042
G1 X2.779 Y-4.112 E0.042
G1 X2.045 Y-4.523 E0.04197
G1 X1.25 Y-4.803 E0.04205
G1 X0.421 Y-4.945 E0.04196
G1 X-.421 Y-4.945 E0.04201
G1 X-1.25 Y-4.803 E0.04196
G1 X-2.045 Y-4.523 E0.04205
G0 F1800 X-2.219 Y-4.426
G0 X-2.372 Y-5.246
;TYPE:SKIN
G1 F900 X-3.223 Y-4.768 E0.0487
G1 X-3.983 Y-4.156 E0.04868
G1 X-4.627 Y-3.422 E0.04872
G1 X-5.139 Y-2.591 E0.0487
G1 X-5.504 Y-1.687 E0.04864
G1 X-5.709 Y-.73 E0.04883
G1 X-5.752 Y0.244 E0.04864
G1 X-5.626 Y1.212 E0.0487
G1 X-5.34 Y2.147 E0.04878
G1 X-4.901 Y3.017 E0.04862
G1 X-4.321 Y3.803 E0.04873
G1 X-3.616 Y4.477 E0.04866
G1 X-2.808 Y5.024 E0.04868
G1 X-1.919 Y5.426 E0.04868
G1 X-.973 Y5.674 E0.04879
G1 X0.00 Y5.756 E0.04872
G1 X0.973 Y5.674 E0.04872
G1 X1.919 Y5.426 E0.04879
G1 X2.808 Y5.024 E0.04868
G1 X3.616 Y4.477 E0.04868
G1 X4.321 Y3.803 E0.04866
G1 X4.901 Y3.017 E0.04873
G1 X5.34 Y2.147 E0.04862
G1 X5.626 Y1.212 E0.04878
G1 X5.752 Y0.244 E0.0487
G1 X5.709 Y-.73 E0.04864
G1 X5.504 Y-1.687 E0.04883
G1 X5.139 Y-2.591 E0.04864
G1 X4.627 Y-3.422 E0.0487
G1 X3.983 Y-4.156 E0.04872
G1 X3.223 Y-4.768 E0.04868
G1 X2.372 Y-5.246 E0.0487
G1 X1.449 Y-5.571 E0.04882
G1 X0.488 Y-5.735 E0.04864
G1 X-.488 Y-5.735 E0.04869
G1 X-1.449 Y-5.571 E0.04864
G1 X-2.372 Y-5.246 E0.04882
G0 F1800 X-5.772 Y-10.186
G1 F900 X-4.678 Y-10.734 E0.06104
G1 X-3.565 Y-11.154 E0.05935
G1 X-2.408 Y-11.457 E0.05967
G1 X-1.197 Y-11.648 E0.06116
G1 X0.00 Y-11.707 E0.05979
G1 X1.197 Y-11.648 E0.05979
G1 X2.408 Y-11.457 E0.06116
G1 X3.565 Y-11.154 E0.05967
G1 X4.678 Y-10.734 E0.05935
G1 X5.772 Y-10.186 E0.06104
G1 X6.788 Y-9.542 E0.06001
G1 X7.726 Y-8.798 E0.05973
G1 X8.588 Y-7.959 E0.06001
G1 X9.365 Y-7.03 E0.06042
G1 X10.036 Y-6.029 E0.06012
G1 X10.609 Y-4.952 E0.06086
G1 X11.061 Y-3.841 E0.05984
G1 X11.393 Y-2.694 E0.05957
G1 X11.615 Y-1.485 E0.06133
G1 X11.705 Y-.316 E0.05849
G1 X11.673 Y0.915 E0.06144
G1 X11.524 Y2.074 E0.0583
G1 X11.24 Y3.278 E0.06172
G1 X10.848 Y4.407 E0.05962
G1 X10.333 Y5.507 E0.0606
G1 X9.717 Y6.532 E0.05966
G1 X8.991 Y7.502 E0.06045
G1 X8.172 Y8.386 E0.06012
G1 X7.27 Y9.177 E0.05985
G1 X6.282 Y9.879 E0.06047
G1 X5.222 Y10.48 E0.06079
G1 X4.149 Y10.95 E0.05844
G1 X2.983 Y11.322 E0.06106
G1 X1.795 Y11.569 E0.06054
G1 X0.592 Y11.693 E0.06034
G1 X0.00 Y11.71 E0.02955
G1 X-.592 Y11.693 E0.02955
G1 X-1.795 Y11.569 E0.06034
G1 X-2.983 Y11.322 E0.06054
G1 X-4.149 Y10.95 E0.06106
G1 X-5.222 Y10.48 E0.05844
G1 X-6.282 Y9.879 E0.06079
G1 X-7.27 Y9.177 E0.06047
G1 X-8.172 Y8.386 E0.05985
G1 X-8.991 Y7.502 E0.06012
G1 X-9.717 Y6.532 E0.06045
G1 X-10.333 Y5.507 E0.05966
G1 X-10.848 Y4.407 E0.0606
G1 X-11.24 Y3.278 E0.05962
G1 X-11.524 Y2.074 E0.06172
G1 X-11.673 Y0.915 E0.0583
G1 X-11.705 Y-.316 E0.06144
G1 X-11.615 Y-1.485 E0.05849
G1 X-11.393 Y-2.694 E0.06133
G1 X-11.061 Y-3.841 E0.05957
G1 X-10.609 Y-4.952 E0.05984
G1 X-10.036 Y-6.029 E0.06086
G1 X-9.365 Y-7.03 E0.06012
G1 X-8.588 Y-7.959 E0.06042
G1 X-7.726 Y-8.798 E0.06001
G1 X-6.788 Y-9.542 E0.05973
G1 X-5.772 Y-10.186 E0.06001
G0 F1800 X9.838 Y-6
G1 F900 X6.033 Y-9.806 E0.2685
G1 X5.963 Y-9.876
G0 F1800 X4.806 Y-10.466
G1 F900 X10.479 Y-4.794 E0.40023
G1 X10.549 Y-4.724
G0 F1800 X10.867 Y-3.84
G1 F900 X3.857 Y-10.85 E0.49459
G1 X3.787 Y-10.92
G0 F1800 X3.035 Y-11.106
G1 F900 X11.105 Y-3.037 E0.56935
G0 F1800 X11.281 Y-2.294
G1 F900 X2.283 Y-11.293 E0.63489
G0 F1800 X1.611 Y-11.399
G1 F900 X11.409 Y-1.6 E0.69134
G0 F1800 X11.474 Y-.97
G1 F900 X0.966 Y-11.478 E0.7414
G0 F1800 X0.371 Y-11.507
G1 F900 X11.521 Y-.357 E0.78669
G0 F1800 X11.51 Y0.197
G1 F900 X-.202 Y-11.515 E0.82634
G0 F1800 X-.741 Y-11.489
G1 F900 X11.496 Y0.748 E0.86339
G0 F1800 X11.446 Y1.264
G1 F900 X-1.27 Y-11.453 E0.89722
G0 F1800 X-1.759 Y-11.375
G1 F900 X11.382 Y1.765 E0.92713
G0 F1800 X11.298 Y2.247
G1 F900 X-2.247 Y-11.298 E0.95567
G0 F1800 X-2.706 Y-11.192
G1 F900 X11.189 Y2.704 E0.9804
G0 F1800 X11.081 Y3.161
G1 F900 X5.334 Y-2.585 E0.40545
G1 X5.264 Y-2.655
G0 F1800 X5.692 Y-1.661
G1 F900 X10.941 Y3.587 E0.37031
G0 F1800 X10.796 Y4.007
G1 F900 X5.846 Y-.941 E0.34918
G0 F1800 X5.906 Y-.316
G1 F900 X10.643 Y4.42 E0.33419
G0 F1800 X10.463 Y4.806
G1 F900 X5.929 Y0.272 E0.3199
G0 F1800 X5.864 Y0.772
G1 F900 X10.282 Y5.191 E0.31175
G0 F1800 X10.089 Y5.564
G1 F900 X5.795 Y1.269 E0.303
G0 F1800 X5.662 Y1.702
G1 F900 X9.876 Y5.917 E0.29736
G0 F1800 X9.664 Y6.27
G1 F900 X5.53 Y2.136 E0.29168
G0 F1800 X5.35 Y2.522
G1 F900 X9.435 Y6.607 E0.28822
G0 F1800 X9.193 Y6.931
G1 F900 X5.161 Y2.898 E0.28451
G0 F1800 X4.949 Y3.252
G1 F900 X8.951 Y7.254 E0.28236
G0 F1800 X8.691 Y7.559
G1 F900 X4.709 Y3.577 E0.28095
G0 F1800 X4.469 Y3.903
G1 F900 X8.419 Y7.853 E0.27869
G0 F1800 X8.147 Y8.147
G1 F900 X4.183 Y4.183 E0.27968
G0 F1800 X3.894 Y4.46
G1 F900 X7.855 Y8.421 E0.27947
G0 F1800 X7.554 Y8.686
G1 F900 X3.584 Y4.715 E0.28014
G0 F1800 X3.247 Y4.944
G1 F900 X7.253 Y8.95 E0.28264
G0 F1800 X6.931 Y9.194
G1 F900 X2.909 Y5.172 E0.28377
G0 F1800 X2.522 Y5.35
G1 F900 X6.6 Y9.429 E0.28776
G0 F1800 X6.27 Y9.664
G1 F900 X2.132 Y5.526 E0.29196
G0 F1800 X1.707 Y5.667
G1 F900 X5.917 Y9.876 E0.297
G0 F1800 X5.556 Y10.081
G1 F900 X1.259 Y5.784 E0.30318
G0 F1800 X0.779 Y5.871
G1 F900 X5.195 Y10.286 E0.31154
G0 F1800 X4.807 Y10.464
G1 F900 X0.258 Y5.914 E0.32099
G0 F1800 X-.311 Y5.91
G1 F900 X4.414 Y10.637 E0.33344
G0 F1800 X4.014 Y10.802
G1 F900 X-.93 Y5.857 E0.34886
G0 F1800 X-1.679 Y5.674
G1 F900 X3.585 Y10.939 E0.37144
G0 F1800 X3.156 Y11.076
G1 F900 X-2.608 Y5.311 E0.40672
G1 X-2.678 Y5.241
G0 F1800 X-5.304 Y2.614
G1 F900 X-11.071 Y-3.152 E0.40686
G0 F1800 X-11.198 Y-2.713
G1 F900 X2.708 Y11.194 E0.98118
G0 F1800 X2.24 Y11.291
G1 F900 X-11.291 Y-2.24 E0.95469
G0 F1800 X-11.38 Y-1.763
G1 F900 X1.772 Y11.388 E0.92791
G0 F1800 X1.259 Y11.441
G1 F900 X-11.451 Y-1.269 E0.89676
G0 F1800 X-11.491 Y-.743
G1 F900 X0.746 Y11.494 E0.86339
G0 F1800 X0.208 Y11.522
G1 F900 X-11.521 Y-.207 E0.82754
G0 F1800 X-11.506 Y0.372
G1 F900 X-.361 Y11.518 E0.78638
G0 F1800 X-.973 Y11.471
G1 F900 X-11.485 Y0.959 E0.74168
G0 F1800 X-11.402 Y1.607
G1 F900 X-1.604 Y11.406 E0.69134
G0 F1800 X-2.296 Y11.279
G1 F900 X-11.287 Y2.288 E0.63436
G0 F1800 X-11.112 Y3.029
G1 F900 X-3.022 Y11.119 E0.57079
G1 X-2.952 Y11.189
G0 F1800 X-3.853 Y10.854
G1 F900 X-10.846 Y3.861 E0.49339
G1 X-10.916 Y3.791
G0 F1800 X-10.458 Y4.815
G1 F900 X-4.81 Y10.463 E0.3985
G1 X-4.74 Y10.533
G0 F1800 X-6.019 Y9.819
G1 F900 X-9.808 Y6.03 E0.26733
G1 X-9.878 Y5.96
G0 F1800 X-5.668 Y1.685
G1 F900 X-10.946 Y-3.592 E0.37236
G0 F1800 X-10.798 Y-4.01
G1 F900 X-5.841 Y0.946 E0.34971
G0 F1800 X-5.926 Y0.296
G1 F900 X-10.634 Y-4.412 E0.33217
G0 F1800 X-10.471 Y-4.814
G1 F900 X-5.909 Y-.252 E0.32187
G0 F1800 X-5.879 Y-.788
G1 F900 X-10.279 Y-5.188 E0.31044
G0 F1800 X-10.082 Y-5.557
G1 F900 X-5.779 Y-1.253 E0.30364
G0 F1800 X-5.679 Y-1.719
G1 F900 X-9.886 Y-5.926 E0.29683
G0 F1800 X-9.66 Y-6.266
G1 F900 X-5.519 Y-2.125 E0.29217
G0 F1800 X-5.357 Y-2.528
G1 F900 X-9.433 Y-6.605 E0.28762
G0 F1800 X-9.205 Y-6.942
G1 F900 X-5.16 Y-2.897 E0.2854
G0 F1800 X-4.944 Y-3.247
G1 F900 X-8.947 Y-7.249 E0.2824
G0 F1800 X-8.689 Y-7.558
G1 F900 X-4.719 Y-3.587 E0.28014
G0 F1800 X-4.454 Y-3.889
G1 F900 X-8.428 Y-7.863 E0.28039
G0 F1800 X-8.142 Y-8.142
G1 F900 X-4.19 Y-4.19 E0.27883
G0 F1800 X-3.893 Y-4.459
G1 F900 X-7.855 Y-8.42 E0.27951
G0 F1800 X-7.564 Y-8.695
G1 F900 X-3.579 Y-4.71 E0.28116
G0 F1800 X-3.256 Y-4.953
G1 F900 X-7.248 Y-8.945 E0.28166
G0 F1800 X-6.933 Y-9.195
G1 F900 X-2.895 Y-5.158 E0.28487
G0 F1800 X-2.533 Y-5.361
G1 F900 X-6.611 Y-9.439 E0.28772
G0 F1800 X-6.264 Y-9.659
G1 F900 X-2.127 Y-5.521 E0.29192
G0 F1800 X-1.709 Y-5.668
G1 F900 X-5.918 Y-9.878 E0.297
G0 F1800 X-5.562 Y-10.087
G1 F900 X-1.259 Y-5.784 E0.3036
G0 F1800 X-.776 Y-5.867
G1 F900 X-5.185 Y-10.276 E0.31108
G0 F1800 X-4.808 Y-10.465
G1 F900 X-.257 Y-5.914 E0.3211
G0 F1800 X0.308 Y-5.914
G1 F900 X-4.416 Y-10.639 E0.33334
G0 F1800 X-4.005 Y-10.793
G1 F900 X0.951 Y-5.837 E0.34967
G0 F1800 X1.672 Y-5.681
G1 F900 X-3.595 Y-10.949 E0.37165
G0 F1800 X-3.155 Y-11.074
G1 F900 X2.59 Y-5.329 E0.40534
G1 X2.66 Y-5.259
;MESH:NONMESH
G0 F600 X2.66 Y-5.259 Z0.4
G0 F1800 X4.345 Y-3.213
G0 X4.825 Y-2.433
G0 X5.168 Y-1.583
G0 X5.36 Y-.686
G0 X5.399 Y0.228
G0 X5.283 Y1.138
G0 X5.014 Y2.015
G0 X4.602 Y2.832
G0 X4.057 Y3.57
G0 X3.395 Y4.204
G0 X2.636 Y4.717
G0 X1.801 Y5.094
G0 X0.913 Y5.327
G0 X-.923 Y5.386
G0 X-.907 Y5.288
;TIME_ELAPSED:90.113438
;LAYER:1
M126 T0
;TYPE:WALL-INNER
;MESH:FCPRO_cylinder_hole.3mf(1)
G1 F2250 X0.00 Y5.364 E0.01514
G1 X0.907 Y5.288 E0.01514
G1 X1.788 Y5.057 E0.01515
G1 X2.617 Y4.683 E0.01512
G1 X3.37 Y4.173 E0.01512
G1 X4.027 Y3.544 E0.01513
G1 X4.568 Y2.812 E0.01514
