;FLAVOR:Makerbot
;TIME:608
;MINX:-10.369
;MINY:-9.2
;MINZ:0.3
;MAXX:112.5
;MAXY:73
;MAXZ:16.7
;Generated with Cura_SteamEngine 4.8.0
T1
M82 ;absolute extrusion mode
; **** FlashForge Creator Pro PRINTER start.gcode for dual extrusion only ****
M83 ; relative extrusion mode
M73 P0 ; enable build progress
G162 X Y F3000 ; home XY maximum
G161 Z F1200 ; home Z minimum
G92 Z-5 ; set Z to -5
G1 Z0 ; move Z to 0
G161 Z F100 ; home Z slowly
M132 X Y Z A B ; recall home offsets
M135 T0 ; load right extruder offsets
G1 X150 Y-70 Z30 F9000 ; move to wait position right hand side of the table
G130 X20 Y20 Z20 A20 B20 ; lower stepper Vrefs while heating
M127
M140 S80 T0 ; set bed temperature
M134 T0 ; stabilize bed temperature
M104 S230 T0 ; set right extruder temp
M104 S240 T1 ; set left extruder temp
M133 T0 ; stabilize right extruder temperature
M133 T1 ; stabilize left extruder temperature
G130 X127 Y127 Z40 A127 B127 ; default stepper Vrefs
G92 A0 B0 ; zero extruders
M135 T0 ; right tool
G1 Z0.4 ; position nozzle
G1 X110 Y-70 E25 F300 ; purge nozzle
G1 X120 Y-70 Z0.15 F1200 ; slow wipe
G1 X110 Y-70 Z0.5 F1200 ; lift
G1 Z4 F1200 ; raise
G1 X-110 F4000 ; move nozzle to left side of bed
G1 Z0.4 F1200 ; lower
M135 T1 ; left tool
G1 X-140 Y-70 F9000 ; reposition nozzle
G1 X-100 Y-70 E25 F300 ; purge nozzle
G1 X-110 Y-70 Z0.15 F1200 ; slow wipe
G1 X-100 Y-70 Z0.5 F1200 ; lift
G92 A0 B0 ; zero extruders
M135 T1 ; left or right tool
M73 P1 ;@body (notify GPX body has started)
; **** end of start.gcode ****
M83 ;relative extrusion mode
G1 F1800 E-1.3
;LAYER_COUNT:83
;LAYER:0
M127 T0
M104 T0 S230
G0 F2160 X-1.016 Y5.64 Z0.3
;TYPE:SKIRT
G1 F1800 E1.3
G1 F900 X-1.519 Y5.704 E0.0253
G1 X-1.936 Y5.664 E0.0209
G1 X-2.491 Y5.472 E0.0293
G1 X-2.847 Y5.401 E0.01811
G1 X-3.235 Y5.243 E0.0209
G1 X-3.669 Y4.933 E0.02661
G1 X-4.473 Y4.639 E0.04271
G1 X-4.96 Y4.329 E0.0288
G1 X-5.106 Y4.207 E0.00949
G1 X-5.868 Y3.782 E0.04353
G1 X-6.402 Y3.388 E0.03311
G1 X-6.672 Y3.068 E0.02089
G1 X-6.852 Y2.765 E0.01758
G1 X-7.175 Y2.497 E0.02094
G1 X-7.596 Y1.977 E0.03338
G1 X-7.854 Y1.543 E0.02519
G1 X-8.121 Y0.905 E0.0345
G1 X-8.293 Y0.202 E0.03611
G1 X-8.358 Y-.402 E0.03031
G1 X-8.363 Y-.821 E0.02091
G1 X-8.273 Y-1.417 E0.03007
G1 X-8.034 Y-2.223 E0.04194
G1 X-7.8 Y-2.766 E0.0295
G1 X-7.391 Y-3.462 E0.04028
G1 X-7.095 Y-3.952 E0.02856
G1 X-6.714 Y-4.467 E0.03196
G1 X-6.632 Y-4.621 E0.0087
G1 X-6.312 Y-5.073 E0.02763
G1 X-5.653 Y-5.791 E0.04862
G1 X-5.339 Y-6.073 E0.02106
G1 X-4.537 Y-6.665 E0.04973
G1 X-3.985 Y-6.961 E0.03125
G1 X-3.268 Y-7.181 E0.03742
G1 X-2.849 Y-7.208 E0.02095
G1 X-2.434 Y-7.155 E0.02087
G1 X-2.165 Y-7.068 E0.0141
G1 X-1.805 Y-7.106 E0.01806
G1 X-1.386 Y-7.097 E0.02091
G1 X-1.129 Y-7.063 E0.01293
G1 X-.715 Y-7.13 E0.02092
G1 X-0.094 Y-7.083 E0.03107
G1 X0.575 Y-6.894 E0.03468
G1 X1.11 Y-6.698 E0.02843
G1 X1.186 Y-6.653 E0.00441
G1 X1.702 Y-6.472 E0.02728
G1 X1.96 Y-6.396 E0.01342
G1 X2.332 Y-6.203 E0.02091
G1 X2.756 Y-5.833 E0.02808
G1 X3.011 Y-5.752 E0.01335
G1 X3.379 Y-5.551 E0.02092
G1 X3.788 Y-5.172 E0.02782
G1 X4.164 Y-5.03 E0.02005
G1 X4.662 Y-4.7 E0.02981
G1 X5.05 Y-4.436 E0.02341
G1 X5.34 Y-4.134 E0.02089
G1 X5.565 Y-3.784 E0.02076
G1 X5.982 Y-3.484 E0.02563
G1 X6.182 Y-3.258 E0.01506
G1 X6.483 Y-3.125 E0.01642
G1 X7.018 Y-2.773 E0.03195
G1 X7.341 Y-2.507 E0.02088
G1 X7.609 Y-2.184 E0.02094
G1 X7.81 Y-1.816 E0.02092
G1 X7.951 Y-1.308 E0.0263
G1 X8.073 Y-1.038 E0.01478
G1 X8.171 Y-.631 E0.02089
G1 X8.181 Y0.096 E0.03627
G1 X8.077 Y0.72 E0.03156
G1 X7.92 Y1.229 E0.02657
G1 X7.645 Y1.84 E0.03343
G1 X7.581 Y2.46 E0.0311
G1 X7.347 Y3.052 E0.03176
G1 X7.34 Y3.092 E0.00203
G1 X7.095 Y3.652 E0.0305
G1 X6.951 Y4.168 E0.02673
G1 X6.756 Y4.539 E0.02091
G1 X6.436 Y4.924 E0.02498
G1 X5.828 Y5.506 E0.04199
G1 X5.499 Y5.766 E0.02092
G1 X5.127 Y5.958 E0.02089
G1 X4.725 Y6.077 E0.02092
G1 X4.308 Y6.117 E0.0209
G1 X3.936 Y6.081 E0.01865
G1 X3.312 Y6.21 E0.03179
G1 X2.716 Y6.222 E0.02974
G1 X2.214 Y6.384 E0.02632
G1 X1.797 Y6.419 E0.02088
G1 X1.38 Y6.374 E0.02093
G1 X0.838 Y6.185 E0.02864
G1 X0.272 Y6.025 E0.02934
G1 X-.102 Y5.829 E0.02107
G1 X-.418 Y5.808 E0.0158
G1 X-1.016 Y5.64 E0.03099
G0 F2160 X-1.008 Y5.222
G1 F900 X-1.501 Y5.304 E0.02493
G1 X-1.879 Y5.267 E0.01895
G1 X-2.379 Y5.082 E0.0266
G1 X-2.801 Y4.996 E0.02149
G1 X-3.144 Y4.835 E0.0189
G1 X-3.464 Y4.585 E0.02026
G1 X-3.938 Y4.394 E0.0255
G1 X-4.369 Y4.244 E0.02277
G1 X-4.879 Y3.875 E0.03141
G1 X-5.673 Y3.432 E0.04536
G1 X-6.147 Y3.077 E0.02954
G1 X-6.383 Y2.78 E0.01893
G1 X-6.529 Y2.485 E0.01642
G1 X-6.702 Y2.381 E0.01007
G1 X-7.046 Y2.038 E0.02424
G1 X-7.489 Y1.38 E0.03957
G1 X-7.738 Y0.789 E0.032
G1 X-7.896 Y0.16 E0.03236
G1 X-7.961 Y-.444 E0.03031
G1 X-7.961 Y-.823 E0.01891
G1 X-7.876 Y-1.362 E0.02722
G1 X-7.658 Y-2.088 E0.03782
G1 X-7.429 Y-2.616 E0.02871
G1 X-7.042 Y-3.266 E0.03774
G1 X-6.773 Y-3.714 E0.02607
G1 X-6.377 Y-4.25 E0.03325
G1 X-6.017 Y-4.802 E0.03288
G1 X-5.358 Y-5.52 E0.04862
G1 X-5.101 Y-5.751 E0.01724
G1 X-4.299 Y-6.343 E0.04973
G1 X-3.848 Y-6.586 E0.02556
G1 X-3.168 Y-6.792 E0.03545
G1 X-2.789 Y-6.804 E0.01892
G1 X-2.203 Y-6.661 E0.03009
G1 X-1.776 Y-6.707 E0.02143
G1 X-1.397 Y-6.695 E0.01892
G1 X-1.151 Y-6.63 E0.01269
G1 X-.67 Y-6.732 E0.02453
G1 X0.09 Y-6.632 E0.03824
G1 X0.623 Y-6.441 E0.02825
G1 X1.042 Y-6.28 E0.02239
G1 X1.578 Y-6.093 E0.02832
G1 X1.844 Y-6.011 E0.01389
G1 X2.175 Y-5.827 E0.01889
G1 X2.562 Y-5.48 E0.02593
G1 X2.919 Y-5.354 E0.01889
G1 X3.242 Y-5.156 E0.0189
G1 X3.571 Y-4.817 E0.02357
G1 X4.021 Y-4.654 E0.02388
G1 X4.458 Y-4.353 E0.02647
G1 X4.843 Y-4.085 E0.0234
G1 X5.091 Y-3.798 E0.01892
G1 X5.25 Y-3.507 E0.01654
G1 X5.74 Y-3.163 E0.02987
G1 X5.951 Y-2.918 E0.01613
G1 X6.273 Y-2.784 E0.0174
G1 X6.854 Y-2.4 E0.03475
G1 X7.134 Y-2.144 E0.01893
G1 X7.354 Y-1.836 E0.01888
G1 X7.505 Y-1.489 E0.01888
G1 X7.553 Y-1.221 E0.01358
G1 X7.706 Y-.874 E0.01892
G1 X7.791 Y-.275 E0.03018
G1 X7.751 Y0.37 E0.03224
G1 X7.695 Y0.603 E0.01196
G1 X7.538 Y1.112 E0.02657
G1 X7.263 Y1.709 E0.03279
G1 X7.183 Y2.404 E0.0349
G1 X6.965 Y2.915 E0.02772
G1 X6.758 Y3.435 E0.02792
G1 X6.567 Y4.05 E0.03213
G1 X6.38 Y4.38 E0.01892
G1 X6.16 Y4.635 E0.0168
G1 X5.552 Y5.217 E0.04199
G1 X5.252 Y5.449 E0.01892
G1 X4.91 Y5.613 E0.01892
G1 X4.542 Y5.702 E0.01889
G1 X4.163 Y5.711 E0.01891
G1 X3.88 Y5.658 E0.01436
G1 X3.603 Y5.753 E0.01461
G1 X2.865 Y5.842 E0.03709
G1 X2.64 Y5.813 E0.01132
G1 X2.125 Y5.994 E0.02723
G1 X1.746 Y6.017 E0.01894
G1 X1.372 Y5.961 E0.01887
G1 X0.892 Y5.765 E0.02587
G1 X0.68 Y5.737 E0.01067
G1 X0.323 Y5.611 E0.01889
G1 X-0.012 Y5.436 E0.01886
G1 X-.39 Y5.407 E0.01891
G1 X-1.008 Y5.222 E0.03218
G0 F2160 X-.991 Y4.806
G1 F900 X-1.526 Y4.904 E0.02714
G1 X-1.857 Y4.862 E0.01665
G1 X-2.293 Y4.682 E0.02353
G1 X-2.745 Y4.589 E0.02302
G1 X-3.037 Y4.427 E0.01666
G1 X-3.23 Y4.248 E0.01313
G1 X-3.834 Y4.004 E0.0325
G1 X-4.255 Y3.85 E0.02236
G1 X-4.648 Y3.545 E0.02482
G1 X-5.478 Y3.083 E0.04739
G1 X-5.889 Y2.768 E0.02583
G1 X-6.085 Y2.498 E0.01665
G1 X-6.205 Y2.206 E0.01575
G1 X-6.568 Y1.972 E0.02155
G1 X-6.96 Y1.491 E0.03096
G1 X-7.292 Y0.842 E0.03637
G1 X-7.498 Y0.117 E0.0376
G1 X-7.563 Y-.487 E0.03031
G1 X-7.521 Y-1.009 E0.02613
G1 X-7.411 Y-1.59 E0.0295
G1 X-7.187 Y-2.16 E0.03055
G1 X-6.925 Y-2.719 E0.0308
G1 X-6.544 Y-3.334 E0.03609
G1 X-6.452 Y-3.476 E0.00844
G1 X-6.034 Y-4.041 E0.03506
G1 X-5.722 Y-4.532 E0.02902
G1 X-5.063 Y-5.25 E0.04862
G1 X-4.863 Y-5.429 E0.01339
G1 X-4.061 Y-6.021 E0.04973
G1 X-3.71 Y-6.21 E0.01989
G1 X-3.073 Y-6.4 E0.03316
G1 X-2.739 Y-6.398 E0.01666
G1 X-2.221 Y-6.233 E0.02712
G1 X-1.747 Y-6.308 E0.02394
G1 X-1.414 Y-6.293 E0.01663
G1 X-1.124 Y-6.211 E0.01504
G1 X-.918 Y-6.291 E0.01103
G1 X-.586 Y-6.335 E0.01671
G1 X0.004 Y-6.242 E0.0298
G1 X0.532 Y-6.052 E0.028
G1 X0.895 Y-5.907 E0.0195
G1 X1.406 Y-5.729 E0.027
G1 X1.724 Y-5.627 E0.01666
G1 X2.009 Y-5.452 E0.01669
G1 X2.321 Y-5.108 E0.02317
G1 X2.508 Y-5.081 E0.00943
G1 X2.818 Y-4.957 E0.01666
G1 X3.09 Y-4.762 E0.0167
G1 X3.326 Y-4.469 E0.01877
G1 X3.873 Y-4.28 E0.02887
G1 X4.368 Y-3.95 E0.02968
G1 X4.626 Y-3.737 E0.01669
G1 X4.826 Y-3.47 E0.01664
G1 X4.925 Y-3.237 E0.01263
G1 X5.493 Y-2.845 E0.03443
G1 X5.717 Y-2.564 E0.01793
G1 X6.099 Y-2.423 E0.02031
G1 X6.679 Y-2.029 E0.03498
G1 X6.91 Y-1.787 E0.01669
G1 X7.076 Y-1.497 E0.01667
G1 X7.206 Y-1.022 E0.02457
G1 X7.337 Y-.714 E0.0167
G1 X7.391 Y-.286 E0.02152
G1 X7.358 Y0.295 E0.02903
G1 X7.313 Y0.485 E0.00974
G1 X7.156 Y0.994 E0.02657
G1 X6.885 Y1.571 E0.0318
G1 X6.785 Y2.344 E0.03889
G1 X6.55 Y2.94 E0.03196
G1 X6.339 Y3.354 E0.02318
G1 X6.183 Y3.927 E0.02963
G1 X5.883 Y4.346 E0.02571
G1 X5.275 Y4.928 E0.04199
G1 X5.008 Y5.129 E0.01667
G1 X4.701 Y5.26 E0.01665
G1 X4.371 Y5.316 E0.0167
G1 X4.038 Y5.291 E0.01666
G1 X3.899 Y5.239 E0.0074
G1 X3.534 Y5.359 E0.01917
G1 X2.841 Y5.44 E0.03481
G1 X2.571 Y5.397 E0.01364
G1 X2.322 Y5.528 E0.01404
G1 X1.998 Y5.608 E0.01665
G1 X1.664 Y5.61 E0.01666
G1 X1.027 Y5.385 E0.0337
G1 X0.697 Y5.328 E0.01671
G1 X0.391 Y5.194 E0.01667
G1 X0.175 Y5.03 E0.01353
G1 X-.501 Y4.967 E0.03387
G1 X-.991 Y4.806 E0.02573
G0 F2160 X-1.31 Y4.482
G1 F900 X-1.591 Y4.501 E0.01405
G1 X-2.001 Y4.378 E0.02136
G1 X-2.213 Y4.285 E0.01155
G1 X-2.406 Y4.275 E0.00964
G1 X-2.673 Y4.183 E0.01409
G1 X-2.992 Y3.912 E0.02088
G1 X-3.719 Y3.619 E0.03911
G1 X-3.875 Y3.588 E0.00794
G1 X-4.188 Y3.41 E0.01796
G1 X-4.419 Y3.216 E0.01505
G1 X-5.284 Y2.734 E0.0494
G1 X-5.625 Y2.464 E0.0217
G1 X-5.775 Y2.225 E0.01408
G1 X-5.853 Y1.907 E0.01634
G1 X-5.988 Y1.874 E0.00693
G1 X-6.232 Y1.733 E0.01406
G1 X-6.642 Y1.249 E0.03165
G1 X-6.927 Y0.678 E0.03184
G1 X-7.1 Y0.074 E0.03135
G1 X-7.165 Y-.53 E0.03031
G1 X-7.084 Y-1.254 E0.03635
G1 X-6.904 Y-1.818 E0.02954
G1 X-6.687 Y-2.317 E0.02715
G1 X-6.368 Y-2.833 E0.03027
G1 X-6.13 Y-3.239 E0.02348
G1 X-5.695 Y-3.827 E0.03649
G1 X-5.428 Y-4.261 E0.02542
G1 X-4.769 Y-4.979 E0.04862
G1 X-4.626 Y-5.108 E0.00961
G1 X-3.824 Y-5.7 E0.04973
G1 X-3.261 Y-5.948 E0.03069
G1 X-2.985 Y-6.007 E0.01408
G1 X-2.704 Y-5.986 E0.01406
G1 X-2.38 Y-5.866 E0.01724
G1 X-2.262 Y-5.793 E0.00692
G1 X-1.911 Y-5.895 E0.01824
G1 X-1.437 Y-5.89 E0.02365
G1 X-1.1 Y-5.772 E0.01781
G1 X-.752 Y-5.918 E0.01883
G1 X-.354 Y-5.911 E0.01986
G1 X0.181 Y-5.752 E0.02785
G1 X0.609 Y-5.584 E0.02294
G1 X1.295 Y-5.344 E0.03626
G1 X1.596 Y-5.244 E0.01582
G1 X1.826 Y-5.081 E0.01406
G1 X2.099 Y-4.731 E0.02215
G1 X2.446 Y-4.683 E0.01748
G1 X2.701 Y-4.56 E0.01412
G1 X3.01 Y-4.231 E0.02252
G1 X3.073 Y-4.123 E0.00624
G1 X3.458 Y-4.019 E0.0199
G1 X3.817 Y-3.839 E0.02004
G1 X4.394 Y-3.395 E0.03632
G1 X4.538 Y-3.152 E0.01409
G1 X4.589 Y-2.951 E0.01035
G1 X5.023 Y-2.709 E0.02479
G1 X5.32 Y-2.432 E0.02026
G1 X5.48 Y-2.197 E0.01418
G1 X5.704 Y-2.161 E0.01132
G1 X6.181 Y-1.859 E0.02817
G1 X6.49 Y-1.661 E0.01831
G1 X6.661 Y-1.437 E0.01406
G1 X6.762 Y-1.174 E0.01406
G1 X6.789 Y-.946 E0.01145
G1 X6.964 Y-.561 E0.0211
G1 X6.982 Y0.063 E0.03114
G1 X6.931 Y0.367 E0.01538
G1 X6.774 Y0.876 E0.02657
G1 X6.508 Y1.428 E0.03057
G1 X6.451 Y1.663 E0.01206
G1 X6.388 Y2.276 E0.03074
G1 X6.209 Y2.625 E0.01957
G1 X6.075 Y3.018 E0.02072
G1 X5.962 Y3.204 E0.01086
G1 X5.802 Y3.798 E0.03069
G1 X5.606 Y4.057 E0.0162
G1 X4.998 Y4.639 E0.04199
G1 X4.769 Y4.804 E0.01408
G1 X4.503 Y4.898 E0.01408
G1 X4.221 Y4.913 E0.01409
G1 X3.846 Y4.802 E0.01951
G1 X3.698 Y4.894 E0.00869
G1 X3.105 Y5.028 E0.03033
G1 X2.719 Y5.02 E0.01926
G1 X2.474 Y4.966 E0.01252
G1 X2.371 Y5.057 E0.00686
G1 X2.116 Y5.176 E0.01404
G1 X1.837 Y5.219 E0.01408
G1 X1.557 Y5.182 E0.01409
G1 X1.106 Y4.978 E0.0247
G1 X0.729 Y4.916 E0.01906
G1 X0.485 Y4.775 E0.01406
G1 X0.341 Y4.626 E0.01034
G1 X-0.035 Y4.637 E0.01877
G1 X-.376 Y4.587 E0.01719
G1 X-.866 Y4.426 E0.02573
G1 X-1.006 Y4.357 E0.00779
G1 X-1.31 Y4.482 E0.0164
G0 F2160 X-1.469 Y4.102
G1 F900 X-1.807 Y4.029 E0.01725
G1 X-2.16 Y3.892 E0.01889
G1 X-2.378 Y3.871 E0.01093
G1 X-2.573 Y3.775 E0.01084
G1 X-2.743 Y3.581 E0.01287
G1 X-3.589 Y3.24 E0.04551
G1 X-3.789 Y3.192 E0.01026
G1 X-4.193 Y2.883 E0.02538
G1 X-5.089 Y2.384 E0.05117
G1 X-5.35 Y2.166 E0.01697
G1 X-5.443 Y1.968 E0.01091
G1 X-5.458 Y1.751 E0.01085
G1 X-5.37 Y1.494 E0.01355
G1 X-5.582 Y1.545 E0.01088
G1 X-5.799 Y1.517 E0.01092
G1 X-5.991 Y1.414 E0.01087
G1 X-6.324 Y1.006 E0.02627
G1 X-6.562 Y0.514 E0.02727
G1 X-6.703 Y0.031 E0.0251
G1 X-6.768 Y-.573 E0.03031
G1 X-6.687 Y-1.199 E0.03149
G1 X-6.528 Y-1.683 E0.02542
G1 X-6.316 Y-2.167 E0.02636
G1 X-6.025 Y-2.627 E0.02716
G1 X-5.808 Y-3.001 E0.02157
G1 X-5.358 Y-3.61 E0.03778
G1 X-5.133 Y-3.991 E0.02208
G1 X-4.474 Y-4.709 E0.04862
G1 X-4.388 Y-4.786 E0.00576
G1 X-3.586 Y-5.378 E0.04973
G1 X-3.124 Y-5.573 E0.02502
G1 X-2.909 Y-5.609 E0.01088
G1 X-2.539 Y-5.499 E0.01926
G1 X-2.307 Y-5.305 E0.01509
G1 X-2.177 Y-5.394 E0.00786
G1 X-1.882 Y-5.496 E0.01557
G1 X-1.425 Y-5.47 E0.02284
G1 X-1.032 Y-5.301 E0.02134
G1 X-.957 Y-5.393 E0.00592
G1 X-.768 Y-5.501 E0.01086
G1 X-.44 Y-5.521 E0.01639
G1 X-.169 Y-5.461 E0.01385
G1 X0.09 Y-5.333 E0.01441
G1 X0.539 Y-5.184 E0.0236
G1 X1.191 Y-4.956 E0.03446
G1 X1.456 Y-4.864 E0.01399
G1 X1.628 Y-4.702 E0.01179
G1 X1.851 Y-4.388 E0.01921
G1 X1.952 Y-4.334 E0.00571
G1 X2.372 Y-4.284 E0.0211
G1 X2.556 Y-4.166 E0.01091
G1 X2.809 Y-3.781 E0.02298
G1 X3.354 Y-3.633 E0.02817
G1 X3.569 Y-3.525 E0.012
G1 X3.998 Y-3.231 E0.02595
G1 X4.137 Y-3.063 E0.01088
G1 X4.207 Y-2.857 E0.01085
G1 X4.199 Y-2.664 E0.00964
G1 X4.501 Y-2.559 E0.01595
G1 X4.815 Y-2.368 E0.01834
G1 X4.993 Y-2.201 E0.01218
G1 X5.237 Y-1.78 E0.02428
G1 X5.447 Y-1.805 E0.01055
G1 X5.658 Y-1.751 E0.01087
G1 X6.116 Y-1.452 E0.02729
G1 X6.274 Y-1.301 E0.0109
G1 X6.368 Y-1.104 E0.01089
G1 X6.391 Y-.835 E0.01347
G1 X6.585 Y-.418 E0.02295
G1 X6.572 Y0.147 E0.0282
G1 X6.548 Y0.249 E0.00523
G1 X6.391 Y0.758 E0.02657
G1 X6.129 Y1.29 E0.02959
G1 X6.054 Y1.603 E0.01606
G1 X6.039 Y1.982 E0.01892
G1 X5.958 Y2.26 E0.01445
G1 X5.82 Y2.547 E0.01589
G1 X5.734 Y2.81 E0.0138
G1 X5.582 Y3.059 E0.01455
G1 X5.503 Y3.453 E0.02005
G1 X5.422 Y3.655 E0.01086
G1 X5.33 Y3.768 E0.00727
G1 X4.722 Y4.35 E0.04199
G1 X4.539 Y4.47 E0.01092
G1 X4.326 Y4.517 E0.01088
G1 X4.009 Y4.438 E0.0163
G1 X3.834 Y4.309 E0.01085
G1 X3.679 Y4.439 E0.01009
G1 X3.396 Y4.571 E0.01558
G1 X3.036 Y4.634 E0.01823
G1 X2.804 Y4.629 E0.01158
G1 X2.336 Y4.516 E0.02402
G1 X2.261 Y4.631 E0.00685
G1 X2.085 Y4.76 E0.01089
G1 X1.874 Y4.817 E0.0109
G1 X1.556 Y4.755 E0.01616
G1 X1.201 Y4.577 E0.01981
G1 X0.993 Y4.577 E0.01038
G1 X0.789 Y4.5 E0.01088
G1 X0.626 Y4.355 E0.01088
G1 X0.533 Y4.175 E0.01011
G1 X0.332 Y4.226 E0.01035
G1 X-.251 Y4.207 E0.0291
G1 X-.741 Y4.046 E0.02573
G1 X-1.048 Y3.866 E0.01775
G1 X-1.258 Y4.046 E0.0138
G1 X-1.469 Y4.102 E0.01089
G0 F2160 X-1.516 Y3.704
G1 F900 X-2.084 Y3.483 E0.03041
G1 X-2.318 Y3.465 E0.01171
G1 X-2.477 Y3.258 E0.01302
G1 X-3.494 Y2.847 E0.05473
G1 X-3.674 Y2.797 E0.00932
G1 X-3.965 Y2.552 E0.01898
G1 X-4.907 Y2.027 E0.0538
G1 X-5.05 Y1.886 E0.01002
G1 X-5.054 Y1.761 E0.00624
G1 X-4.983 Y1.658 E0.00624
G1 X-4.825 Y1.62 E0.00811
G1 X-4.211 Y1.735 E0.03117
G1 X-4.003 Y1.712 E0.01044
G1 X-3.685 Y1.847 E0.01724
G1 X-3.547 Y1.831 E0.00693
G1 X-3.345 Y1.216 E0.0323
G1 X-3.231 Y1.044 E0.01029
G1 X-3.201 Y0.689 E0.01777
G1 X-3.519 Y-0.09 E0.04198
G1 X-3.537 Y-.394 E0.01519
G1 X-3.925 Y-.32 E0.01971
G1 X-4.149 Y-.384 E0.01162
G1 X-4.579 Y-.322 E0.02167
G1 X-5.073 Y-.102 E0.02698
G1 X-5.275 Y0.018 E0.01172
G1 X-5.374 Y0.177 E0.00934
G1 X-5.486 Y0.694 E0.02639
G1 X-5.425 Y1.01 E0.01606
G1 X-5.5 Y1.11 E0.00624
G1 X-5.62 Y1.146 E0.00625
G1 X-5.774 Y1.067 E0.00864
G1 X-6.029 Y0.724 E0.02132
G1 X-6.297 Y0.025 E0.03735
G1 X-6.305 Y-0.012 E0.00189
G1 X-6.37 Y-.616 E0.03031
G1 X-6.291 Y-1.145 E0.02668
G1 X-6.081 Y-1.681 E0.02872
G1 X-5.926 Y-2.054 E0.02015
G1 X-5.5 Y-2.743 E0.04041
G1 X-5.016 Y-3.4 E0.04071
G1 X-4.838 Y-3.72 E0.01827
G1 X-4.179 Y-4.438 E0.04862
G1 X-4.151 Y-4.464 E0.00191
G1 X-3.349 Y-5.056 E0.04973
G1 X-2.987 Y-5.197 E0.01938
G1 X-2.839 Y-5.193 E0.00739
G1 X-2.604 Y-5.049 E0.01375
G1 X-2.596 Y-4.863 E0.00929
G1 X-2.748 Y-4.541 E0.01776
G1 X-2.603 Y-3.965 E0.02963
G1 X-2.123 Y-3.356 E0.03869
G1 X-1.824 Y-3.065 E0.02082
G1 X-1.535 Y-2.955 E0.01543
G1 X-1.522 Y-3.283 E0.01638
