;FLAVOR:Makerbot
;TIME:21706
;MINX:-68.266
;MINY:-68.266
;MINZ:0.3
;MAXX:112.5
;MAXY:73
;MAXZ:11.3
;Generated with Cura_SteamEngine 4.8.0
T0
M82 ;absolute extrusion mode
; **** FlashForge Creator Pro PRINTER start.gcode for dual extrusion only ****
M83 ; relative extrusion mode
M73 P0 ; enable build progress
G162 X Y F3000 ; home XY maximum
G161 Z F1200 ; home Z minimum
G92 Z-5 ; set Z to -5
G1 Z0 ; move Z to 0
G161 Z F100 ; home Z slowly
M132 X Y Z A B ; recall home offsets
M135 T0 ; load right extruder offsets
G1 X150 Y-70 Z30 F9000 ; move to wait position right hand side of the table
G130 X20 Y20 Z20 A20 B20 ; lower stepper Vrefs while heating
M127
M140 S60 T0 ; set bed temperature
M134 T0 ; stabilize bed temperature
M104 S230 T0 ; set right extruder temp
M104 S230 T1 ; set left extruder temp
M133 T0 ; stabilize right extruder temperature
M133 T1 ; stabilize left extruder temperature
G130 X127 Y127 Z40 A127 B127 ; default stepper Vrefs
G92 A0 B0 ; zero extruders
M135 T0 ; right tool
G1 Z0.4 ; position nozzle
G1 X110 Y-70 E25 F300 ; purge nozzle
G1 X120 Y-70 Z0.15 F1200 ; slow wipe
G1 X110 Y-70 Z0.5 F1200 ; lift
G1 Z4 F1200 ; raise
G1 X-110 F4000 ; move nozzle to left side of bed
G1 Z0.4 F1200 ; lower
M135 T1 ; left tool
G1 X-140 Y-70 F9000 ; reposition nozzle
G1 X-100 Y-70 E25 F300 ; purge nozzle
G1 X-110 Y-70 Z0.15 F1200 ; slow wipe
G1 X-100 Y-70 Z0.5 F1200 ; lift
G92 A0 B0 ; zero extruders
M135 T0 ; left or right tool
M73 P1 ;@body (notify GPX body has started)
; **** end of start.gcode ****
M83 ;relative extrusion mode
G1 F1800 E-1.3
;LAYER_COUNT:56
;LAYER:0
M127 T0
M104 T1 S175
G0 F2700 X0.00 Y-24.554 Z0.3
;TYPE:SKIRT
G1 F1800 E1.3
G1 F900 X54.666 Y-67.071 E3.45508
G1 X54.895 Y-67.222 E0.01369
G1 X55.358 Y-67.48 E0.02644
G1 X55.756 Y-67.643 E0.02146
G1 X56.275 Y-67.786 E0.02686
G1 X56.7 Y-67.85 E0.02144
G1 X57.242 Y-67.866 E0.02705
G1 X57.676 Y-67.826 E0.02174
G1 X58.207 Y-67.711 E0.02711
G1 X58.614 Y-67.571 E0.02147
G1 X59.097 Y-67.336 E0.0268
G1 X59.812 Y-66.817 E0.04408
G1 X59.953 Y-66.69 E0.00947
G1 X66.743 Y-59.898 E0.47914
G1 X66.92 Y-59.691 E0.01359
G1 X67.237 Y-59.26 E0.02669
G1 X67.451 Y-58.88 E0.02176
G1 X67.655 Y-58.385 E0.02671
G1 X67.77 Y-57.973 E0.02134
G1 X67.853 Y-57.434 E0.02721
G1 X67.867 Y-57.007 E0.02131
G1 X67.821 Y-56.469 E0.02694
G1 X67.731 Y-56.04 E0.02187
G1 X67.557 Y-55.531 E0.02684
G1 X67.381 Y-55.16 E0.02049
G1 X67.023 Y-54.604 E0.03299
G1 X24.554 Y0.00 E3.45117
G1 X67.071 Y54.666 E3.45508
G1 X67.222 Y54.895 E0.01369
G1 X67.48 Y55.358 E0.02644
G1 X67.643 Y55.756 E0.02146
G1 X67.786 Y56.275 E0.02686
G1 X67.85 Y56.7 E0.02144
G1 X67.866 Y57.241 E0.027
G1 X67.826 Y57.674 E0.02169
G1 X67.711 Y58.206 E0.02715
G1 X67.571 Y58.614 E0.02152
G1 X67.336 Y59.097 E0.0268
G1 X66.817 Y59.812 E0.04408
G1 X66.69 Y59.953 E0.00947
G1 X59.898 Y66.743 E0.47914
G1 X59.691 Y66.92 E0.01359
G1 X59.261 Y67.236 E0.02662
G1 X58.883 Y67.45 E0.02167
G1 X58.387 Y67.655 E0.02678
G1 X57.974 Y67.77 E0.02139
G1 X57.437 Y67.853 E0.02711
G1 X57.009 Y67.868 E0.02137
G1 X56.469 Y67.822 E0.02704
G1 X56.038 Y67.731 E0.02198
G1 X55.528 Y67.556 E0.0269
G1 X54.755 Y67.128 E0.04408
G1 X54.603 Y67.022 E0.00925
G1 X0.00 Y24.554 E3.4511
G1 X-54.667 Y67.071 E3.45512
G1 X-54.894 Y67.222 E0.0136
G1 X-55.356 Y67.48 E0.0264
G1 X-55.756 Y67.643 E0.02155
G1 X-56.275 Y67.786 E0.02686
G1 X-56.7 Y67.85 E0.02144
G1 X-57.242 Y67.866 E0.02705
G1 X-57.676 Y67.826 E0.02174
G1 X-58.207 Y67.711 E0.02711
G1 X-58.614 Y67.571 E0.02147
G1 X-59.097 Y67.336 E0.0268
G1 X-59.812 Y66.817 E0.04408
G1 X-59.953 Y66.69 E0.00947
G1 X-66.743 Y59.898 E0.47914
G1 X-66.92 Y59.691 E0.01359
G1 X-67.237 Y59.26 E0.02669
G1 X-67.451 Y58.88 E0.02176
G1 X-67.655 Y58.385 E0.02671
G1 X-67.77 Y57.973 E0.02134
G1 X-67.853 Y57.434 E0.02721
G1 X-67.867 Y57.007 E0.02131
G1 X-67.821 Y56.468 E0.02699
G1 X-67.731 Y56.038 E0.02192
G1 X-67.557 Y55.53 E0.02679
G1 X-67.381 Y55.16 E0.02044
G1 X-67.023 Y54.604 E0.03299
G1 X-24.554 Y0.00 E3.45117
G1 X-67.071 Y-54.666 E3.45508
G1 X-67.222 Y-54.895 E0.01369
G1 X-67.48 Y-55.358 E0.02644
G1 X-67.643 Y-55.756 E0.02146
G1 X-67.786 Y-56.275 E0.02686
G1 X-67.85 Y-56.7 E0.02144
G1 X-67.866 Y-57.241 E0.027
G1 X-67.827 Y-57.673 E0.02164
G1 X-67.712 Y-58.207 E0.02725
G1 X-67.569 Y-58.618 E0.02171
G1 X-67.334 Y-59.099 E0.02671
G1 X-67.117 Y-59.441 E0.02021
G1 X-66.69 Y-59.953 E0.03326
G1 X-59.898 Y-66.743 E0.47914
G1 X-59.691 Y-66.92 E0.01359
G1 X-59.261 Y-67.236 E0.02662
G1 X-58.883 Y-67.45 E0.02167
G1 X-58.387 Y-67.655 E0.02678
G1 X-57.974 Y-67.77 E0.02139
G1 X-57.437 Y-67.853 E0.02711
G1 X-57.009 Y-67.868 E0.02137
G1 X-56.469 Y-67.822 E0.02704
G1 X-56.038 Y-67.731 E0.02198
G1 X-55.528 Y-67.556 E0.0269
G1 X-54.755 Y-67.128 E0.04408
G1 X-54.603 Y-67.022 E0.00925
G1 X0.00 Y-24.554 E3.4511
G0 F2700 X0.00 Y-24.047
G1 F900 X54.912 Y-66.755 E3.47062
G1 X55.09 Y-66.873 E0.01065
G1 X55.553 Y-67.131 E0.02644
G1 X55.862 Y-67.258 E0.01667
G1 X56.381 Y-67.401 E0.02686
G1 X56.712 Y-67.45 E0.01669
G1 X57.254 Y-67.466 E0.02705
G1 X57.591 Y-67.435 E0.01688
G1 X58.122 Y-67.32 E0.02711
G1 X58.439 Y-67.211 E0.01672
G1 X58.922 Y-66.976 E0.0268
G1 X59.56 Y-66.506 E0.03953
G1 X59.67 Y-66.407 E0.00738
G1 X66.46 Y-59.615 E0.47914
G1 X66.598 Y-59.454 E0.01058
G1 X66.915 Y-59.023 E0.02669
G1 X67.081 Y-58.727 E0.01693
G1 X67.285 Y-58.232 E0.02671
G1 X67.375 Y-57.912 E0.01658
G1 X67.458 Y-57.373 E0.02721
G1 X67.469 Y-57.041 E0.01657
G1 X67.423 Y-56.503 E0.02694
G1 X67.353 Y-56.169 E0.01703
G1 X67.179 Y-55.66 E0.02684
G1 X66.79 Y-54.968 E0.0396
G1 X66.707 Y-54.849 E0.00724
G1 X24.047 Y0.001 E3.4667
G1 X66.755 Y54.912 E3.47058
G1 X66.873 Y55.09 E0.01065
G1 X67.131 Y55.553 E0.02644
G1 X67.258 Y55.862 E0.01667
G1 X67.401 Y56.381 E0.02686
G1 X67.45 Y56.712 E0.01669
G1 X67.466 Y57.253 E0.027
G1 X67.435 Y57.59 E0.01688
G1 X67.32 Y58.122 E0.02715
G1 X67.211 Y58.439 E0.01672
G1 X66.976 Y58.922 E0.0268
G1 X66.506 Y59.56 E0.03953
G1 X66.407 Y59.67 E0.00738
G1 X59.615 Y66.46 E0.47914
G1 X59.454 Y66.598 E0.01058
G1 X59.024 Y66.914 E0.02662
G1 X58.73 Y67.08 E0.01684
G1 X58.234 Y67.285 E0.02678
G1 X57.913 Y67.375 E0.01663
G1 X57.376 Y67.458 E0.02711
G1 X57.043 Y67.469 E0.01662
G1 X56.503 Y67.423 E0.02704
G1 X56.168 Y67.352 E0.01708
G1 X55.658 Y67.177 E0.0269
G1 X54.967 Y66.789 E0.03954
G1 X54.849 Y66.706 E0.0072
G1 X0.00 Y24.047 E3.46663
G1 X-54.913 Y66.755 E3.47066
G1 X-55.089 Y66.872 E0.01054
G1 X-55.551 Y67.13 E0.0264
G1 X-55.862 Y67.258 E0.01678
G1 X-56.381 Y67.401 E0.02686
G1 X-56.712 Y67.45 E0.01669
G1 X-57.254 Y67.466 E0.02705
G1 X-57.591 Y67.435 E0.01688
G1 X-58.122 Y67.32 E0.02711
G1 X-58.439 Y67.211 E0.01672
G1 X-58.922 Y66.976 E0.0268
G1 X-59.56 Y66.506 E0.03953
G1 X-59.67 Y66.407 E0.00738
G1 X-66.46 Y59.615 E0.47914
G1 X-66.598 Y59.454 E0.01058
G1 X-66.915 Y59.023 E0.02669
G1 X-67.081 Y58.727 E0.01693
G1 X-67.285 Y58.232 E0.02671
G1 X-67.375 Y57.912 E0.01658
G1 X-67.458 Y57.373 E0.02721
G1 X-67.469 Y57.041 E0.01657
G1 X-67.423 Y56.502 E0.02699
G1 X-67.352 Y56.167 E0.01708
G1 X-67.178 Y55.659 E0.02679
G1 X-66.79 Y54.968 E0.03954
G1 X-66.707 Y54.849 E0.00724
G1 X-24.047 Y-0.001 E3.4667
G1 X-66.755 Y-54.912 E3.47058
G1 X-66.873 Y-55.09 E0.01065
G1 X-67.131 Y-55.553 E0.02644
G1 X-67.258 Y-55.862 E0.01667
G1 X-67.401 Y-56.381 E0.02686
G1 X-67.45 Y-56.712 E0.01669
G1 X-67.466 Y-57.253 E0.027
G1 X-67.436 Y-57.589 E0.01683
G1 X-67.321 Y-58.123 E0.02725
G1 X-67.21 Y-58.443 E0.0169
G1 X-66.975 Y-58.924 E0.02671
G1 X-66.506 Y-59.56 E0.03942
G1 X-66.407 Y-59.67 E0.00738
G1 X-59.615 Y-66.46 E0.47914
G1 X-59.454 Y-66.598 E0.01058
G1 X-59.024 Y-66.914 E0.02662
G1 X-58.73 Y-67.08 E0.01684
G1 X-58.234 Y-67.285 E0.02678
G1 X-57.913 Y-67.375 E0.01663
G1 X-57.376 Y-67.458 E0.02711
G1 X-57.043 Y-67.469 E0.01662
G1 X-56.503 Y-67.423 E0.02704
G1 X-56.168 Y-67.352 E0.01708
G1 X-55.658 Y-67.177 E0.0269
G1 X-54.967 Y-66.789 E0.03954
G1 X-54.849 Y-66.706 E0.0072
G1 X0.00 Y-24.047 E3.46663
G0 F2700 X0.00 Y-23.541
G1 F900 X55.157 Y-66.439 E3.48608
G1 X55.284 Y-66.524 E0.00762
G1 X55.747 Y-66.782 E0.02644
G1 X55.968 Y-66.872 E0.0119
G1 X56.487 Y-67.015 E0.02686
G1 X56.723 Y-67.051 E0.01191
G1 X57.265 Y-67.067 E0.02705
G1 X57.507 Y-67.044 E0.01213
G1 X58.038 Y-66.929 E0.02711
G1 X58.264 Y-66.851 E0.01193
G1 X58.747 Y-66.616 E0.0268
G1 X59.309 Y-66.195 E0.03503
G1 X59.387 Y-66.124 E0.00526
G1 X66.177 Y-59.332 E0.47914
G1 X66.276 Y-59.217 E0.00757
G1 X66.593 Y-58.786 E0.02669
G1 X66.712 Y-58.575 E0.01209
G1 X66.916 Y-58.08 E0.02671
G1 X66.979 Y-57.851 E0.01185
G1 X67.062 Y-57.312 E0.02721
G1 X67.07 Y-57.075 E0.01183
G1 X67.024 Y-56.537 E0.02694
G1 X66.974 Y-56.299 E0.01213
G1 X66.8 Y-55.79 E0.02684
G1 X66.45 Y-55.18 E0.03509
G1 X66.391 Y-55.095 E0.00516
G1 X23.541 Y0.00 E3.48217
G1 X66.439 Y55.157 E3.48608
G1 X66.524 Y55.284 E0.00762
G1 X66.782 Y55.747 E0.02644
G1 X66.872 Y55.968 E0.0119
G1 X67.015 Y56.487 E0.02686
G1 X67.051 Y56.723 E0.01191
G1 X67.067 Y57.264 E0.027
G1 X67.044 Y57.505 E0.01208
G1 X66.929 Y58.037 E0.02715
G1 X66.851 Y58.264 E0.01197
G1 X66.616 Y58.747 E0.0268
G1 X66.195 Y59.309 E0.03503
G1 X66.124 Y59.387 E0.00526
G1 X59.332 Y66.177 E0.47914
G1 X59.217 Y66.276 E0.00757
G1 X58.787 Y66.592 E0.02662
G1 X58.577 Y66.71 E0.01202
G1 X58.081 Y66.915 E0.02678
G1 X57.852 Y66.979 E0.01186
G1 X57.315 Y67.062 E0.02711
G1 X57.077 Y67.07 E0.01188
G1 X56.537 Y67.024 E0.02704
G1 X56.297 Y66.974 E0.01223
G1 X55.787 Y66.799 E0.0269
G1 X55.179 Y66.449 E0.035
G1 X55.094 Y66.39 E0.00516
G1 X0.00 Y23.541 E3.4821
G1 X-55.158 Y66.439 E3.48612
G1 X-55.284 Y66.523 E0.00756
G1 X-55.746 Y66.781 E0.0264
G1 X-55.968 Y66.872 E0.01197
G1 X-56.487 Y67.015 E0.02686
G1 X-56.723 Y67.051 E0.01191
G1 X-57.265 Y67.067 E0.02705
G1 X-57.507 Y67.044 E0.01213
G1 X-58.038 Y66.929 E0.02711
G1 X-58.264 Y66.851 E0.01193
G1 X-58.747 Y66.616 E0.0268
G1 X-59.309 Y66.195 E0.03503
G1 X-59.387 Y66.124 E0.00526
G1 X-66.177 Y59.332 E0.47914
G1 X-66.276 Y59.217 E0.00757
G1 X-66.593 Y58.786 E0.02669
G1 X-66.712 Y58.575 E0.01209
G1 X-66.916 Y58.08 E0.02671
G1 X-66.979 Y57.851 E0.01185
G1 X-67.062 Y57.312 E0.02721
G1 X-67.07 Y57.075 E0.01183
G1 X-67.024 Y56.536 E0.02699
G1 X-66.974 Y56.297 E0.01218
G1 X-66.8 Y55.789 E0.02679
G1 X-66.45 Y55.18 E0.03504
G1 X-66.391 Y55.095 E0.00516
G1 X-23.541 Y0.00 E3.48217
G1 X-66.439 Y-55.157 E3.48608
G1 X-66.524 Y-55.284 E0.00762
G1 X-66.782 Y-55.747 E0.02644
G1 X-66.872 Y-55.968 E0.0119
G1 X-67.015 Y-56.487 E0.02686
G1 X-67.051 Y-56.723 E0.01191
G1 X-67.067 Y-57.264 E0.027
G1 X-67.045 Y-57.505 E0.01207
G1 X-66.93 Y-58.039 E0.02725
G1 X-66.85 Y-58.267 E0.01205
G1 X-66.615 Y-58.748 E0.02671
G1 X-66.195 Y-59.309 E0.03496
G1 X-66.124 Y-59.387 E0.00526
G1 X-59.332 Y-66.177 E0.47914
G1 X-59.217 Y-66.276 E0.00757
G1 X-58.787 Y-66.592 E0.02662
G1 X-58.577 Y-66.71 E0.01202
G1 X-58.081 Y-66.915 E0.02678
G1 X-57.852 Y-66.979 E0.01186
G1 X-57.315 Y-67.062 E0.02711
G1 X-57.077 Y-67.07 E0.01188
G1 X-56.537 Y-67.024 E0.02704
G1 X-56.297 Y-66.974 E0.01223
G1 X-55.787 Y-66.799 E0.0269
G1 X-55.179 Y-66.449 E0.035
G1 X-55.094 Y-66.39 E0.00516
G1 X0.00 Y-23.541 E3.4821
G0 F2700 X0.00 Y-23.034
G1 F900 X55.403 Y-66.124 E3.50165
G1 X55.479 Y-66.174 E0.00454
G1 X55.942 Y-66.432 E0.02644
G1 X56.075 Y-66.486 E0.00716
G1 X56.594 Y-66.629 E0.02686
G1 X56.735 Y-66.651 E0.00712
G1 X57.277 Y-66.667 E0.02705
G1 X57.422 Y-66.653 E0.00727
G1 X57.953 Y-66.538 E0.02711
G1 X58.089 Y-66.492 E0.00716
G1 X58.572 Y-66.257 E0.0268
G1 X59.057 Y-65.884 E0.03053
G1 X59.104 Y-65.841 E0.00318
G1 X65.894 Y-59.049 E0.47914
G1 X65.953 Y-58.98 E0.00453
G1 X66.27 Y-58.549 E0.02669
G1 X66.342 Y-58.423 E0.00724
G1 X66.546 Y-57.928 E0.02671
G1 X66.584 Y-57.79 E0.00714
G1 X66.667 Y-57.251 E0.02721
G1 X66.672 Y-57.109 E0.00709
G1 X66.626 Y-56.571 E0.02694
G1 X66.596 Y-56.428 E0.00729
G1 X66.422 Y-55.919 E0.02684
G1 X66.111 Y-55.391 E0.03057
G1 X66.076 Y-55.341 E0.00304
G1 X23.034 Y0.00 E3.49774
G1 X66.124 Y55.403 E3.50165
G1 X66.174 Y55.479 E0.00454
G1 X66.432 Y55.942 E0.02644
G1 X66.486 Y56.075 E0.00716
G1 X66.629 Y56.594 E0.02686
G1 X66.651 Y56.735 E0.00712
G1 X66.667 Y57.276 E0.027
G1 X66.653 Y57.421 E0.00727
G1 X66.538 Y57.953 E0.02715
G1 X66.492 Y58.089 E0.00716
G1 X66.257 Y58.572 E0.0268
G1 X65.884 Y59.057 E0.03053
G1 X65.841 Y59.104 E0.00318
G1 X59.049 Y65.894 E0.47914
G1 X58.98 Y65.953 E0.00453
G1 X58.55 Y66.269 E0.02662
G1 X58.424 Y66.341 E0.00724
G1 X57.928 Y66.546 E0.02678
G1 X57.791 Y66.584 E0.00709
G1 X57.254 Y66.667 E0.02711
G1 X57.111 Y66.672 E0.00714
G1 X56.571 Y66.626 E0.02704
G1 X56.427 Y66.596 E0.00734
G1 X55.917 Y66.421 E0.0269
G1 X55.39 Y66.11 E0.03053
G1 X55.34 Y66.075 E0.00304
G1 X0.00 Y23.034 E3.49767
G1 X-55.404 Y66.124 E3.50169
G1 X-55.479 Y66.174 E0.0045
G1 X-55.941 Y66.432 E0.0264
G1 X-56.075 Y66.486 E0.00721
G1 X-56.594 Y66.629 E0.02686
G1 X-56.735 Y66.651 E0.00712
G1 X-57.277 Y66.667 E0.02705
G1 X-57.422 Y66.653 E0.00727
G1 X-57.953 Y66.538 E0.02711
G1 X-58.089 Y66.492 E0.00716
G1 X-58.572 Y66.257 E0.0268
G1 X-59.057 Y65.884 E0.03053
G1 X-59.104 Y65.841 E0.00318
G1 X-65.894 Y59.049 E0.47914
G1 X-65.953 Y58.98 E0.00453
G1 X-66.27 Y58.549 E0.02669
G1 X-66.342 Y58.423 E0.00724
G1 X-66.546 Y57.928 E0.02671
G1 X-66.584 Y57.79 E0.00714
G1 X-66.667 Y57.251 E0.02721
G1 X-66.672 Y57.109 E0.00709
G1 X-66.626 Y56.57 E0.02699
G1 X-66.596 Y56.427 E0.00729
G1 X-66.422 Y55.919 E0.02679
G1 X-66.111 Y55.391 E0.03057
G1 X-66.076 Y55.341 E0.00304
G1 X-23.034 Y0.00 E3.49774
G1 X-66.124 Y-55.403 E3.50165
G1 X-66.174 Y-55.479 E0.00454
G1 X-66.432 Y-55.942 E0.02644
G1 X-66.486 Y-56.075 E0.00716
G1 X-66.629 Y-56.594 E0.02686
G1 X-66.651 Y-56.735 E0.00712
G1 X-66.667 Y-57.276 E0.027
G1 X-66.654 Y-57.42 E0.00721
G1 X-66.539 Y-57.954 E0.02725
G1 X-66.491 Y-58.091 E0.00724
G1 X-66.256 Y-58.572 E0.02671
G1 X-65.884 Y-59.057 E0.03049
G1 X-65.841 Y-59.104 E0.00318
G1 X-59.049 Y-65.894 E0.47914
G1 X-58.98 Y-65.953 E0.00453
G1 X-58.55 Y-66.269 E0.02662
G1 X-58.424 Y-66.341 E0.00724
G1 X-57.928 Y-66.546 E0.02678
G1 X-57.791 Y-66.584 E0.00709
G1 X-57.254 Y-66.667 E0.02711
G1 X-57.111 Y-66.672 E0.00714
G1 X-56.571 Y-66.626 E0.02704
G1 X-56.427 Y-66.596 E0.00734
G1 X-55.917 Y-66.421 E0.0269
G1 X-55.39 Y-66.11 E0.03053
G1 X-55.34 Y-66.075 E0.00304
G1 X0.00 Y-23.034 E3.49767
G0 F2700 X0.00 Y-22.528
M104 T1 S230
M104 S215
G1 F900 X55.648 Y-65.808 E3.51712
G1 X55.674 Y-65.825 E0.00155
G1 X56.137 Y-66.083 E0.02644
G1 X56.181 Y-66.101 E0.00237
G1 X56.7 Y-66.244 E0.02686
G1 X56.747 Y-66.251 E0.00237
G1 X57.289 Y-66.267 E0.02705
G1 X57.337 Y-66.262 E0.00241
G1 X57.868 Y-66.147 E0.02711
G1 X57.914 Y-66.132 E0.00241
G1 X58.397 Y-65.897 E0.0268
G1 X58.806 Y-65.573 E0.02603
G1 X65.611 Y-58.766 E0.4802
G1 X65.631 Y-58.743 E0.00152
G1 X65.948 Y-58.312 E0.02669
G1 X65.972 Y-58.27 E0.00241
G1 X66.176 Y-57.775 E0.02671
G1 X66.189 Y-57.729 E0.00238
G1 X66.272 Y-57.19 E0.02721
G1 X66.273 Y-57.143 E0.00235
G1 X66.227 Y-56.605 E0.02694
G1 X66.217 Y-56.557 E0.00245
G1 X66.043 Y-56.048 E0.02684
G1 X65.772 Y-55.603 E0.02599
G1 X22.528 Y0.00 E3.51425
G1 X65.808 Y55.648 E3.51712
G1 X65.825 Y55.674 E0.00155
G1 X66.083 Y56.137 E0.02644
G1 X66.101 Y56.181 E0.00237
G1 X66.244 Y56.7 E0.02686
G1 X66.251 Y56.747 E0.00237
G1 X66.267 Y57.288 E0.027
G1 X66.262 Y57.336 E0.00241
G1 X66.147 Y57.868 E0.02715
G1 X66.132 Y57.914 E0.00241
G1 X65.897 Y58.397 E0.0268
G1 X65.573 Y58.806 E0.02603
G1 X58.766 Y65.611 E0.4802
G1 X58.743 Y65.631 E0.00152
G1 X58.313 Y65.947 E0.02662
G1 X58.271 Y65.971 E0.00241
G1 X57.775 Y66.176 E0.02678
G1 X57.73 Y66.189 E0.00234
G1 X57.193 Y66.272 E0.02711
G1 X57.145 Y66.273 E0.0024
G1 X56.605 Y66.227 E0.02704
G1 X56.557 Y66.217 E0.00245
G1 X56.047 Y66.042 E0.0269
G1 X55.602 Y65.771 E0.02599
G1 X0.00 Y22.528 E3.51418
G1 X-55.649 Y65.808 E3.51716
G1 X-55.674 Y65.825 E0.00151
G1 X-56.136 Y66.083 E0.0264
G1 X-56.181 Y66.101 E0.00242
G1 X-56.7 Y66.244 E0.02686
G1 X-56.747 Y66.251 E0.00237
G1 X-57.289 Y66.267 E0.02705
G1 X-57.337 Y66.262 E0.00241
G1 X-57.868 Y66.147 E0.02711
G1 X-57.914 Y66.132 E0.00241
G1 X-58.397 Y65.897 E0.0268
G1 X-58.806 Y65.573 E0.02603
G1 X-65.611 Y58.766 E0.4802
G1 X-65.631 Y58.743 E0.00152
G1 X-65.948 Y58.312 E0.02669
G1 X-65.972 Y58.27 E0.00241
