;FLAVOR:Makerbot
;TIME:23399
;MINX:-26.053
;MINY:-33.35
;MINZ:0.3
;MAXX:112.5
;MAXY:73
;MAXZ:13.7
;Generated with Cura_SteamEngine 4.8.0
T0
M82 ;absolute extrusion mode
; **** FlashForge Creator Pro PRINTER start.gcode for dual extrusion only ****
M83 ; relative extrusion mode
M73 P0 ; enable build progress
G162 X Y F3000 ; home XY maximum
G161 Z F1200 ; home Z minimum
G92 Z-5 ; set Z to -5
G1 Z0 ; move Z to 0
G161 Z F100 ; home Z slowly
M132 X Y Z A B ; recall home offsets
M135 T0 ; load right extruder offsets
G1 X150 Y-70 Z30 F9000 ; move to wait position right hand side of the table
G130 X20 Y20 Z20 A20 B20 ; lower stepper Vrefs while heating
M127
M140 S60 T0 ; set bed temperature
M134 T0 ; stabilize bed temperature
M104 S228 T0 ; set right extruder temp
M104 S230 T1 ; set left extruder temp
M133 T0 ; stabilize right extruder temperature
M133 T1 ; stabilize left extruder temperature
G130 X127 Y127 Z40 A127 B127 ; default stepper Vrefs
G92 A0 B0 ; zero extruders
M135 T0 ; right tool
G1 Z0.4 ; position nozzle
G1 X110 Y-70 E25 F300 ; purge nozzle
G1 X120 Y-70 Z0.15 F1200 ; slow wipe
G1 X110 Y-70 Z0.5 F1200 ; lift
G1 Z4 F1200 ; raise
G1 X-110 F4000 ; move nozzle to left side of bed
G1 Z0.4 F1200 ; lower
M135 T1 ; left tool
G1 X-140 Y-70 F9000 ; reposition nozzle
G1 X-100 Y-70 E25 F300 ; purge nozzle
G1 X-110 Y-70 Z0.15 F1200 ; slow wipe
G1 X-100 Y-70 Z0.5 F1200 ; lift
G92 A0 B0 ; zero extruders
M135 T0 ; left or right tool
M73 P1 ;@body (notify GPX body has started)
; **** end of start.gcode ****
M83 ;relative extrusion mode
G1 F1800 E-1.3
;LAYER_COUNT:125
;LAYER:0
M127 T0
M104 T1 S175
;MESH:FCPRO_final_3.3mf(1)
G0 X24.8 Y5.75 Z0.3
;TYPE:WALL-INNER
G1 F1800 E1.3
G1 F900 X0.525 Y5.75 E1.21108
G1 X0.525 Y-5.75 E0.57374
G1 X24.8 Y-5.75 E1.21108
G1 X24.8 Y5.75 E0.57374
G0 F1800 X25.2 Y6.15
;TYPE:WALL-OUTER
G1 F900 X0.125 Y6.15 E1.251
G1 X0.125 Y-6.15 E0.61365
G1 X25.2 Y-6.15 E1.251
G1 X25.2 Y6.15 E0.61365
G0 F1800 X25 Y6.15
G0 X24.41 Y5.36
;TYPE:SKIN
G1 F900 X0.915 Y5.36 E1.17217
G1 X0.915 Y-5.36 E0.53482
G1 X24.41 Y-5.36 E1.17217
G1 X24.41 Y5.36 E0.53482
G0 F1800 X23.67 Y-5.179
G1 F900 X24.229 Y-4.62 E0.03944
G0 F1800 X24.229 Y-4.054
G1 F900 X23.104 Y-5.179 E0.07937
G0 F1800 X22.539 Y-5.179
G1 F900 X24.229 Y-3.488 E0.11927
G0 F1800 X24.229 Y-2.923
G1 F900 X21.973 Y-5.179 E0.15917
G0 F1800 X21.407 Y-5.179
G1 F900 X24.229 Y-2.357 E0.19911
G0 F1800 X24.229 Y-1.791
G1 F900 X20.841 Y-5.179 E0.23904
G0 F1800 X20.276 Y-5.179
G1 F900 X24.229 Y-1.226 E0.27891
G0 F1800 X24.229 Y-.66
G1 F900 X19.71 Y-5.179 E0.31884
G0 F1800 X19.144 Y-5.179
G1 F900 X24.229 Y-0.094 E0.35877
G0 F1800 X24.229 Y0.47
G1 F900 X18.579 Y-5.179 E0.3986
G0 F1800 X18.013 Y-5.179
G1 F900 X24.229 Y1.036 E0.43854
G0 F1800 X24.229 Y1.602
G1 F900 X17.447 Y-5.179 E0.47847
G0 F1800 X16.882 Y-5.179
G1 F900 X24.229 Y2.167 E0.51834
G0 F1800 X24.229 Y2.733
G1 F900 X16.316 Y-5.179 E0.55827
G0 F1800 X15.75 Y-5.179
G1 F900 X24.229 Y3.299 E0.5982
G0 F1800 X24.229 Y3.865
G1 F900 X15.185 Y-5.179 E0.6381
G0 F1800 X14.619 Y-5.179
G1 F900 X24.229 Y4.43 E0.678
G0 F1800 X24.229 Y4.996
G1 F900 X14.053 Y-5.179 E0.71794
G0 F1800 X13.488 Y-5.179
G1 F900 X23.847 Y5.179 E0.73085
G0 F1800 X23.281 Y5.179
G1 F900 X12.922 Y-5.179 E0.73085
G0 F1800 X12.356 Y-5.179
G1 F900 X22.715 Y5.179 E0.73085
G0 F1800 X22.15 Y5.179
G1 F900 X11.791 Y-5.179 E0.73085
G0 F1800 X11.225 Y-5.179
G1 F900 X21.584 Y5.179 E0.73085
G0 F1800 X21.018 Y5.179
G1 F900 X10.659 Y-5.179 E0.73085
G0 F1800 X10.093 Y-5.179
G1 F900 X20.453 Y5.179 E0.73088
G0 F1800 X19.887 Y5.179
G1 F900 X9.528 Y-5.179 E0.73085
G0 F1800 X8.962 Y-5.179
G1 F900 X19.321 Y5.179 E0.73085
G0 F1800 X18.756 Y5.179
G1 F900 X8.396 Y-5.179 E0.73088
G0 F1800 X7.831 Y-5.179
G1 F900 X18.19 Y5.179 E0.73085
G0 F1800 X17.624 Y5.179
G1 F900 X7.265 Y-5.179 E0.73085
G0 F1800 X6.699 Y-5.179
G1 F900 X17.058 Y5.179 E0.73085
G0 F1800 X16.493 Y5.179
G1 F900 X6.134 Y-5.179 E0.73085
G0 F1800 X5.568 Y-5.179
G1 F900 X15.927 Y5.179 E0.73085
G0 F1800 X15.361 Y5.179
G1 F900 X5.002 Y-5.179 E0.73085
G0 F1800 X4.437 Y-5.179
G1 F900 X14.796 Y5.179 E0.73085
G0 F1800 X14.23 Y5.179
G1 F900 X3.871 Y-5.179 E0.73085
G0 F1800 X3.305 Y-5.179
G1 F900 X13.664 Y5.179 E0.73085
G0 F1800 X13.099 Y5.179
G1 F900 X2.74 Y-5.179 E0.73085
G0 F1800 X2.174 Y-5.179
G1 F900 X12.533 Y5.179 E0.73085
G0 F1800 X11.967 Y5.179
G1 F900 X1.608 Y-5.179 E0.73085
G0 F1800 X1.095 Y-5.127
G1 F900 X11.402 Y5.179 E0.72718
G0 F1800 X10.836 Y5.179
G1 F900 X1.095 Y-4.561 E0.68724
G0 F1800 X1.095 Y-3.995
G1 F900 X10.27 Y5.179 E0.64731
G0 F1800 X9.705 Y5.179
G1 F900 X1.095 Y-3.43 E0.60745
G0 F1800 X1.095 Y-2.864
G1 F900 X9.139 Y5.179 E0.56751
G0 F1800 X8.573 Y5.179
G1 F900 X1.095 Y-2.298 E0.52758
G0 F1800 X1.095 Y-1.733
G1 F900 X8.007 Y5.179 E0.48768
G0 F1800 X7.442 Y5.179
G1 F900 X1.095 Y-1.167 E0.44778
G0 F1800 X1.095 Y-.601
G1 F900 X6.876 Y5.179 E0.40785
G0 F1800 X6.31 Y5.179
G1 F900 X1.095 Y-0.036 E0.36795
G0 F1800 X1.095 Y0.529
G1 F900 X5.745 Y5.179 E0.32808
G0 F1800 X5.179 Y5.179
G1 F900 X1.095 Y1.095 E0.28815
G0 F1800 X1.095 Y1.66
G1 F900 X4.613 Y5.179 E0.24825
G0 F1800 X4.048 Y5.179
G1 F900 X1.095 Y2.226 E0.20835
G0 F1800 X1.095 Y2.792
G1 F900 X3.482 Y5.179 E0.16842
G0 F1800 X2.916 Y5.179
G1 F900 X1.095 Y3.358 E0.12848
G0 F1800 X1.095 Y3.923
G1 F900 X2.351 Y5.179 E0.08862
G0 F1800 X1.785 Y5.179
G1 F900 X1.095 Y4.489 E0.04868
G0 F1800 X1.095 Y5.055
G1 F900 X1.219 Y5.179 E0.00875
G1 F1800 E-1.3
;MESH:FCPRO_final_3.3mf(2)
G0 X24.73 Y5.73
G0 X24.73 Y7.015
G0 X24.73 Y20.185
G0 X24.73 Y21.47
G0 X24.73 Y32.88
G0 X24.8 Y32.95
;TYPE:WALL-INNER
G1 F1800 E1.3
G1 F900 X0.525 Y32.95 E1.21108
G1 X0.525 Y21.45 E0.57374
G1 X24.8 Y21.45 E1.21108
G1 X24.8 Y32.95 E0.57374
G0 F1800 X25.2 Y33.35
;TYPE:WALL-OUTER
G1 F900 X0.125 Y33.35 E1.251
G1 X0.125 Y21.05 E0.61365
G1 X25.2 Y21.05 E1.251
G1 X25.2 Y33.35 E0.61365
G0 F1800 X25 Y33.35
G0 X24.41 Y32.56
;TYPE:SKIN
G1 F900 X0.915 Y32.56 E1.17217
G1 X0.915 Y21.84 E0.53482
G1 X24.41 Y21.84 E1.17217
G1 X24.41 Y32.56 E0.53482
G0 F1800 X24.229 Y22.532
G1 F900 X23.717 Y22.02 E0.03612
G0 F1800 X23.151 Y22.02
G1 F900 X24.229 Y23.098 E0.07606
G0 F1800 X24.229 Y23.664
G1 F900 X22.585 Y22.02 E0.11599
G0 F1800 X22.02 Y22.02
G1 F900 X24.229 Y24.229 E0.15586
G0 F1800 X24.229 Y24.795
G1 F900 X21.454 Y22.02 E0.19579
G0 F1800 X20.888 Y22.02
G1 F900 X24.229 Y25.361 E0.23573
G0 F1800 X24.229 Y25.926
G1 F900 X20.322 Y22.02 E0.27562
G0 F1800 X19.757 Y22.02
G1 F900 X24.229 Y26.492 E0.31552
G0 F1800 X24.229 Y27.058
G1 F900 X19.191 Y22.02 E0.35546
G0 F1800 X18.625 Y22.02
G1 F900 X24.23 Y27.624 E0.39543
G0 F1800 X24.23 Y28.19
G1 F900 X18.06 Y22.02 E0.43533
G0 F1800 X17.494 Y22.02
G1 F900 X24.23 Y28.755 E0.47523
G0 F1800 X24.23 Y29.321
G1 F900 X16.928 Y22.02 E0.51516
G0 F1800 X16.363 Y22.02
G1 F900 X24.23 Y29.887 E0.55506
G0 F1800 X24.23 Y30.452
G1 F900 X15.797 Y22.02 E0.59496
G0 F1800 X15.231 Y22.02
G1 F900 X24.23 Y31.018 E0.63489
G0 F1800 X24.23 Y31.584
G1 F900 X14.666 Y22.02 E0.67479
G0 F1800 X14.1 Y22.02
G1 F900 X24.23 Y32.15 E0.71473
G0 F1800 X23.893 Y32.379
G1 F900 X13.534 Y22.02 E0.73088
G0 F1800 X12.969 Y22.02
G1 F900 X23.328 Y32.379 E0.73088
G0 F1800 X22.762 Y32.379
G1 F900 X12.403 Y22.02 E0.73088
G0 F1800 X11.837 Y22.02
G1 F900 X22.196 Y32.379 E0.73088
G0 F1800 X21.631 Y32.379
G1 F900 X11.271 Y22.02 E0.73092
G0 F1800 X10.706 Y22.02
G1 F900 X21.065 Y32.379 E0.73088
G0 F1800 X20.499 Y32.379
G1 F900 X10.14 Y22.02 E0.73088
G0 F1800 X9.574 Y22.02
G1 F900 X19.934 Y32.379 E0.73092
G0 F1800 X19.368 Y32.379
G1 F900 X9.009 Y22.02 E0.73088
G0 F1800 X8.443 Y22.02
G1 F900 X18.802 Y32.379 E0.73088
G0 F1800 X18.236 Y32.379
G1 F900 X7.877 Y22.02 E0.73088
G0 F1800 X7.312 Y22.02
G1 F900 X17.671 Y32.379 E0.73088
G0 F1800 X17.105 Y32.379
G1 F900 X6.746 Y22.02 E0.73088
G0 F1800 X6.18 Y22.02
G1 F900 X16.539 Y32.379 E0.73088
G0 F1800 X15.974 Y32.379
G1 F900 X5.615 Y22.02 E0.73088
G0 F1800 X5.049 Y22.02
G1 F900 X15.408 Y32.379 E0.73088
G0 F1800 X14.842 Y32.379
G1 F900 X4.483 Y22.02 E0.73088
G0 F1800 X3.918 Y22.02
G1 F900 X14.277 Y32.379 E0.73088
G0 F1800 X13.711 Y32.379
G1 F900 X3.352 Y22.02 E0.73088
G0 F1800 X2.786 Y22.02
G1 F900 X13.145 Y32.379 E0.73088
G0 F1800 X12.58 Y32.379
G1 F900 X2.221 Y22.02 E0.73088
G0 F1800 X1.655 Y22.02
G1 F900 X12.014 Y32.379 E0.73088
G0 F1800 X11.448 Y32.379
G1 F900 X1.094 Y22.024 E0.73057
G0 F1800 X1.094 Y22.59
G1 F900 X10.883 Y32.379 E0.69067
G0 F1800 X10.317 Y32.379
G1 F900 X1.094 Y23.156 E0.65073
G0 F1800 X1.094 Y23.722
G1 F900 X9.751 Y32.379 E0.6108
G0 F1800 X9.186 Y32.379
G1 F900 X1.094 Y24.287 E0.57093
G0 F1800 X1.094 Y24.853
G1 F900 X8.62 Y32.379 E0.531
G0 F1800 X8.054 Y32.379
G1 F900 X1.094 Y25.419 E0.49107
G0 F1800 X1.094 Y25.984
G1 F900 X7.488 Y32.379 E0.45117
G0 F1800 X6.923 Y32.379
G1 F900 X1.094 Y26.55 E0.41127
G0 F1800 X1.094 Y27.116
G1 F900 X6.357 Y32.379 E0.37133
G0 F1800 X5.791 Y32.379
G1 F900 X1.094 Y27.681 E0.33143
G0 F1800 X1.094 Y28.247
G1 F900 X5.226 Y32.379 E0.29153
G0 F1800 X4.66 Y32.379
G1 F900 X1.094 Y28.813 E0.2516
G0 F1800 X1.094 Y29.378
G1 F900 X4.094 Y32.379 E0.2117
G0 F1800 X3.529 Y32.379
G1 F900 X1.094 Y29.944 E0.1718
G0 F1800 X1.094 Y30.51
G1 F900 X2.963 Y32.379 E0.13187
G0 F1800 X2.397 Y32.379
G1 F900 X1.094 Y31.075 E0.09197
G0 F1800 X1.094 Y31.641
G1 F900 X1.832 Y32.379 E0.05207
G0 F1800 X1.266 Y32.379
G1 F900 X1.094 Y32.207 E0.01214
G1 F1800 E-1.3
;MESH:FCPRO_final_3.3mf(3)
G0 X24.73 Y21.47
G0 X24.73 Y20.185
G0 X26.053 Y7.003
G0 X26.053 Y-7.003
G0 X24.73 Y-20.185
G0 X24.73 Y-21.47
G0 X24.8 Y-21.45
;TYPE:WALL-INNER
G1 F1800 E1.3
G1 F900 X0.525 Y-21.45 E1.21108
G1 X0.525 Y-32.95 E0.57374
G1 X24.8 Y-32.95 E1.21108
G1 X24.8 Y-21.45 E0.57374
G0 F1800 X25.2 Y-21.05
;TYPE:WALL-OUTER
G1 F900 X0.125 Y-21.05 E1.251
G1 X0.125 Y-33.35 E0.61365
G1 X25.2 Y-33.35 E1.251
G1 X25.2 Y-21.05 E0.61365
G0 F1800 X25 Y-21.05
G0 X24.41 Y-21.84
;TYPE:SKIN
G1 F900 X0.915 Y-21.84 E1.17217
G1 X0.915 Y-32.56 E0.53482
G1 X24.41 Y-32.56 E1.17217
G1 X24.41 Y-21.84 E0.53482
G0 F1800 X23.623 Y-32.379
G1 F900 X24.23 Y-31.772 E0.04283
G0 F1800 X24.23 Y-31.206
G1 F900 X23.058 Y-32.379 E0.08273
G0 F1800 X22.492 Y-32.379
G1 F900 X24.23 Y-30.641 E0.12263
G0 F1800 X24.23 Y-30.075
G1 F900 X21.926 Y-32.379 E0.16256
G0 F1800 X21.36 Y-32.379
G1 F900 X24.23 Y-29.509 E0.20249
G0 F1800 X24.23 Y-28.944
G1 F900 X20.795 Y-32.379 E0.24236
G0 F1800 X20.229 Y-32.379
G1 F900 X24.23 Y-28.378 E0.28229
G0 F1800 X24.23 Y-27.812
G1 F900 X19.663 Y-32.379 E0.32223
G0 F1800 X19.098 Y-32.379
G1 F900 X24.23 Y-27.246 E0.36213
G0 F1800 X24.229 Y-26.681
G1 F900 X18.532 Y-32.379 E0.40199
G0 F1800 X17.966 Y-32.379
G1 F900 X24.229 Y-26.116 E0.44189
G0 F1800 X24.229 Y-25.55
G1 F900 X17.401 Y-32.379 E0.48179
G0 F1800 X16.835 Y-32.379
G1 F900 X24.229 Y-24.984 E0.52172
G0 F1800 X24.229 Y-24.419
G1 F900 X16.269 Y-32.379 E0.56162
G0 F1800 X15.704 Y-32.379
G1 F900 X24.229 Y-23.853 E0.60152
G0 F1800 X24.229 Y-23.287
G1 F900 X15.138 Y-32.379 E0.64145
G0 F1800 X14.572 Y-32.379
G1 F900 X24.229 Y-22.722 E0.68135
G0 F1800 X24.229 Y-22.156
G1 F900 X14.007 Y-32.379 E0.72125
G0 F1800 X13.441 Y-32.379
G1 F900 X23.8 Y-22.02 E0.73088
G0 F1800 X23.234 Y-22.02
G1 F900 X12.875 Y-32.379 E0.73088
G0 F1800 X12.31 Y-32.379
G1 F900 X22.669 Y-22.02 E0.73088
G0 F1800 X22.103 Y-22.02
G1 F900 X11.744 Y-32.379 E0.73088
G0 F1800 X11.178 Y-32.379
G1 F900 X21.537 Y-22.02 E0.73088
G0 F1800 X20.972 Y-22.02
G1 F900 X10.612 Y-32.379 E0.73092
G0 F1800 X10.047 Y-32.379
G1 F900 X20.406 Y-22.02 E0.73088
G0 F1800 X19.84 Y-22.02
G1 F900 X9.481 Y-32.379 E0.73088
G0 F1800 X8.915 Y-32.379
M104 T1 S230
G1 F900 X19.275 Y-22.02 E0.73092
G0 F1800 X18.709 Y-22.02
G1 F900 X8.35 Y-32.379 E0.73088
G0 F1800 X7.784 Y-32.379
G1 F900 X18.143 Y-22.02 E0.73088
G0 F1800 X17.577 Y-22.02
G1 F900 X7.218 Y-32.379 E0.73088
G0 F1800 X6.653 Y-32.379
G1 F900 X17.012 Y-22.02 E0.73088
G0 F1800 X16.446 Y-22.02
G1 F900 X6.087 Y-32.379 E0.73088
G0 F1800 X5.521 Y-32.379
G1 F900 X15.88 Y-22.02 E0.73088
G0 F1800 X15.315 Y-22.02
G1 F900 X4.956 Y-32.379 E0.73088
G0 F1800 X4.39 Y-32.379
G1 F900 X14.749 Y-22.02 E0.73088
G0 F1800 X14.183 Y-22.02
G1 F900 X3.824 Y-32.379 E0.73088
G0 F1800 X3.259 Y-32.379
G1 F900 X13.618 Y-22.02 E0.73088
G0 F1800 X13.052 Y-22.02
G1 F900 X2.693 Y-32.379 E0.73088
G0 F1800 X2.127 Y-32.379
G1 F900 X12.486 Y-22.02 E0.73088
G0 F1800 X11.921 Y-22.02
G1 F900 X1.561 Y-32.379 E0.73092
G0 F1800 X1.094 Y-32.28
G1 F900 X11.355 Y-22.02 E0.72393
G0 F1800 X10.789 Y-22.02
G1 F900 X1.094 Y-31.715 E0.68403
G0 F1800 X1.094 Y-31.149
G1 F900 X10.224 Y-22.02 E0.64414
G0 F1800 X9.658 Y-22.02
G1 F900 X1.094 Y-30.583 E0.6042
G0 F1800 X1.094 Y-30.018
G1 F900 X9.092 Y-22.02 E0.5643
G0 F1800 X8.527 Y-22.02
G1 F900 X1.094 Y-29.452 E0.5244
G0 F1800 X1.094 Y-28.886
G1 F900 X7.961 Y-22.02 E0.48447
G0 F1800 X7.395 Y-22.02
G1 F900 X1.094 Y-28.321 E0.44457
G0 F1800 X1.094 Y-27.755
G1 F900 X6.829 Y-22.02 E0.40464
G0 F1800 X6.264 Y-22.02
G1 F900 X1.094 Y-27.189 E0.36474
G0 F1800 X1.094 Y-26.623
G1 F900 X5.698 Y-22.02 E0.3248
G0 F1800 X5.132 Y-22.02
G1 F900 X1.094 Y-26.058 E0.2849
G0 F1800 X1.094 Y-25.492
G1 F900 X4.567 Y-22.02 E0.245
G0 F1800 X4.001 Y-22.02
G1 F900 X1.094 Y-24.926 E0.20507
G0 F1800 X1.094 Y-24.361
G1 F900 X3.435 Y-22.02 E0.16517
M104 S213
G0 F1800 X2.87 Y-22.02
G1 F900 X1.094 Y-23.795 E0.12527
G0 F1800 X1.094 Y-23.229
G1 F900 X2.304 Y-22.02 E0.08534
G0 F1800 X1.738 Y-22.02
G1 F900 X1.094 Y-22.664 E0.04544
G0 F1800 X1.094 Y-22.098
G1 F900 X1.173 Y-22.02 E0.00554
G1 F1800 E-1.3
;MESH:FCPRO_final_3.3mf
G0 X24.786 Y-21.464
G0 X24.786 Y-20.185
G0 X112.5 Y73
G1 F1200 E-14.7
G1 F600 Z1.3
M135 T1
M104 S230
M116
M104 T0 S175
G1 F1800 E-1.3
G0 X78.5 Y73 Z1.3
G1 F600 Z0.3
G0 F1800 X26.053 Y20.197
G0 X-.285 Y7.014
G0 X-.539 Y5.736
G0 X-.525 Y5.75
;TYPE:WALL-INNER
G1 F1800 E1.3
G1 F900 X-24.8 Y5.75 E1.21108
G1 X-24.8 Y-5.75 E0.57374
G1 X-.525 Y-5.75 E1.21108
G1 X-.525 Y5.75 E0.57374
G0 F1800 X-.125 Y6.15
;TYPE:WALL-OUTER
G1 F900 X-25.2 Y6.15 E1.251
G1 X-25.2 Y-6.15 E0.61365
G1 X-.125 Y-6.15 E1.251
G1 X-.125 Y6.15 E0.61365
G0 F1800 X-.325 Y6.15
G0 X-.915 Y5.36
;TYPE:SKIN
G1 F900 X-24.41 Y5.36 E1.17217
G1 X-24.41 Y-5.36 E0.53482
G1 X-.915 Y-5.36 E1.17217
G1 X-.915 Y5.36 E0.53482
G0 F1800 X-1.219 Y-5.179
G1 F900 X-1.095 Y-5.055 E0.00875
G0 F1800 X-1.095 Y-4.489
G1 F900 X-1.785 Y-5.179 E0.04868
G0 F1800 X-2.351 Y-5.179
G1 F900 X-1.095 Y-3.923 E0.08862
G0 F1800 X-1.095 Y-3.358
G1 F900 X-2.916 Y-5.179 E0.12848
G0 F1800 X-3.482 Y-5.179
G1 F900 X-1.095 Y-2.792 E0.16842
G0 F1800 X-1.095 Y-2.226
G1 F900 X-4.048 Y-5.179 E0.20835
G0 F1800 X-4.613 Y-5.179
G1 F900 X-1.095 Y-1.66 E0.24825
G0 F1800 X-1.095 Y-1.095
G1 F900 X-5.179 Y-5.179 E0.28815
G0 F1800 X-5.745 Y-5.179
G1 F900 X-1.095 Y-.529 E0.32808
G0 F1800 X-1.095 Y0.036
G1 F900 X-6.31 Y-5.179 E0.36795
G0 F1800 X-6.876 Y-5.179
G1 F900 X-1.095 Y0.601 E0.40785
G0 F1800 X-1.095 Y1.167
G1 F900 X-7.442 Y-5.179 E0.44778
G0 F1800 X-8.007 Y-5.179
G1 F900 X-1.095 Y1.733 E0.48768
G0 F1800 X-1.095 Y2.298
G1 F900 X-8.573 Y-5.179 E0.52758
G0 F1800 X-9.139 Y-5.179
G1 F900 X-1.095 Y2.864 E0.56751
G0 F1800 X-1.095 Y3.43
G1 F900 X-9.705 Y-5.179 E0.60745
G0 F1800 X-10.27 Y-5.179
G1 F900 X-1.095 Y3.995 E0.64731
G0 F1800 X-1.095 Y4.561
G1 F900 X-10.836 Y-5.179 E0.68724
G0 F1800 X-11.402 Y-5.179
G1 F900 X-1.095 Y5.127 E0.72718
G0 F1800 X-1.608 Y5.179
G1 F900 X-11.967 Y-5.179 E0.73085
G0 F1800 X-12.533 Y-5.179
G1 F900 X-2.174 Y5.179 E0.73085
G0 F1800 X-2.74 Y5.179
G1 F900 X-13.099 Y-5.179 E0.73085
G0 F1800 X-13.664 Y-5.179
G1 F900 X-3.305 Y5.179 E0.73085
G0 F1800 X-3.871 Y5.179
G1 F900 X-14.23 Y-5.179 E0.73085
G0 F1800 X-14.796 Y-5.179
G1 F900 X-4.437 Y5.179 E0.73085
G0 F1800 X-5.002 Y5.179
G1 F900 X-15.361 Y-5.179 E0.73085
G0 F1800 X-15.927 Y-5.179
G1 F900 X-5.568 Y5.179 E0.73085
G0 F1800 X-6.134 Y5.179
G1 F900 X-16.493 Y-5.179 E0.73085
G0 F1800 X-17.058 Y-5.179
G1 F900 X-6.699 Y5.179 E0.73085
G0 F1800 X-7.265 Y5.179
G1 F900 X-17.624 Y-5.179 E0.73085
G0 F1800 X-18.19 Y-5.179
G1 F900 X-7.831 Y5.179 E0.73085
G0 F1800 X-8.396 Y5.179
G1 F900 X-18.756 Y-5.179 E0.73088
G0 F1800 X-19.321 Y-5.179
G1 F900 X-8.962 Y5.179 E0.73085
G0 F1800 X-9.528 Y5.179
G1 F900 X-19.887 Y-5.179 E0.73085
