;FLAVOR:Makerbot
;TIME:1225
;MINX:-20.113
;MINY:-20.12
;MINZ:0.3
;MAXX:112.5
;MAXY:73
;MAXZ:2.1
;Generated with Cura_SteamEngine 4.8.0
T0
M82 ;absolute extrusion mode
; **** FlashForge Creator Pro PRINTER start.gcode for dual extrusion only ****
M83 ; relative extrusion mode
M73 P0 ; enable build progress
G162 X Y F3000 ; home XY maximum
G161 Z F1200 ; home Z minimum
G92 Z-5 ; set Z to -5
G1 Z0 ; move Z to 0
G161 Z F100 ; home Z slowly
M132 X Y Z A B ; recall home offsets
M135 T0 ; load right extruder offsets
G1 X150 Y-70 Z30 F9000 ; move to wait position right hand side of the table
G130 X20 Y20 Z20 A20 B20 ; lower stepper Vrefs while heating
M127
M140 S60 T0 ; set bed temperature
M134 T0 ; stabilize bed temperature
M104 S230 T0 ; set right extruder temp
M104 S228 T1 ; set left extruder temp
M133 T0 ; stabilize right extruder temperature
M133 T1 ; stabilize left extruder temperature
G130 X127 Y127 Z40 A127 B127 ; default stepper Vrefs
G92 A0 B0 ; zero extruders
M135 T0 ; right tool
G1 Z0.4 ; position nozzle
G1 X110 Y-70 E25 F300 ; purge nozzle
G1 X120 Y-70 Z0.15 F1200 ; slow wipe
G1 X110 Y-70 Z0.5 F1200 ; lift
G1 Z4 F1200 ; raise
G1 X-110 F4000 ; move nozzle to left side of bed
G1 Z0.4 F1200 ; lower
M135 T1 ; left tool
G1 X-140 Y-70 F9000 ; reposition nozzle
G1 X-100 Y-70 E25 F300 ; purge nozzle
G1 X-110 Y-70 Z0.15 F1200 ; slow wipe
G1 X-100 Y-70 Z0.5 F1200 ; lift
G92 A0 B0 ; zero extruders
M135 T1 ; left or right tool
M73 P1 ;@body (notify GPX body has started)
; **** end of start.gcode ****
M83 ;relative extrusion mode
G1 F1800 E-1.3
;LAYER_COUNT:9
;LAYER:0
M127 T0
M104 T1 S228
M104 S215
;MESH:FCPRO_cylinder_hole.3mf(1)
G0 X112.5 Y73 Z0.3
G1 F1200 E-14.7
G1 F600 Z1.3
M135 T1
M104 S228
M116
M104 T0 S175
G1 F1800 E-1.3
G0 X78.5 Y73 Z1.3
G1 F600 Z0.3
G0 F1800 X16.075 Y13.486
G0 X15.132 Y12.614
G0 X7.376 Y-3.72
G0 X6.642 Y-4.912
G0 X5.717 Y-5.964
G0 X4.626 Y-6.845
G0 X3.403 Y-7.529
G0 X2.082 Y-7.994
G0 X0.7 Y-8.232
G0 X-.7 Y-8.232
G0 X-1.818 Y-8.04
G0 X-3.428 Y-7.584
G0 X-3.387 Y-7.493
;TYPE:WALL-INNER
G1 F1800 E1.3
G1 F900 X-4.604 Y-6.812 E0.06958
G1 X-5.69 Y-5.936 E0.06961
G1 X-6.61 Y-4.889 E0.06954
G1 X-7.341 Y-3.702 E0.06955
G1 X-7.862 Y-2.408 E0.06959
G1 X-8.155 Y-1.044 E0.0696
G1 X-8.215 Y0.348 E0.06951
G1 X-8.037 Y1.732 E0.06962
G1 X-7.63 Y3.066 E0.06958
G1 X-7.002 Y4.31 E0.06952
G1 X-6.172 Y5.432 E0.06963
G1 X-5.165 Y6.397 E0.06958
G1 X-4.01 Y7.177 E0.06953
G1 X-2.74 Y7.753 E0.06957
G1 X-1.39 Y8.104 E0.06959
G1 X0.00 Y8.222 E0.0696
G1 X1.39 Y8.104 E0.0696
G1 X2.74 Y7.753 E0.06959
G1 X4.01 Y7.177 E0.06957
G1 X5.165 Y6.397 E0.06953
G1 X6.172 Y5.432 E0.06958
G1 X7.002 Y4.31 E0.06963
G1 X7.63 Y3.066 E0.06952
G1 X8.037 Y1.732 E0.06958
G1 X8.215 Y0.348 E0.06962
G1 X8.155 Y-1.044 E0.06951
G1 X7.862 Y-2.408 E0.0696
G1 X7.341 Y-3.702 E0.06959
G1 X6.61 Y-4.889 E0.06955
G1 X5.69 Y-5.936 E0.06954
G1 X4.604 Y-6.812 E0.06961
G1 X3.387 Y-7.493 E0.06958
G1 X2.072 Y-7.956 E0.06955
G1 X0.697 Y-8.193 E0.06961
G1 X-.697 Y-8.193 E0.06955
G1 X-2.072 Y-7.956 E0.06961
G1 X-3.387 Y-7.493 E0.06955
G0 F1800 X-3.428 Y-7.584
G0 X2.013 Y-19.516
G0 X2.023 Y-19.615
G1 F900 X4.038 Y-19.301 E0.10174
G1 X5.999 Y-18.786 E0.10115
G1 X7.892 Y-18.071 E0.10095
G1 X9.709 Y-17.163 E0.10134
G1 X11.429 Y-16.069 E0.1017
G1 X13.015 Y-14.813 E0.10093
G1 X14.475 Y-13.392 E0.10164
G1 X15.772 Y-11.837 E0.10102
G1 X16.905 Y-10.153 E0.10126
G1 X17.861 Y-8.356 E0.10155
G1 X18.625 Y-6.477 E0.1012
G1 X19.19 Y-4.536 E0.10086
G1 X19.558 Y-2.518 E0.10234
G1 X19.712 Y-.512 E0.10037
G1 X19.66 Y1.524 E0.10161
G1 X19.401 Y3.53 E0.10091
G1 X18.933 Y5.509 E0.10146
G1 X18.265 Y7.432 E0.10156
G1 X17.405 Y9.269 E0.10119
G1 X16.362 Y11.006 E0.10108
G1 X15.147 Y12.626 E0.10103
G1 X13.753 Y14.131 E0.10234
G1 X12.244 Y15.458 E0.10025
G1 X10.579 Y16.642 E0.10193
G1 X8.821 Y17.637 E0.10078
G1 X6.96 Y18.45 E0.10132
G1 X5.023 Y19.068 E0.10144
G1 X3.03 Y19.485 E0.10158
G1 X1.007 Y19.693 E0.10146
G1 X0.00 Y19.72 E0.05026
G1 X-1.007 Y19.693 E0.05026
G1 X-3.03 Y19.485 E0.10146
G1 X-5.023 Y19.068 E0.10158
G1 X-6.96 Y18.45 E0.10144
G1 X-8.821 Y17.637 E0.10132
G1 X-10.579 Y16.642 E0.10078
G1 X-12.244 Y15.458 E0.10193
G1 X-13.753 Y14.131 E0.10025
G1 X-15.147 Y12.626 E0.10234
G1 X-16.362 Y11.006 E0.10103
G1 X-17.405 Y9.269 E0.10108
G1 X-18.265 Y7.432 E0.10119
G1 X-18.933 Y5.509 E0.10156
G1 X-19.401 Y3.53 E0.10146
G1 X-19.66 Y1.524 E0.10091
G1 X-19.712 Y-.512 E0.10161
G1 X-19.558 Y-2.518 E0.10037
G1 X-19.19 Y-4.536 E0.10234
G1 X-18.625 Y-6.477 E0.10086
G1 X-17.861 Y-8.356 E0.1012
G1 X-16.905 Y-10.153 E0.10155
G1 X-15.772 Y-11.837 E0.10126
G1 X-14.475 Y-13.392 E0.10102
G1 X-13.015 Y-14.813 E0.10164
G1 X-11.429 Y-16.069 E0.10093
G1 X-9.709 Y-17.163 E0.1017
G1 X-7.892 Y-18.071 E0.10134
G1 X-5.999 Y-18.786 E0.10095
G1 X-4.038 Y-19.301 E0.10115
G1 X-2.023 Y-19.615 E0.10174
G1 X0.00 Y-19.719 E0.10106
G1 X2.023 Y-19.615 E0.10106
G0 F1800 X2.067 Y-20.013
;TYPE:WALL-OUTER
G1 F900 X4.123 Y-19.692 E0.10382
G1 X6.116 Y-19.169 E0.1028
G1 X8.058 Y-18.436 E0.10356
G1 X9.909 Y-17.51 E0.10326
G1 X11.658 Y-16.398 E0.1034
G1 X13.281 Y-15.113 E0.10328
G1 X14.765 Y-13.668 E0.10334
G1 X16.093 Y-12.076 E0.10343
G1 X17.248 Y-10.359 E0.10324
G1 X18.227 Y-8.52 E0.10394
G1 X19.002 Y-6.614 E0.10265
G1 X19.581 Y-4.623 E0.10345
G1 X19.955 Y-2.573 E0.10396
G1 X20.113 Y-.523 E0.10258
G1 X20.059 Y1.556 E0.10376
G1 X19.796 Y3.597 E0.10267
G1 X19.317 Y5.624 E0.10391
G1 X18.637 Y7.582 E0.10341
G1 X17.758 Y9.459 E0.1034
G1 X16.695 Y11.229 E0.10301
G1 X15.451 Y12.887 E0.10341
G1 X14.039 Y14.412 E0.10369
G1 X12.489 Y15.775 E0.10298
G1 X10.796 Y16.979 E0.10365
G1 X8.996 Y17.997 E0.10317
G1 X7.104 Y18.824 E0.10302
G1 X5.121 Y19.457 E0.10385
G1 X3.095 Y19.88 E0.10326
G1 X1.033 Y20.093 E0.10342
G1 X0.00 Y20.12 E0.05155
G1 X-1.033 Y20.093 E0.05155
G1 X-3.095 Y19.88 E0.10342
G1 X-5.121 Y19.457 E0.10326
G1 X-7.104 Y18.824 E0.10385
G1 X-8.996 Y17.997 E0.10302
G1 X-10.796 Y16.979 E0.10317
G1 X-12.489 Y15.775 E0.10365
G1 X-14.039 Y14.412 E0.10298
G1 X-15.451 Y12.887 E0.10369
G1 X-16.695 Y11.229 E0.10341
G1 X-17.758 Y9.459 E0.10301
G1 X-18.637 Y7.582 E0.1034
G1 X-19.317 Y5.624 E0.10341
G1 X-19.796 Y3.597 E0.10391
G1 X-20.059 Y1.556 E0.10267
G1 X-20.113 Y-.523 E0.10376
G1 X-19.955 Y-2.573 E0.10258
G1 X-19.581 Y-4.623 E0.10396
G1 X-19.002 Y-6.614 E0.10345
G1 X-18.227 Y-8.52 E0.10265
G1 X-17.248 Y-10.359 E0.10394
G1 X-16.093 Y-12.076 E0.10324
G1 X-14.765 Y-13.668 E0.10343
G1 X-13.281 Y-15.113 E0.10334
G1 X-11.658 Y-16.398 E0.10328
G1 X-9.909 Y-17.51 E0.1034
G1 X-8.058 Y-18.436 E0.10326
G1 X-6.116 Y-19.169 E0.10356
G1 X-4.123 Y-19.692 E0.1028
G1 X-2.067 Y-20.013 E0.10382
G1 X0.00 Y-20.119 E0.10326
G1 X2.067 Y-20.013 E0.10326
G0 F1800 X2.264 Y-19.983
G0 X2.187 Y-19.49
G0 X-3.387 Y-7.599
G0 X-3.222 Y-7.127
G1 F900 X-4.379 Y-6.479 E0.06616
G1 X-5.412 Y-5.646 E0.06621
G1 X-6.287 Y-4.65 E0.06614
G1 X-6.983 Y-3.521 E0.06617
G1 X-7.478 Y-2.29 E0.06619
G1 X-7.757 Y-.993 E0.06619
G1 X-7.814 Y0.331 E0.06612
G1 X-7.645 Y1.647 E0.06619
G1 X-7.257 Y2.916 E0.0662
G1 X-6.66 Y4.1 E0.06615
G1 X-5.871 Y5.167 E0.06621
G1 X-4.913 Y6.085 E0.0662
G1 X-3.814 Y6.827 E0.06616
G1 X-2.606 Y7.374 E0.06616
G1 X-1.322 Y7.708 E0.06619
G1 X0.00 Y7.821 E0.0662
G1 X1.322 Y7.708 E0.0662
G1 X2.606 Y7.374 E0.06619
G1 X3.814 Y6.827 E0.06616
G1 X4.913 Y6.085 E0.06616
G1 X5.871 Y5.167 E0.0662
G1 X6.66 Y4.1 E0.06621
G1 X7.257 Y2.916 E0.06615
G1 X7.645 Y1.647 E0.0662
G1 X7.814 Y0.331 E0.06619
G1 X7.757 Y-.993 E0.06612
G1 X7.478 Y-2.29 E0.06619
G1 X6.983 Y-3.521 E0.06619
G1 X6.287 Y-4.65 E0.06617
G1 X5.412 Y-5.646 E0.06614
G1 X4.379 Y-6.479 E0.06621
G1 X3.222 Y-7.127 E0.06616
G1 X1.971 Y-7.568 E0.06618
G1 X0.663 Y-7.793 E0.06621
G1 X-.663 Y-7.793 E0.06615
G1 X-1.971 Y-7.568 E0.06621
G1 X-3.222 Y-7.127 E0.06618
G0 F1800 X-3.396 Y-7.03
G0 X-3.549 Y-7.85
;TYPE:SKIN
G1 F900 X-4.823 Y-7.136 E0.07286
G1 X-5.961 Y-6.219 E0.07291
G1 X-6.924 Y-5.121 E0.07286
G1 X-7.69 Y-3.878 E0.07284
G1 X-8.236 Y-2.523 E0.07288
G1 X-8.543 Y-1.093 E0.07297
G1 X-8.607 Y0.365 E0.07281
G1 X-8.419 Y1.814 E0.0729
G1 X-7.993 Y3.212 E0.07291
G1 X-7.335 Y4.515 E0.07283
G1 X-6.466 Y5.691 E0.07295
G1 X-5.411 Y6.701 E0.07287
G1 X-4.201 Y7.518 E0.07284
G1 X-2.871 Y8.122 E0.07288
G1 X-1.456 Y8.49 E0.07294
G1 X0.00 Y8.614 E0.0729
G1 X1.456 Y8.49 E0.0729
G1 X2.871 Y8.122 E0.07294
G1 X4.201 Y7.518 E0.07288
G1 X5.411 Y6.701 E0.07284
G1 X6.466 Y5.691 E0.07287
G1 X7.335 Y4.515 E0.07295
G1 X7.993 Y3.212 E0.07283
G1 X8.419 Y1.814 E0.07291
G1 X8.607 Y0.365 E0.0729
G1 X8.543 Y-1.093 E0.07281
G1 X8.236 Y-2.523 E0.07297
G1 X7.69 Y-3.878 E0.07288
G1 X6.924 Y-5.121 E0.07284
G1 X5.961 Y-6.219 E0.07286
G1 X4.823 Y-7.136 E0.07291
G1 X3.549 Y-7.85 E0.07286
G1 X2.171 Y-8.335 E0.07288
G1 X0.73 Y-8.583 E0.07295
G1 X-.73 Y-8.583 E0.07284
G1 X-2.171 Y-8.335 E0.07295
G1 X-3.549 Y-7.85 E0.07288
G0 F1800 X-7.738 Y-17.712
G1 F900 X-5.876 Y-18.416 E0.09931
G1 X-3.967 Y-18.916 E0.09845
G1 X-1.982 Y-19.226 E0.10023
G1 X0.00 Y-19.327 E0.09901
G1 X1.982 Y-19.226 E0.09901
G1 X3.967 Y-18.916 E0.10023
G1 X5.876 Y-18.416 E0.09845
G1 X7.738 Y-17.712 E0.09931
G1 X9.518 Y-16.822 E0.09929
G1 X11.2 Y-15.753 E0.09943
G1 X12.761 Y-14.517 E0.09934
G1 X14.181 Y-13.135 E0.09886
G1 X15.46 Y-11.603 E0.09957
G1 X16.569 Y-9.952 E0.09923
G1 X17.511 Y-8.182 E0.10003
G1 X18.259 Y-6.343 E0.09905
G1 X18.808 Y-4.453 E0.09819
G1 X19.173 Y-2.453 E0.10143
G1 X19.322 Y-.512 E0.09712
G1 X19.27 Y1.503 E0.10056
G1 X19.021 Y3.44 E0.09743
G1 X18.558 Y5.399 E0.10043
G1 X17.902 Y7.29 E0.09986
G1 X17.059 Y9.088 E0.09907
G1 X16.039 Y10.786 E0.09882
G1 X14.847 Y12.377 E0.09918
G1 X13.479 Y13.853 E0.1004
G1 X12.005 Y15.15 E0.09795
G1 X10.369 Y16.312 E0.10011
G1 X8.642 Y17.29 E0.09902
G1 X6.831 Y18.081 E0.09859
G1 X4.92 Y18.691 E0.10008
G1 X2.967 Y19.099 E0.09954
G1 X0.984 Y19.303 E0.09945
G1 X0.00 Y19.33 E0.04911
G1 X-.984 Y19.303 E0.04911
G1 X-2.967 Y19.099 E0.09945
G1 X-4.92 Y18.691 E0.09954
G1 X-6.831 Y18.081 E0.10008
G1 X-8.642 Y17.29 E0.09859
G1 X-10.369 Y16.312 E0.09902
G1 X-12.005 Y15.15 E0.10011
G1 X-13.479 Y13.853 E0.09795
G1 X-14.847 Y12.377 E0.1004
G1 X-16.039 Y10.786 E0.09918
G1 X-17.059 Y9.088 E0.09882
G1 X-17.902 Y7.29 E0.09907
G1 X-18.558 Y5.399 E0.09986
G1 X-19.021 Y3.44 E0.10043
G1 X-19.27 Y1.503 E0.09743
G1 X-19.322 Y-.512 E0.10056
G1 X-19.173 Y-2.453 E0.09712
G1 X-18.808 Y-4.453 E0.10143
G1 X-18.259 Y-6.343 E0.09819
G1 X-17.511 Y-8.182 E0.09905
G1 X-16.569 Y-9.952 E0.10003
G1 X-15.46 Y-11.603 E0.09923
G1 X-14.181 Y-13.135 E0.09957
G1 X-12.761 Y-14.517 E0.09886
G1 X-11.2 Y-15.753 E0.09934
G1 X-9.518 Y-16.822 E0.09943
G1 X-7.738 Y-17.712 E0.09929
G0 F1800 X15.77 Y-10.816
G1 F900 X10.782 Y-15.804 E0.35193
G1 X10.712 Y-15.874
G0 F1800 X9.286 Y-16.735
G1 F900 X16.697 Y-9.323 E0.52292
G1 X16.767 Y-9.253
G0 F1800 X17.341 Y-8.114
G1 F900 X8.154 Y-17.301 E0.64819
G1 X8.084 Y-17.371
G0 F1800 X7.148 Y-17.741
G1 F900 X17.734 Y-7.155 E0.7469
G1 X17.804 Y-7.085
G0 F1800 X18.108 Y-6.216
G1 F900 X6.239 Y-18.084 E0.83739
G1 X6.169 Y-18.154
G0 F1800 X5.406 Y-18.352
G1 F900 X18.338 Y-5.419 E0.91246
G1 X18.408 Y-5.349
G0 F1800 X18.57 Y-4.623
G1 F900 X4.64 Y-18.553 E0.98284
G0 F1800 X3.881 Y-18.746
G1 F900 X18.724 Y-3.903 E1.04725
G0 F1800 X18.85 Y-3.21
G1 F900 X3.21 Y-18.85 E1.10349
G0 F1800 X2.54 Y-18.955
G1 F900 X18.978 Y-2.518 E1.15975
G0 F1800 X19.036 Y-1.894
G1 F900 X1.88 Y-19.049 E1.21041
G0 F1800 X1.284 Y-19.079
G1 F900 X19.082 Y-1.281 E1.25575
G0 F1800 X19.13 Y-.668
G1 F900 X0.688 Y-19.11 E1.30118
G0 F1800 X0.092 Y-19.14
G1 F900 X19.13 Y-.102 E1.34323
G0 F1800 X19.116 Y0.449
G1 F900 X-.454 Y-19.122 E1.3808
G0 F1800 X-.992 Y-19.094
G1 F900 X19.102 Y1 E1.41774
G0 F1800 X19.082 Y1.546
G1 F900 X-1.53 Y-19.067 E1.45432
G0 F1800 X-2.059 Y-19.03
G1 F900 X19.018 Y2.047 E1.4871
G0 F1800 X18.953 Y2.549
G1 F900 X-2.549 Y-18.953 E1.51708
G0 F1800 X-3.038 Y-18.877
G1 F900 X18.889 Y3.05 E1.54707
G0 F1800 X18.811 Y3.538
G1 F900 X-3.527 Y-18.801 E1.5761
G0 F1800 X-4.01 Y-18.718
G1 F900 X18.704 Y3.996 E1.6026
G0 F1800 X18.596 Y4.454
G1 F900 X-4.458 Y-18.6 E1.62658
G0 F1800 X-4.906 Y-18.483
G1 F900 X18.488 Y4.911 E1.65057
G0 F1800 X18.378 Y5.367
G1 F900 X-5.354 Y-18.365 E1.67442
G0 F1800 X-5.803 Y-18.248
G1 F900 X18.232 Y5.787 E1.6958
G0 F1800 X18.087 Y6.207
G1 F900 X7.737 Y-4.141 E0.73018
G1 X7.667 Y-4.211
G0 F1800 X8.184 Y-3.128
G1 F900 X17.941 Y6.627 E0.68834
G0 F1800 X17.795 Y7.047
G1 F900 X8.471 Y-2.276 E0.65782
G0 F1800 X8.625 Y-1.556
G1 F900 X17.63 Y7.447 E0.63528
G0 F1800 X17.449 Y7.832
G1 F900 X8.73 Y-.886 E0.61514
G0 F1800 X8.756 Y-.294
G1 F900 X17.268 Y8.217 E0.60053
G0 F1800 X17.087 Y8.602
G1 F900 X8.783 Y0.298 E0.58589
G0 F1800 X8.729 Y0.81
G1 F900 X16.907 Y8.988 E0.577
G0 F1800 X16.696 Y9.342
G1 F900 X8.664 Y1.31 E0.5667
G0 F1800 X8.599 Y1.81
G1 F900 X16.484 Y9.695 E0.55633
G0 F1800 X16.271 Y10.049
G1 F900 X8.472 Y2.25 E0.55026
G0 F1800 X8.34 Y2.683
G1 F900 X16.059 Y10.402 E0.54462
G0 F1800 X15.841 Y10.75
G1 F900 X8.208 Y3.117 E0.53855
G0 F1800 X8.039 Y3.514
G1 F900 X15.598 Y11.073 E0.53333
G0 F1800 X15.356 Y11.396
G1 F900 X7.85 Y3.89 E0.52959
G0 F1800 X7.66 Y4.266
G1 F900 X15.114 Y11.72 E0.52592
G0 F1800 X14.871 Y12.043
G1 F900 X7.466 Y4.637 E0.5225
G0 F1800 X7.225 Y4.963
G1 F900 X14.62 Y12.357 E0.52172
G0 F1800 X14.347 Y12.65
G1 F900 X6.986 Y5.289 E0.51936
G0 F1800 X6.745 Y5.614
G1 F900 X14.075 Y12.944 E0.51717
G0 F1800 X13.803 Y13.237
G1 F900 X6.486 Y5.921 E0.51622
G0 F1800 X6.197 Y6.197
G1 F900 X13.531 Y13.531 E0.51745
G0 F1800 X13.249 Y13.814
G1 F900 X5.908 Y6.474 E0.51791
G0 F1800 X5.619 Y6.75
G1 F900 X12.948 Y14.079 E0.5171
G0 F1800 X12.647 Y14.344
G1 F900 X5.297 Y6.994 E0.51858
G0 F1800 X4.959 Y7.222
G1 F900 X12.346 Y14.609 E0.52119
G0 F1800 X12.045 Y14.873
G1 F900 X4.621 Y7.45 E0.52377
G0 F1800 X4.283 Y7.677
G1 F900 X11.73 Y15.124 E0.52543
G0 F1800 X11.399 Y15.359
G1 F900 X3.894 Y7.853 E0.52955
G0 F1800 X3.505 Y8.03
G1 F900 X11.068 Y15.593 E0.53361
G0 F1800 X10.737 Y15.828
G1 F900 X3.116 Y8.207 E0.5377
G0 F1800 X2.695 Y8.352
G1 F900 X10.406 Y16.063 E0.54405
G0 F1800 X10.057 Y16.279
G1 F900 X2.247 Y8.469 E0.55104
G0 F1800 X1.798 Y8.587
G1 F900 X9.696 Y16.484 E0.55721
G0 F1800 X9.335 Y16.689
G1 F900 X1.327 Y8.681 E0.56501
G0 F1800 X0.806 Y8.726
G1 F900 X8.973 Y16.893 E0.57623
G0 F1800 X8.613 Y17.098
G1 F900 X0.285 Y8.77 E0.58759
G0 F1800 X-.279 Y8.771
G1 F900 X8.224 Y17.275 E0.59997
G0 F1800 X7.83 Y17.447
G1 F900 X-.898 Y8.718 E0.61584
G0 F1800 X-1.523 Y8.658
G1 F900 X7.437 Y17.619 E0.63221
G0 F1800 X7.043 Y17.791
G1 F900 X-2.289 Y8.458 E0.65846
G1 X-2.359 Y8.388
G0 F1800 X-3.099 Y8.214
G1 F900 X6.638 Y17.952 E0.68703
G0 F1800 X6.209 Y18.089
G1 F900 X-4.134 Y7.744 E0.72983
G1 X-4.204 Y7.674
G0 F1800 X-7.71 Y4.169
G1 F900 X-18.105 Y-6.226 E0.73342
G0 F1800 X-17.947 Y-6.633
G1 F900 X-8.214 Y3.099 E0.68668
G1 X-8.144 Y3.169
G0 F1800 X-8.461 Y2.286
G1 F900 X-17.783 Y-7.035 E0.65768
G0 F1800 X-17.619 Y-7.437
G1 F900 X-8.633 Y1.548 E0.63398
G0 F1800 X-8.717 Y0.898
G1 F900 X-17.456 Y-7.839 E0.61651
G0 F1800 X-17.28 Y-8.229
G1 F900 X-8.782 Y0.268 E0.59954
G0 F1800 X-8.758 Y-.272
G1 F900 X-17.083 Y-8.598 E0.58741
G0 F1800 X-16.887 Y-8.967
G1 F900 X-8.734 Y-.814 E0.57524
G0 F1800 X-8.676 Y-1.322
G1 F900 X-16.691 Y-9.337 E0.5655
G0 F1800 X-16.494 Y-9.706
G1 F900 X-8.576 Y-1.788 E0.55866
G0 F1800 X-8.476 Y-2.254
G1 F900 X-16.279 Y-10.057 E0.55054
G0 F1800 X-16.052 Y-10.395
G1 F900 X-8.357 Y-2.7 E0.54292
G0 F1800 X-8.194 Y-3.103
G1 F900 X-15.825 Y-10.734 E0.53841
G0 F1800 X-15.598 Y-11.073
G1 F900 X-8.032 Y-3.506 E0.53386
G0 F1800 X-7.869 Y-3.909
G1 F900 X-15.371 Y-11.411 E0.52931
G0 F1800 X-15.122 Y-11.728
G1 F900 X-7.66 Y-4.266 E0.52648
G0 F1800 X-7.445 Y-4.616
G1 F900 X-14.864 Y-12.036 E0.52349
G0 F1800 X-14.606 Y-12.343
G1 F900 X-7.229 Y-4.966 E0.52049
G0 F1800 X-7.001 Y-5.304
G1 F900 X-14.349 Y-12.652 E0.51844
G0 F1800 X-14.091 Y-12.96
G1 F900 X-6.736 Y-5.605 E0.51893
G0 F1800 X-6.472 Y-5.906
G1 F900 X-13.81 Y-13.244 E0.51774
G0 F1800 X-13.523 Y-13.523
G1 F900 X-6.207 Y-6.207 E0.51618
G0 F1800 X-5.917 Y-6.483
G1 F900 X-13.237 Y-13.802 E0.51643
G0 F1800 X-12.949 Y-14.081
G1 F900 X-5.604 Y-6.735 E0.51826
G0 F1800 X-5.291 Y-6.988
G1 F900 X-12.663 Y-14.36 E0.52013
