;FLAVOR:Makerbot
;TIME:1058
;MINX:-11.257
;MINY:-9.748
;MINZ:0.3
;MAXX:112.5
;MAXY:73
;MAXZ:20.1
;Generated with Cura_SteamEngine 4.8.0
T1
M82 ;absolute extrusion mode
; **** FlashForge Creator Pro PRINTER start.gcode for dual extrusion only ****
M83 ; relative extrusion mode
M73 P0 ; enable build progress
G162 X Y F3000 ; home XY maximum
G161 Z F1200 ; home Z minimum
G92 Z-5 ; set Z to -5
G1 Z0 ; move Z to 0
G161 Z F100 ; home Z slowly
M132 X Y Z A B ; recall home offsets
M135 T0 ; load right extruder offsets
G1 X150 Y-70 Z30 F9000 ; move to wait position right hand side of the table
G130 X20 Y20 Z20 A20 B20 ; lower stepper Vrefs while heating
M127
M140 S80 T0 ; set bed temperature
M134 T0 ; stabilize bed temperature
M104 S220 T0 ; set right extruder temp
M104 S240 T1 ; set left extruder temp
M133 T0 ; stabilize right extruder temperature
M133 T1 ; stabilize left extruder temperature
G130 X127 Y127 Z40 A127 B127 ; default stepper Vrefs
G92 A0 B0 ; zero extruders
M135 T0 ; right tool
G1 Z0.4 ; position nozzle
G1 X110 Y-70 E25 F300 ; purge nozzle
G1 X120 Y-70 Z0.15 F1200 ; slow wipe
G1 X110 Y-70 Z0.5 F1200 ; lift
G1 Z4 F1200 ; raise
G1 X-110 F4000 ; move nozzle to left side of bed
G1 Z0.4 F1200 ; lower
M135 T1 ; left tool
G1 X-140 Y-70 F9000 ; reposition nozzle
G1 X-100 Y-70 E25 F300 ; purge nozzle
G1 X-110 Y-70 Z0.15 F1200 ; slow wipe
G1 X-100 Y-70 Z0.5 F1200 ; lift
G92 A0 B0 ; zero extruders
M135 T1 ; left or right tool
M73 P1 ;@body (notify GPX body has started)
; **** end of start.gcode ****
M83 ;relative extrusion mode
G1 F1800 E-1.3
;LAYER_COUNT:100
;LAYER:0
M127 T0
M104 T0 S220
G0 F2160 X-2.52 Y5.845 Z0.3
;TYPE:SKIRT
G1 F1800 E1.3
G1 F900 X-3.043 Y5.647 E0.0279
G1 X-3.17 Y5.559 E0.00771
G1 X-3.658 Y5.375 E0.02602
G1 X-3.939 Y5.171 E0.01732
G1 X-4.184 Y5.136 E0.01235
G1 X-4.54 Y5.006 E0.01891
G1 X-4.911 Y4.756 E0.02232
G1 X-5.752 Y4.38 E0.04596
G1 X-6.294 Y4.093 E0.0306
G1 X-6.797 Y3.806 E0.02889
G1 X-7.117 Y3.573 E0.01975
G1 X-7.786 Y2.962 E0.0452
G1 X-8.037 Y2.679 E0.01887
G1 X-8.179 Y2.445 E0.01366
G1 X-9.028 Y0.765 E0.09391
G1 X-9.162 Y0.411 E0.01888
G1 X-9.219 Y0.036 E0.01892
G1 X-9.158 Y-.528 E0.0283
G1 X-9.224 Y-.736 E0.01089
G1 X-9.26 Y-1.113 E0.01889
G1 X-9.216 Y-1.489 E0.01889
G1 X-9.095 Y-1.848 E0.0189
G1 X-8.958 Y-2.118 E0.01511
G1 X-8.851 Y-2.481 E0.01888
G1 X-8.721 Y-2.735 E0.01424
G1 X-8.448 Y-3.179 E0.026
G1 X-8.353 Y-3.408 E0.01237
G1 X-8.093 Y-3.845 E0.02537
G1 X-7.844 Y-4.153 E0.01976
G1 X-7.572 Y-4.615 E0.02675
G1 X-7.492 Y-4.72 E0.00659
G1 X-7.066 Y-5.419 E0.04084
G1 X-6.836 Y-5.721 E0.01894
G1 X-6.401 Y-6.047 E0.02712
G1 X-6.049 Y-6.418 E0.02551
G1 X-5.033 Y-7.237 E0.06511
G1 X-4.506 Y-7.532 E0.03013
G1 X-3.809 Y-7.738 E0.03626
G1 X-3.43 Y-7.747 E0.01891
G1 X-2.916 Y-7.656 E0.02604
G1 X-2.544 Y-7.565 E0.01911
G1 X-2.218 Y-7.633 E0.01661
G1 X-1.839 Y-7.631 E0.01891
G1 X-1.676 Y-7.593 E0.00835
G1 X-1.398 Y-7.695 E0.01477
G1 X-1.023 Y-7.748 E0.01889
G1 X-.546 Y-7.701 E0.02391
G1 X0.017 Y-7.545 E0.02915
G1 X0.587 Y-7.379 E0.02962
G1 X1.15 Y-7.165 E0.03005
G1 X1.495 Y-6.954 E0.02018
G1 X1.994 Y-6.87 E0.02525
G1 X2.338 Y-6.712 E0.01889
G1 X2.835 Y-6.286 E0.03266
G1 X3.192 Y-6.152 E0.01902
G1 X3.511 Y-5.946 E0.01894
G1 X3.839 Y-5.605 E0.02361
G1 X4.4 Y-5.256 E0.03296
G1 X4.901 Y-5.114 E0.02598
G1 X5.253 Y-4.973 E0.01892
G1 X5.7 Y-4.638 E0.02787
G1 X6.144 Y-4.124 E0.03389
G1 X6.332 Y-3.696 E0.02332
G1 X6.473 Y-3.58 E0.00911
G1 X6.731 Y-3.542 E0.01301
G1 X7.086 Y-3.41 E0.0189
G1 X7.643 Y-3.011 E0.03418
G1 X7.908 Y-2.74 E0.01891
G1 X8.033 Y-2.557 E0.01106
G1 X8.685 Y-1.506 E0.0617
G1 X8.849 Y-1.165 E0.01888
G1 X8.955 Y-.586 E0.02937
G1 X8.975 Y0.655 E0.06192
G1 X8.941 Y1.032 E0.01888
G1 X8.802 Y1.453 E0.02212
G1 X8.534 Y2.02 E0.03129
G1 X8.377 Y2.855 E0.04239
G1 X8.218 Y3.199 E0.01891
G1 X7.99 Y3.502 E0.01892
G1 X7.834 Y3.638 E0.01033
G1 X7.721 Y4.336 E0.03528
G1 X7.449 Y4.861 E0.0295
G1 X7.058 Y5.382 E0.0325
G1 X6.644 Y5.781 E0.02869
G1 X5.805 Y6.363 E0.05094
G1 X5.473 Y6.545 E0.01889
G1 X5.109 Y6.653 E0.01894
G1 X4.732 Y6.683 E0.01887
G1 X4.356 Y6.634 E0.01892
G1 X4.051 Y6.525 E0.01616
G1 X3.649 Y6.598 E0.02038
G1 X3.327 Y6.797 E0.01888
G1 X2.97 Y6.925 E0.01892
G1 X2.263 Y6.972 E0.03535
G1 X1.887 Y6.928 E0.01889
G1 X1.398 Y6.739 E0.02616
G1 X1.296 Y6.681 E0.00585
G1 X0.529 Y6.842 E0.0391
G1 X0.152 Y6.88 E0.0189
G1 X-.155 Y6.852 E0.01538
G1 X-.773 Y6.742 E0.03132
G1 X-1.137 Y6.637 E0.0189
G1 X-1.58 Y6.398 E0.02511
G1 X-1.902 Y6.153 E0.02019
G1 X-2.52 Y5.845 E0.03445
G0 F2160 X-2.356 Y5.477
G1 F900 X-2.885 Y5.277 E0.02822
G1 X-3.018 Y5.192 E0.00787
G1 X-3.336 Y5.091 E0.01665
G1 X-3.622 Y4.918 E0.01668
G1 X-3.743 Y4.782 E0.00908
G1 X-4.163 Y4.727 E0.02113
G1 X-4.468 Y4.59 E0.01668
G1 X-4.694 Y4.415 E0.01426
G1 X-5.589 Y4.015 E0.04891
G1 X-6.104 Y3.741 E0.0291
G1 X-6.598 Y3.459 E0.02838
G1 X-6.847 Y3.278 E0.01536
G1 X-7.516 Y2.667 E0.0452
G1 X-7.822 Y2.264 E0.02524
G1 X-8.671 Y0.584 E0.09391
G1 X-8.785 Y0.27 E0.01667
G1 X-8.821 Y-0.062 E0.01666
G1 X-8.758 Y-.571 E0.02559
G1 X-8.845 Y-.893 E0.01664
G1 X-8.854 Y-1.227 E0.01667
G1 X-8.783 Y-1.554 E0.01669
G1 X-8.564 Y-2.046 E0.02687
G1 X-8.38 Y-2.526 E0.02565
G1 X-8.092 Y-2.996 E0.0275
G1 X-7.782 Y-3.594 E0.0336
G1 X-7.51 Y-3.932 E0.02164
G1 X-7.254 Y-4.372 E0.0254
G1 X-7.166 Y-4.487 E0.00722
G1 X-6.725 Y-5.211 E0.04229
G1 X-6.518 Y-5.474 E0.0167
G1 X-6.142 Y-5.729 E0.02267
G1 X-5.798 Y-6.107 E0.0255
G1 X-4.782 Y-6.926 E0.06511
G1 X-4.372 Y-7.155 E0.02343
G1 X-3.717 Y-7.346 E0.03404
G1 X-3.383 Y-7.34 E0.01667
G1 X-2.644 Y-7.176 E0.03777
G1 X-2.576 Y-7.14 E0.00384
G1 X-2.139 Y-7.239 E0.02235
G1 X-1.626 Y-7.176 E0.02579
G1 X-1.28 Y-7.312 E0.01855
G1 X-.948 Y-7.349 E0.01667
G1 X-.27 Y-7.224 E0.0344
G1 X0.457 Y-6.998 E0.03798
G1 X1.015 Y-6.785 E0.0298
G1 X1.359 Y-6.56 E0.02051
G1 X1.657 Y-6.544 E0.01489
G1 X1.977 Y-6.449 E0.01665
G1 X2.265 Y-6.28 E0.01666
G1 X2.64 Y-5.912 E0.02621
G1 X3.082 Y-5.757 E0.02337
G1 X3.467 Y-5.428 E0.02527
G1 X3.571 Y-5.3 E0.00823
G1 X4.233 Y-4.889 E0.03887
G1 X4.792 Y-4.73 E0.02899
G1 X5.1 Y-4.601 E0.01666
G1 X5.623 Y-4.143 E0.03468
G1 X5.825 Y-3.877 E0.01666
G1 X5.989 Y-3.461 E0.02231
G1 X6.302 Y-3.193 E0.02056
G1 X6.69 Y-3.139 E0.01954
G1 X6.996 Y-3.004 E0.01669
G1 X7.388 Y-2.702 E0.02469
G1 X7.693 Y-2.346 E0.02339
G1 X8.345 Y-1.295 E0.0617
G1 X8.486 Y-.992 E0.01667
G1 X8.555 Y-.58 E0.02084
G1 X8.575 Y0.661 E0.06192
G1 X8.54 Y0.994 E0.0167
G1 X8.441 Y1.282 E0.01519
G1 X8.159 Y1.879 E0.03294
G1 X8.063 Y2.439 E0.02835
G1 X7.985 Y2.764 E0.01667
G1 X7.832 Y3.061 E0.01667
G1 X7.613 Y3.313 E0.01666
G1 X7.453 Y3.426 E0.00977
G1 X7.402 Y3.924 E0.02498
G1 X7.328 Y4.25 E0.01668
G1 X7.129 Y4.621 E0.021
G1 X6.738 Y5.142 E0.0325
G1 X6.416 Y5.452 E0.0223
G1 X5.577 Y6.034 E0.05094
G1 X5.282 Y6.191 E0.01667
G1 X4.958 Y6.273 E0.01667
G1 X4.624 Y6.275 E0.01666
G1 X4.299 Y6.199 E0.01665
G1 X4.106 Y6.101 E0.0108
G1 X3.644 Y6.174 E0.02334
G1 X3.524 Y6.166 E0.006
G1 X3.17 Y6.429 E0.022
G1 X2.855 Y6.541 E0.01668
G1 X2.268 Y6.572 E0.02933
G1 X1.937 Y6.528 E0.01666
G1 X1.361 Y6.258 E0.03174
G1 X0.447 Y6.45 E0.04659
G1 X-0.085 Y6.458 E0.02654
G1 X-.703 Y6.348 E0.03132
G1 X-1.168 Y6.177 E0.02472
G1 X-1.643 Y5.851 E0.02874
G1 X-2.356 Y5.477 E0.04017
G0 F2160 X-2.196 Y5.107
G1 F900 X-2.72 Y4.909 E0.02795
G1 X-2.825 Y4.809 E0.00723
G1 X-3.071 Y4.766 E0.01246
G1 X-3.324 Y4.64 E0.0141
G1 X-3.577 Y4.374 E0.01831
G1 X-3.854 Y4.384 E0.01383
G1 X-4.127 Y4.315 E0.01405
G1 X-4.454 Y4.084 E0.01997
G1 X-5.425 Y3.65 E0.05306
G1 X-5.914 Y3.389 E0.02765
G1 X-6.4 Y3.112 E0.02791
G1 X-6.577 Y2.982 E0.01096
G1 X-7.246 Y2.371 E0.0452
G1 X-7.465 Y2.084 E0.01801
G1 X-8.314 Y0.404 E0.09391
G1 X-8.404 Y0.137 E0.01406
G1 X-8.398 Y-.258 E0.01971
G1 X-8.328 Y-.619 E0.01835
G1 X-8.403 Y-.762 E0.00806
G1 X-8.458 Y-1.038 E0.01404
G1 X-8.434 Y-1.319 E0.01407
G1 X-8.207 Y-1.779 E0.02559
G1 X-8.039 Y-2.317 E0.02812
G1 X-7.734 Y-2.814 E0.02909
G1 X-7.47 Y-3.343 E0.0295
G1 X-7.174 Y-3.71 E0.02352
G1 X-6.831 Y-4.268 E0.03268
G1 X-6.383 Y-5.003 E0.04294
G1 X-6.204 Y-5.221 E0.01407
G1 X-5.881 Y-5.414 E0.01877
G1 X-5.547 Y-5.796 E0.02532
G1 X-4.531 Y-6.615 E0.06511
G1 X-4.238 Y-6.778 E0.01673
G1 X-3.633 Y-6.951 E0.03139
G1 X-3.02 Y-6.863 E0.0309
G1 X-2.748 Y-6.787 E0.01409
G1 X-2.593 Y-6.715 E0.00853
G1 X-2.067 Y-6.842 E0.027
G1 X-1.566 Y-6.735 E0.02556
G1 X-1.391 Y-6.851 E0.01047
G1 X-1.122 Y-6.936 E0.01407
G1 X-.73 Y-6.922 E0.01957
G1 X-.216 Y-6.778 E0.02663
G1 X0.056 Y-6.718 E0.0139
G1 X0.411 Y-6.556 E0.01947
G1 X0.61 Y-6.51 E0.01019
G1 X0.963 Y-6.35 E0.01934
G1 X1.255 Y-6.142 E0.01789
G1 X1.394 Y-6.165 E0.00703
G1 X1.674 Y-6.132 E0.01407
G1 X1.934 Y-6.021 E0.0141
G1 X2.439 Y-5.542 E0.03473
G1 X2.704 Y-5.491 E0.01346
G1 X2.955 Y-5.364 E0.01403
G1 X3.303 Y-4.996 E0.02527
G1 X4.074 Y-4.518 E0.04526
G1 X4.682 Y-4.345 E0.03154
G1 X4.94 Y-4.23 E0.01409
G1 X5.336 Y-3.864 E0.0269
G1 X5.502 Y-3.636 E0.01407
G1 X5.598 Y-3.371 E0.01406
G1 X5.609 Y-3.203 E0.0084
G1 X5.889 Y-3.031 E0.01639
G1 X6.153 Y-2.787 E0.01793
G1 X6.406 Y-2.791 E0.01262
G1 X6.679 Y-2.717 E0.01411
G1 X7.133 Y-2.394 E0.0278
G1 X7.353 Y-2.135 E0.01695
G1 X8.005 Y-1.084 E0.0617
G1 X8.118 Y-.826 E0.01405
G1 X8.155 Y-.573 E0.01276
G1 X8.175 Y0.668 E0.06192
G1 X8.14 Y0.948 E0.01408
G1 X8.079 Y1.111 E0.00868
G1 X7.786 Y1.73 E0.03417
G1 X7.72 Y1.938 E0.01089
G1 X7.594 Y2.665 E0.03681
G1 X7.448 Y2.907 E0.0141
G1 X7.241 Y3.098 E0.01405
G1 X7.076 Y3.18 E0.00919
G1 X7.004 Y3.883 E0.03526
G1 X6.936 Y4.157 E0.01408
G1 X6.809 Y4.381 E0.01285
G1 X6.418 Y4.902 E0.0325
G1 X6.188 Y5.124 E0.01595
G1 X5.349 Y5.706 E0.05094
G1 X5.097 Y5.832 E0.01406
G1 X4.819 Y5.883 E0.0141
G1 X4.539 Y5.855 E0.01404
G1 X4.144 Y5.68 E0.02155
G1 X3.88 Y5.745 E0.01356
G1 X3.362 Y5.745 E0.02584
G1 X3.206 Y5.927 E0.01196
G1 X2.97 Y6.081 E0.01406
G1 X2.536 Y6.175 E0.02215
G1 X1.994 Y6.129 E0.02714
G1 X1.428 Y5.836 E0.0318
G1 X0.365 Y6.059 E0.05419
G1 X-0.015 Y6.065 E0.01896
G1 X-.633 Y5.955 E0.03132
G1 X-.965 Y5.832 E0.01766
G1 X-1.395 Y5.533 E0.02613
G1 X-1.452 Y5.452 E0.00494
G1 X-1.81 Y5.334 E0.01881
G1 X-2.196 Y5.107 E0.02234
G0 F2160 X-2.033 Y4.739
G1 F900 X-2.543 Y4.544 E0.02724
G1 X-2.689 Y4.407 E0.00999
G1 X-2.878 Y4.404 E0.00943
G1 X-3.08 Y4.322 E0.01088
G1 X-3.269 Y4.13 E0.01344
G1 X-3.405 Y3.939 E0.0117
G1 X-3.86 Y3.979 E0.02279
G1 X-4.064 Y3.9 E0.01091
G1 X-4.229 Y3.747 E0.01123
G1 X-5.262 Y3.285 E0.05646
G1 X-5.738 Y3.03 E0.02694
G1 X-6.201 Y2.765 E0.02662
G1 X-6.308 Y2.687 E0.00661
G1 X-6.977 Y2.076 E0.0452
G1 X-7.108 Y1.904 E0.01079
G1 X-7.957 Y0.224 E0.09391
G1 X-8.018 Y0.014 E0.01091
G1 X-7.915 Y-.598 E0.03096
G1 X-8.056 Y-1.16 E0.02891
G1 X-7.961 Y-1.425 E0.01404
G1 X-7.827 Y-1.629 E0.01218
G1 X-7.698 Y-2.108 E0.02475
G1 X-7.378 Y-2.629 E0.0305
G1 X-7.159 Y-3.092 E0.02555
G1 X-6.837 Y-3.492 E0.02562
G1 X-6.499 Y-4.043 E0.03225
G1 X-6.041 Y-4.795 E0.04393
G1 X-5.896 Y-4.958 E0.01088
G1 X-5.64 Y-5.075 E0.01404
G1 X-5.296 Y-5.484 E0.02666
G1 X-4.28 Y-6.303 E0.06511
G1 X-3.775 Y-6.518 E0.02738
G1 X-3.56 Y-6.553 E0.01087
G1 X-2.864 Y-6.399 E0.03556
G1 X-2.666 Y-6.213 E0.01355
G1 X-2.471 Y-6.334 E0.01145
G1 X-2.007 Y-6.441 E0.02376
G1 X-1.459 Y-6.273 E0.0286
G1 X-1.338 Y-6.415 E0.00931
G1 X-1.146 Y-6.519 E0.01089
G1 X-.822 Y-6.533 E0.01618
G1 X-0.03 Y-6.327 E0.04083
G1 X0.254 Y-6.182 E0.01591
G1 X0.731 Y-6.025 E0.02505
G1 X1.114 Y-5.752 E0.02347
G1 X1.665 Y-5.712 E0.02756
G1 X1.854 Y-5.578 E0.01156
G1 X2.258 Y-5.151 E0.02933
G1 X2.621 Y-5.095 E0.01832
G1 X2.846 Y-4.924 E0.0141
G1 X3.035 Y-4.692 E0.01493
G1 X3.91 Y-4.148 E0.0514
G1 X4.573 Y-3.96 E0.03438
G1 X4.839 Y-3.801 E0.01546
G1 X5.17 Y-3.404 E0.02579
G1 X5.219 Y-3.191 E0.0109
G1 X5.173 Y-2.95 E0.01224
G1 X5.617 Y-2.738 E0.02455
G1 X5.894 Y-2.481 E0.01885
G1 X5.995 Y-2.316 E0.00965
G1 X6.265 Y-2.399 E0.01409
G1 X6.481 Y-2.365 E0.01091
G1 X6.878 Y-2.086 E0.02421
G1 X7.013 Y-1.924 E0.01052
G1 X7.665 Y-.873 E0.0617
G1 X7.755 Y-.567 E0.01591
G1 X7.775 Y0.674 E0.06192
G1 X7.717 Y0.94 E0.01358
G1 X7.414 Y1.58 E0.03533
G1 X7.327 Y1.851 E0.0142
G1 X7.269 Y2.345 E0.02482
G1 X7.204 Y2.554 E0.01092
G1 X7.07 Y2.725 E0.01084
G1 X6.882 Y2.837 E0.01092
G1 X6.705 Y2.874 E0.00902
G1 X6.606 Y3.842 E0.04855
G1 X6.489 Y4.141 E0.01602
G1 X6.098 Y4.662 E0.0325
G1 X5.96 Y4.795 E0.00956
G1 X5.121 Y5.377 E0.05094
G1 X4.922 Y5.467 E0.0109
G1 X4.704 Y5.479 E0.01089
G1 X4.496 Y5.413 E0.01089
G1 X4.326 Y5.277 E0.01086
G1 X4.267 Y5.177 E0.00579
G1 X4.048 Y5.292 E0.01234
G1 X3.56 Y5.369 E0.02465
G1 X3.126 Y5.31 E0.02185
G1 X3.064 Y5.48 E0.00903
G1 X2.921 Y5.644 E0.01086
G1 X2.728 Y5.747 E0.01091
G1 X2.277 Y5.772 E0.02254
G1 X1.989 Y5.694 E0.01489
G1 X1.493 Y5.413 E0.02844
G1 X0.283 Y5.667 E0.06168
G1 X0.055 Y5.671 E0.01138
G1 X-.563 Y5.561 E0.03132
G1 X-.971 Y5.364 E0.0226
G1 X-1.136 Y5.221 E0.01089
G1 X-1.224 Y5.057 E0.00929
G1 X-1.345 Y5.071 E0.00608
G1 X-1.607 Y4.989 E0.0137
G1 X-2.033 Y4.739 E0.02464
G0 F2160 X-2.234 Y4.261
G1 F900 X-2.436 Y4.052 E0.0145
G1 X-2.698 Y3.997 E0.01336
G1 X-2.779 Y4.015 E0.00414
G1 X-2.928 Y3.921 E0.00879
G1 X-3.103 Y3.635 E0.01673
G1 X-3.355 Y3.523 E0.01376
G1 X-3.713 Y3.587 E0.01814
G1 X-3.836 Y3.569 E0.0062
G1 X-3.949 Y3.434 E0.00878
G1 X-5.112 Y2.913 E0.06358
G1 X-5.539 Y2.683 E0.0242
G1 X-6.002 Y2.418 E0.02662
G1 X-6.038 Y2.392 E0.00222
G1 X-6.707 Y1.781 E0.0452
G1 X-6.751 Y1.723 E0.00363
G1 X-7.6 Y0.043 E0.09391
G1 X-7.616 Y-0.089 E0.00663
G1 X-7.507 Y-.594 E0.02577
G1 X-7.569 Y-.904 E0.01577
G1 X-7.66 Y-1.097 E0.01065
G1 X-7.449 Y-1.475 E0.0216
G1 X-7.357 Y-1.899 E0.02165
G1 X-7.021 Y-2.446 E0.03203
G1 X-6.848 Y-2.841 E0.02151
G1 X-6.502 Y-3.27 E0.0275
G1 X-6.173 Y-3.81 E0.03155
G1 X-5.7 Y-4.587 E0.04538
G1 X-5.583 Y-4.676 E0.00733
G1 X-5.407 Y-4.725 E0.00911
G1 X-5.075 Y-5.142 E0.02659
G1 X-5.045 Y-5.173 E0.00215
G1 X-4.029 Y-5.992 E0.06511
G1 X-3.641 Y-6.141 E0.02074
G1 X-3.124 Y-6.069 E0.02604
G1 X-3.011 Y-6.015 E0.00625
G1 X-2.953 Y-5.905 E0.0062
G1 X-3.069 Y-5.473 E0.02232
G1 X-2.985 Y-4.883 E0.02973
G1 X-2.441 Y-4.226 E0.04256
G1 X-2.228 Y-4.018 E0.01485
G1 X-2.068 Y-4 E0.00803
G1 X-1.881 Y-4.205 E0.01384
G1 X-1.47 Y-4.346 E0.02168
G1 X-.996 Y-5.015 E0.04091
G1 X-.944 Y-5.555 E0.02707
G1 X-1.128 Y-5.841 E0.01697
G1 X-1.16 Y-5.961 E0.0062
G1 X-1.113 Y-6.077 E0.00624
G1 X-1.007 Y-6.143 E0.00623
G1 X-.914 Y-6.144 E0.00464
G1 X-.116 Y-5.936 E0.04114
G1 X0.083 Y-5.811 E0.01172
G1 X0.499 Y-5.699 E0.02149
G1 X0.958 Y-5.372 E0.02812
G1 X1.261 Y-5.325 E0.0153
G1 X1.482 Y-5.354 E0.01112
G1 X1.563 Y-5.303 E0.00478
G1 X2.078 Y-4.759 E0.03737
G1 X2.39 Y-4.745 E0.01558
G1 X2.536 Y-4.671 E0.00817
G1 X2.767 Y-4.387 E0.01826
G1 X3.747 Y-3.779 E0.05754
G1 X4.464 Y-3.575 E0.03719
G1 X4.762 Y-3.306 E0.02003
G1 X4.817 Y-3.194 E0.00623
G1 X4.795 Y-3.071 E0.00623
G1 X4.657 Y-2.971 E0.0085
G1 X4.275 Y-2.897 E0.01941
G1 X3.893 Y-2.63 E0.02325
G1 X3.604 Y-2.273 E0.02292
G1 X3.468 Y-1.791 E0.02499
G1 X3.513 Y-.986 E0.04022
G1 X3.984 Y-.596 E0.03051
G1 X4.493 Y-.665 E0.02563
G1 X4.975 Y-.822 E0.02529
G1 X5.595 Y-.823 E0.03093
G1 X5.967 Y-1.135 E0.02422
G1 X6.107 Y-1.689 E0.02851
G1 X6.095 Y-1.867 E0.0089
G1 X6.172 Y-1.965 E0.00622
G1 X6.292 Y-1.999 E0.00622
G1 X6.41 Y-1.953 E0.00632
G1 X6.68 Y-1.702 E0.01839
G1 X7.325 Y-.662 E0.06105
G1 X7.355 Y-.56 E0.0053
G1 X7.375 Y0.681 E0.06192
G1 X7.356 Y0.769 E0.00449
G1 X7.039 Y1.439 E0.03698
G1 X6.935 Y1.763 E0.01698
G1 X6.872 Y2.298 E0.02688
G1 X6.819 Y2.412 E0.00627
G1 X6.683 Y2.475 E0.00748
G1 X6.508 Y2.484 E0.00874
G1 X6.325 Y2.657 E0.01256
G1 X6.208 Y3.801 E0.05737
G1 X6.169 Y3.901 E0.00536
G1 X5.778 Y4.422 E0.0325
G1 X5.732 Y4.466 E0.00318
G1 X4.893 Y5.048 E0.05094
G1 X4.773 Y5.084 E0.00625
G1 X4.656 Y5.042 E0.0062
G1 X4.577 Y4.862 E0.00981
G1 X4.587 Y4.607 E0.01273
G1 X4.812 Y4.252 E0.02097
G1 X4.745 Y4.158 E0.00576
G1 X4.375 Y3.951 E0.02115
G1 X4.161 Y3.709 E0.01612
G1 X3.573 Y3.474 E0.03159
G1 X3.083 Y3.532 E0.02462
G1 X2.693 Y3.828 E0.02443
G1 X2.421 Y4.602 E0.04093
G1 X2.716 Y5.068 E0.02752
G1 X2.747 Y5.189 E0.00623
G1 X2.699 Y5.305 E0.00626
G1 X2.545 Y5.375 E0.00844
G1 X2.186 Y5.346 E0.01797
G1 X1.559 Y4.991 E0.03595
G1 X0.201 Y5.276 E0.06923
G1 X0.125 Y5.277 E0.00379
G1 X-.493 Y5.167 E0.03132
G1 X-.768 Y5.019 E0.01558
