;FLAVOR:Makerbot
;TIME:3232
;MINX:-31.1
;MINY:-31.1
;MINZ:0.3
;MAXX:112.5
;MAXY:73
;MAXZ:11
;Generated with Cura_SteamEngine 4.7.1
T0
M82 ;absolute extrusion mode
; **** FlashForge Creator Pro PRINTER start.gcode for dual extrusion only ****
M83 ; relative extrusion mode
M73 P0 ; enable build progress
G162 X Y F3000 ; home XY maximum
G161 Z F1200 ; home Z minimum
G92 Z-5 ; set Z to -5
G1 Z0 ; move Z to 0
G161 Z F100 ; home Z slowly
M132 X Y Z A B ; recall home offsets
M135 T0 ; load right extruder offsets
G1 X150 Y-70 Z30 F9000 ; move to wait position right hand side of the table
G130 X20 Y20 Z20 A20 B20 ; lower stepper Vrefs while heating
M127
M140 S60 T0 ; set bed temperature
M134 T0 ; stabilize bed temperature
M104 S200 T0 ; set right extruder temp
M104 S228 T1 ; set left extruder temp
M133 T0 ; stabilize right extruder temperature
M133 T1 ; stabilize left extruder temperature
G130 X127 Y127 Z40 A127 B127 ; default stepper Vrefs
G92 A0 B0 ; zero extruders
M135 T0 ; right tool
G1 Z0.4 ; position nozzle
G1 X110 Y-70 E25 F300 ; purge nozzle
G1 X120 Y-70 Z0.15 F1200 ; slow wipe
G1 X110 Y-70 Z0.5 F1200 ; lift
G1 Z4 F1200 ; raise
G1 X-110 F4000 ; move nozzle to left side of bed
G1 Z0.4 F1200 ; lower
M135 T1 ; left tool
G1 X-140 Y-70 F9000 ; reposition nozzle
G1 X-100 Y-70 E25 F300 ; purge nozzle
G1 X-110 Y-70 Z0.15 F1200 ; slow wipe
G1 X-100 Y-70 Z0.5 F1200 ; lift
G92 A0 B0 ; zero extruders
M135 T0 ; left or right tool
M73 P1 ;@body (notify GPX body has started)
; **** end of start.gcode ****
M83 ;relative extrusion mode
G1 F1800 E-1.3
;LAYER_COUNT:98
;LAYER:0
M127 T0
M104 T1 S175
G0 F1800 X15.3 Y-6.68 Z0.3
;TYPE:SKIRT
G1 F1800 E1.3
G1 F900 X15.3 Y7.5 E0.70744
G1 X15.26 Y8.289 E0.03941
G1 X15.141 Y9.069 E0.03936
G1 X14.943 Y9.834 E0.03942
G1 X14.669 Y10.574 E0.03937
G1 X14.321 Y11.283 E0.0394
G1 X13.903 Y11.954 E0.03944
G1 X13.42 Y12.578 E0.03937
G1 X12.877 Y13.151 E0.03938
G1 X12.278 Y13.666 E0.03941
G1 X11.63 Y14.117 E0.03939
G1 X10.939 Y14.501 E0.03944
G1 X10.214 Y14.813 E0.03938
G1 X9.461 Y15.05 E0.03938
G1 X8.687 Y15.209 E0.03942
G1 X7.902 Y15.29 E0.03937
G1 X7.5 Y15.3 E0.02006
G1 X-6.914 Y15.3 E0.71912
G1 X-7.416 Y15.337 E0.02511
G1 X-8.205 Y15.315 E0.03938
G1 X-8.32 Y15.3 E0.00579
G1 X-22.5 Y15.3 E0.70744
G1 X-23.289 Y15.26 E0.03941
G1 X-24.069 Y15.141 E0.03936
G1 X-24.834 Y14.943 E0.03942
G1 X-25.574 Y14.669 E0.03937
G1 X-26.283 Y14.321 E0.0394
G1 X-26.954 Y13.903 E0.03944
G1 X-27.578 Y13.42 E0.03937
G1 X-28.151 Y12.877 E0.03938
G1 X-28.666 Y12.278 E0.03941
G1 X-29.117 Y11.63 E0.03939
G1 X-29.501 Y10.939 E0.03944
G1 X-29.813 Y10.214 E0.03938
G1 X-30.05 Y9.461 E0.03938
G1 X-30.209 Y8.687 E0.03942
G1 X-30.29 Y7.902 E0.03937
G1 X-30.3 Y7.5 E0.02006
G1 X-30.3 Y-7.5 E0.74835
G1 X-30.26 Y-8.289 E0.03941
G1 X-30.141 Y-9.069 E0.03936
G1 X-29.943 Y-9.834 E0.03942
G1 X-29.669 Y-10.574 E0.03937
G1 X-29.321 Y-11.283 E0.0394
G1 X-28.903 Y-11.954 E0.03944
G1 X-28.42 Y-12.578 E0.03937
G1 X-27.877 Y-13.151 E0.03938
G1 X-27.278 Y-13.666 E0.03941
G1 X-26.63 Y-14.117 E0.03939
G1 X-25.939 Y-14.501 E0.03944
G1 X-25.214 Y-14.813 E0.03938
G1 X-24.461 Y-15.05 E0.03938
G1 X-23.687 Y-15.209 E0.03942
G1 X-22.902 Y-15.29 E0.03937
G1 X-22.5 Y-15.3 E0.02006
G1 X-15.3 Y-15.3 E0.35921
G1 X-15.3 Y-22.5 E0.35921
G1 X-15.26 Y-23.289 E0.03941
G1 X-15.141 Y-24.069 E0.03936
G1 X-14.943 Y-24.834 E0.03942
G1 X-14.669 Y-25.574 E0.03937
G1 X-14.321 Y-26.283 E0.0394
G1 X-13.903 Y-26.954 E0.03944
G1 X-13.42 Y-27.578 E0.03937
G1 X-12.877 Y-28.151 E0.03938
G1 X-12.278 Y-28.666 E0.03941
G1 X-11.63 Y-29.117 E0.03939
G1 X-10.939 Y-29.501 E0.03944
G1 X-10.214 Y-29.813 E0.03938
G1 X-9.461 Y-30.05 E0.03938
G1 X-8.687 Y-30.209 E0.03942
G1 X-7.902 Y-30.29 E0.03937
G1 X-7.5 Y-30.3 E0.02006
G1 X7.5 Y-30.3 E0.74835
G1 X8.289 Y-30.26 E0.03941
G1 X9.069 Y-30.141 E0.03936
G1 X9.834 Y-29.943 E0.03942
G1 X10.574 Y-29.669 E0.03937
G1 X11.283 Y-29.321 E0.0394
G1 X11.954 Y-28.903 E0.03944
G1 X12.578 Y-28.42 E0.03937
G1 X13.151 Y-27.877 E0.03938
G1 X13.666 Y-27.278 E0.03941
G1 X14.117 Y-26.63 E0.03939
G1 X14.501 Y-25.939 E0.03944
G1 X14.813 Y-25.214 E0.03938
G1 X15.05 Y-24.461 E0.03938
G1 X15.209 Y-23.687 E0.03942
G1 X15.29 Y-22.902 E0.03937
G1 X15.3 Y-22.5 E0.02006
G1 X15.3 Y-8.086 E0.71912
G1 X15.337 Y-7.584 E0.02511
G1 X15.315 Y-6.795 E0.03938
G1 X15.3 Y-6.68 E0.00579
G0 F1800 X14.911 Y-6.766
G1 F900 X14.9 Y-6.687 E0.00398
G1 X14.9 Y7.5 E0.70779
G1 X14.86 Y8.268 E0.03837
G1 X14.741 Y9.028 E0.03838
G1 X14.543 Y9.771 E0.03836
G1 X14.269 Y10.49 E0.03839
G1 X13.922 Y11.176 E0.03835
G1 X13.506 Y11.823 E0.03838
G1 X13.025 Y12.423 E0.03837
G1 X12.484 Y12.97 E0.03838
G1 X11.889 Y13.458 E0.03839
G1 X11.247 Y13.881 E0.03836
G1 X10.564 Y14.236 E0.0384
G1 X9.849 Y14.517 E0.03833
G1 X9.107 Y14.723 E0.03842
G1 X8.349 Y14.851 E0.03835
G1 X7.5 Y14.9 E0.04243
G1 X-6.925 Y14.9 E0.71967
G1 X-7.465 Y14.938 E0.02701
G1 X-8.234 Y14.911 E0.03839
G1 X-8.313 Y14.9 E0.00398
G1 X-22.5 Y14.9 E0.70779
G1 X-23.268 Y14.86 E0.03837
G1 X-24.028 Y14.741 E0.03838
G1 X-24.771 Y14.543 E0.03836
G1 X-25.49 Y14.269 E0.03839
G1 X-26.176 Y13.922 E0.03835
G1 X-26.823 Y13.506 E0.03838
G1 X-27.423 Y13.025 E0.03837
G1 X-27.97 Y12.484 E0.03838
G1 X-28.458 Y11.889 E0.03839
G1 X-28.881 Y11.247 E0.03836
G1 X-29.236 Y10.564 E0.0384
G1 X-29.517 Y9.849 E0.03833
G1 X-29.723 Y9.107 E0.03842
G1 X-29.851 Y8.349 E0.03835
G1 X-29.9 Y7.5 E0.04243
G1 X-29.9 Y-7.5 E0.74835
G1 X-29.86 Y-8.268 E0.03837
G1 X-29.741 Y-9.028 E0.03838
G1 X-29.543 Y-9.771 E0.03836
G1 X-29.269 Y-10.49 E0.03839
G1 X-28.922 Y-11.176 E0.03835
G1 X-28.506 Y-11.823 E0.03838
G1 X-28.025 Y-12.423 E0.03837
G1 X-27.484 Y-12.97 E0.03838
G1 X-26.889 Y-13.458 E0.03839
G1 X-26.247 Y-13.881 E0.03836
G1 X-25.564 Y-14.236 E0.0384
G1 X-24.849 Y-14.517 E0.03833
G1 X-24.107 Y-14.723 E0.03842
G1 X-23.349 Y-14.851 E0.03835
G1 X-22.5 Y-14.9 E0.04243
G1 X-14.9 Y-14.9 E0.37917
G1 X-14.9 Y-22.5 E0.37917
G1 X-14.86 Y-23.268 E0.03837
G1 X-14.741 Y-24.028 E0.03838
G1 X-14.543 Y-24.771 E0.03836
G1 X-14.269 Y-25.49 E0.03839
G1 X-13.922 Y-26.176 E0.03835
G1 X-13.506 Y-26.823 E0.03838
G1 X-13.025 Y-27.423 E0.03837
G1 X-12.484 Y-27.97 E0.03838
G1 X-11.889 Y-28.458 E0.03839
G1 X-11.247 Y-28.881 E0.03836
G1 X-10.564 Y-29.236 E0.0384
G1 X-9.849 Y-29.517 E0.03833
G1 X-9.107 Y-29.723 E0.03842
G1 X-8.349 Y-29.851 E0.03835
G1 X-7.5 Y-29.9 E0.04243
G1 X7.5 Y-29.9 E0.74835
G1 X8.268 Y-29.86 E0.03837
G1 X9.028 Y-29.741 E0.03838
G1 X9.771 Y-29.543 E0.03836
G1 X10.49 Y-29.269 E0.03839
G1 X11.176 Y-28.922 E0.03835
G1 X11.823 Y-28.506 E0.03838
G1 X12.423 Y-28.025 E0.03837
G1 X12.97 Y-27.484 E0.03838
G1 X13.458 Y-26.889 E0.03839
G1 X13.881 Y-26.247 E0.03836
G1 X14.236 Y-25.564 E0.0384
G1 X14.517 Y-24.849 E0.03833
G1 X14.723 Y-24.107 E0.03842
G1 X14.851 Y-23.349 E0.03835
G1 X14.9 Y-22.5 E0.04243
G1 X14.9 Y-8.075 E0.71967
G1 X14.938 Y-7.535 E0.02701
G1 X14.911 Y-6.766 E0.03839
G0 F1800 X14.507 Y-6.739
G1 F900 X14.5 Y-6.692 E0.00237
G1 X14.5 Y7.5 E0.70804
G1 X14.46 Y8.247 E0.03732
G1 X14.341 Y8.985 E0.03729
G1 X14.143 Y9.707 E0.03735
G1 X13.87 Y10.403 E0.0373
G1 X13.523 Y11.066 E0.03733
G1 X13.108 Y11.689 E0.03735
G1 X12.629 Y12.263 E0.0373
G1 X12.092 Y12.784 E0.03733
G1 X11.502 Y13.243 E0.03729
G1 X10.866 Y13.638 E0.03735
G1 X10.192 Y13.962 E0.03731
G1 X9.487 Y14.212 E0.03732
G1 X8.759 Y14.386 E0.03734
G1 X8.017 Y14.481 E0.03732
G1 X7.5 Y14.5 E0.02581
G1 X-6.919 Y14.5 E0.71937
G1 X-7.513 Y14.539 E0.0297
G1 X-8.261 Y14.507 E0.03735
G1 X-8.308 Y14.5 E0.00237
G1 X-22.5 Y14.5 E0.70804
G1 X-23.247 Y14.46 E0.03732
G1 X-23.985 Y14.341 E0.03729
G1 X-24.707 Y14.143 E0.03735
G1 X-25.403 Y13.87 E0.0373
G1 X-26.066 Y13.523 E0.03733
G1 X-26.689 Y13.108 E0.03735
G1 X-27.263 Y12.629 E0.0373
G1 X-27.784 Y12.092 E0.03733
G1 X-28.243 Y11.502 E0.03729
G1 X-28.638 Y10.866 E0.03735
G1 X-28.962 Y10.192 E0.03731
G1 X-29.212 Y9.487 E0.03732
G1 X-29.386 Y8.759 E0.03734
G1 X-29.481 Y8.017 E0.03732
G1 X-29.5 Y7.5 E0.02581
G1 X-29.5 Y-7.5 E0.74835
G1 X-29.46 Y-8.247 E0.03732
G1 X-29.341 Y-8.985 E0.03729
G1 X-29.143 Y-9.707 E0.03735
G1 X-28.87 Y-10.403 E0.0373
G1 X-28.523 Y-11.066 E0.03733
G1 X-28.108 Y-11.689 E0.03735
G1 X-27.629 Y-12.263 E0.0373
G1 X-27.092 Y-12.784 E0.03733
G1 X-26.502 Y-13.243 E0.03729
G1 X-25.866 Y-13.638 E0.03735
G1 X-25.192 Y-13.962 E0.03731
G1 X-24.487 Y-14.212 E0.03732
G1 X-23.759 Y-14.386 E0.03734
G1 X-23.017 Y-14.481 E0.03732
G1 X-22.5 Y-14.5 E0.02581
G1 X-14.5 Y-14.5 E0.39912
G1 X-14.5 Y-22.5 E0.39912
G1 X-14.46 Y-23.247 E0.03732
G1 X-14.341 Y-23.985 E0.03729
G1 X-14.143 Y-24.707 E0.03735
G1 X-13.87 Y-25.403 E0.0373
G1 X-13.523 Y-26.066 E0.03733
G1 X-13.108 Y-26.689 E0.03735
G1 X-12.629 Y-27.263 E0.0373
G1 X-12.092 Y-27.784 E0.03733
G1 X-11.502 Y-28.243 E0.03729
G1 X-10.866 Y-28.638 E0.03735
G1 X-10.192 Y-28.962 E0.03731
G1 X-9.487 Y-29.212 E0.03732
G1 X-8.759 Y-29.386 E0.03734
G1 X-8.017 Y-29.481 E0.03732
G1 X-7.5 Y-29.5 E0.02581
G1 X7.5 Y-29.5 E0.74835
G1 X8.247 Y-29.46 E0.03732
G1 X8.985 Y-29.341 E0.03729
G1 X9.707 Y-29.143 E0.03735
G1 X10.403 Y-28.87 E0.0373
G1 X11.066 Y-28.523 E0.03733
G1 X11.689 Y-28.108 E0.03735
G1 X12.263 Y-27.629 E0.0373
G1 X12.784 Y-27.092 E0.03733
G1 X13.243 Y-26.502 E0.03729
G1 X13.638 Y-25.866 E0.03735
G1 X13.962 Y-25.192 E0.03731
G1 X14.212 Y-24.487 E0.03732
G1 X14.386 Y-23.759 E0.03734
G1 X14.481 Y-23.017 E0.03732
G1 X14.5 Y-22.5 E0.02581
G1 X14.5 Y-8.081 E0.71937
G1 X14.539 Y-7.487 E0.0297
G1 X14.507 Y-6.739 E0.03735
G0 F1800 X14.103 Y-6.714
G1 F900 X14.1 Y-6.695 E0.00096
G1 X14.1 Y7.5 E0.70819
G1 X14.06 Y8.225 E0.03623
G1 X13.941 Y8.942 E0.03626
G1 X13.743 Y9.641 E0.03625
G1 X13.47 Y10.314 E0.03623
G1 X13.125 Y10.953 E0.03623
G1 X12.711 Y11.55 E0.03625
G1 X12.235 Y12.098 E0.03621
G1 X11.701 Y12.591 E0.03626
G1 X11.116 Y13.021 E0.03622
G1 X10.487 Y13.385 E0.03626
G1 X9.822 Y13.678 E0.03625
G1 X9.129 Y13.896 E0.03624
G1 X8.417 Y14.036 E0.0362
G1 X7.5 Y14.1 E0.04586
G1 X-6.917 Y14.1 E0.71927
G1 X-7.56 Y14.139 E0.03214
G1 X-8.286 Y14.103 E0.03626
G1 X-8.305 Y14.1 E0.00096
G1 X-22.5 Y14.1 E0.70819
G1 X-23.225 Y14.06 E0.03623
G1 X-23.942 Y13.941 E0.03626
G1 X-24.641 Y13.743 E0.03625
G1 X-25.314 Y13.47 E0.03623
G1 X-25.953 Y13.125 E0.03623
G1 X-26.55 Y12.711 E0.03625
G1 X-27.098 Y12.235 E0.03621
G1 X-27.591 Y11.701 E0.03626
G1 X-28.021 Y11.116 E0.03622
G1 X-28.385 Y10.487 E0.03626
G1 X-28.678 Y9.822 E0.03625
G1 X-28.896 Y9.129 E0.03624
G1 X-29.036 Y8.417 E0.0362
G1 X-29.1 Y7.5 E0.04586
G1 X-29.1 Y-7.5 E0.74835
G1 X-29.06 Y-8.225 E0.03623
G1 X-28.941 Y-8.942 E0.03626
G1 X-28.743 Y-9.641 E0.03625
G1 X-28.47 Y-10.314 E0.03623
G1 X-28.125 Y-10.953 E0.03623
G1 X-27.711 Y-11.55 E0.03625
G1 X-27.235 Y-12.098 E0.03621
G1 X-26.701 Y-12.591 E0.03626
G1 X-26.116 Y-13.021 E0.03622
G1 X-25.487 Y-13.385 E0.03626
G1 X-24.822 Y-13.678 E0.03625
G1 X-24.129 Y-13.896 E0.03624
G1 X-23.417 Y-14.036 E0.0362
G1 X-22.5 Y-14.1 E0.04586
G1 X-14.1 Y-14.1 E0.41908
G1 X-14.1 Y-22.5 E0.41908
G1 X-14.06 Y-23.225 E0.03623
G1 X-13.941 Y-23.942 E0.03626
G1 X-13.743 Y-24.641 E0.03625
G1 X-13.47 Y-25.314 E0.03623
G1 X-13.125 Y-25.953 E0.03623
G1 X-12.711 Y-26.55 E0.03625
G1 X-12.235 Y-27.098 E0.03621
G1 X-11.701 Y-27.591 E0.03626
G1 X-11.116 Y-28.021 E0.03622
G1 X-10.487 Y-28.385 E0.03626
G1 X-9.822 Y-28.678 E0.03625
G1 X-9.129 Y-28.896 E0.03624
G1 X-8.417 Y-29.036 E0.0362
G1 X-7.5 Y-29.1 E0.04586
G1 X7.5 Y-29.1 E0.74835
G1 X8.225 Y-29.06 E0.03623
G1 X8.942 Y-28.941 E0.03626
G1 X9.641 Y-28.743 E0.03625
G1 X10.314 Y-28.47 E0.03623
G1 X10.953 Y-28.125 E0.03623
G1 X11.55 Y-27.711 E0.03625
G1 X12.098 Y-27.235 E0.03621
G1 X12.591 Y-26.701 E0.03626
G1 X13.021 Y-26.116 E0.03622
G1 X13.385 Y-25.487 E0.03626
G1 X13.678 Y-24.822 E0.03625
G1 X13.896 Y-24.129 E0.03624
G1 X14.036 Y-23.417 E0.0362
G1 X14.1 Y-22.5 E0.04586
G1 X14.1 Y-8.083 E0.71927
G1 X14.139 Y-7.44 E0.03214
G1 X14.103 Y-6.714 E0.03626
G0 F1800 X13.7 Y-6.726
G1 F900 X13.7 Y7.5 E0.70974
G1 X13.66 Y8.203 E0.03513
G1 X13.541 Y8.897 E0.03513
G1 X13.343 Y9.572 E0.03509
G1 X13.071 Y10.221 E0.03511
G1 X12.726 Y10.835 E0.03514
G1 X12.315 Y11.406 E0.0351
G1 X11.841 Y11.927 E0.03514
G1 X11.311 Y12.391 E0.03514
G1 X10.732 Y12.791 E0.03511
G1 X10.111 Y13.123 E0.03513
G1 X9.457 Y13.383 E0.03511
G1 X8.777 Y13.567 E0.03515
G1 X8.081 Y13.673 E0.03512
G1 X7.5 Y13.7 E0.02902
G1 X-6.903 Y13.7 E0.71857
G1 X-7.606 Y13.739 E0.03513
G1 X-8.274 Y13.7 E0.03338
G1 X-22.5 Y13.7 E0.70974
G1 X-23.203 Y13.66 E0.03513
G1 X-23.897 Y13.541 E0.03513
G1 X-24.572 Y13.343 E0.03509
G1 X-25.221 Y13.071 E0.03511
G1 X-25.835 Y12.726 E0.03514
G1 X-26.406 Y12.315 E0.0351
G1 X-26.927 Y11.841 E0.03514
G1 X-27.391 Y11.311 E0.03514
G1 X-27.791 Y10.732 E0.03511
G1 X-28.123 Y10.111 E0.03513
G1 X-28.383 Y9.457 E0.03511
G1 X-28.567 Y8.777 E0.03515
G1 X-28.673 Y8.081 E0.03512
G1 X-28.7 Y7.5 E0.02902
G1 X-28.7 Y-7.5 E0.74835
G1 X-28.66 Y-8.203 E0.03513
G1 X-28.541 Y-8.897 E0.03513
G1 X-28.343 Y-9.572 E0.03509
G1 X-28.071 Y-10.221 E0.03511
G1 X-27.726 Y-10.835 E0.03514
G1 X-27.315 Y-11.406 E0.0351
G1 X-26.841 Y-11.927 E0.03514
G1 X-26.311 Y-12.391 E0.03514
G1 X-25.732 Y-12.791 E0.03511
G1 X-25.111 Y-13.123 E0.03513
G1 X-24.457 Y-13.383 E0.03511
G1 X-23.777 Y-13.567 E0.03515
G1 X-23.081 Y-13.673 E0.03512
G1 X-22.5 Y-13.7 E0.02902
G1 X-13.7 Y-13.7 E0.43903
G1 X-13.7 Y-22.5 E0.43903
G1 X-13.66 Y-23.203 E0.03513
G1 X-13.541 Y-23.897 E0.03513
G1 X-13.343 Y-24.572 E0.03509
G1 X-13.071 Y-25.221 E0.03511
G1 X-12.726 Y-25.835 E0.03514
G1 X-12.315 Y-26.406 E0.0351
G1 X-11.841 Y-26.927 E0.03514
G1 X-11.311 Y-27.391 E0.03514
G1 X-10.732 Y-27.791 E0.03511
G1 X-10.111 Y-28.123 E0.03513
G1 X-9.457 Y-28.383 E0.03511
G1 X-8.777 Y-28.567 E0.03515
G1 X-8.081 Y-28.673 E0.03512
G1 X-7.5 Y-28.7 E0.02902
G1 X7.5 Y-28.7 E0.74835
G1 X8.203 Y-28.66 E0.03513
G1 X8.897 Y-28.541 E0.03513
G1 X9.572 Y-28.343 E0.03509
G1 X10.221 Y-28.071 E0.03511
G1 X10.835 Y-27.726 E0.03514
G1 X11.406 Y-27.315 E0.0351
G1 X11.927 Y-26.841 E0.03514
G1 X12.391 Y-26.311 E0.03514
G1 X12.791 Y-25.732 E0.03511
G1 X13.123 Y-25.111 E0.03513
G1 X13.383 Y-24.457 E0.03511
G1 X13.567 Y-23.777 E0.03515
G1 X13.673 Y-23.081 E0.03512
G1 X13.7 Y-22.5 E0.02902
G1 X13.7 Y-8.097 E0.71857
G1 X13.739 Y-7.394 E0.03513
G1 X13.7 Y-6.726 E0.03338
G0 F1800 X13.3 Y-6.787
G1 F900 X13.3 Y7.5 E0.71278
G1 X13.26 Y8.18 E0.03398
G1 X13.141 Y8.85 E0.03395
G1 X12.944 Y9.502 E0.03398
G1 X12.672 Y10.126 E0.03396
G1 X12.328 Y10.714 E0.03399
G1 X11.918 Y11.258 E0.03399
G1 X11.447 Y11.749 E0.03394
G1 X10.922 Y12.183 E0.03398
G1 X10.35 Y12.552 E0.03396
G1 X9.738 Y12.851 E0.03398
G1 X9.096 Y13.076 E0.03394
G1 X8.431 Y13.225 E0.034
G1 X7.5 Y13.3 E0.0466
G1 X-6.94 Y13.3 E0.72041
G1 X-6.97 Y13.305 E0.00152
G1 X-7.65 Y13.339 E0.03397
G1 X-8.213 Y13.3 E0.02816
G1 X-22.5 Y13.3 E0.71278
G1 X-23.18 Y13.26 E0.03398
G1 X-23.85 Y13.141 E0.03395
G1 X-24.502 Y12.944 E0.03398
G1 X-25.126 Y12.672 E0.03396
G1 X-25.714 Y12.328 E0.03399
G1 X-26.258 Y11.918 E0.03399
G1 X-26.749 Y11.447 E0.03394
G1 X-27.183 Y10.922 E0.03398
G1 X-27.552 Y10.35 E0.03396
G1 X-27.851 Y9.738 E0.03398
G1 X-28.076 Y9.096 E0.03394
G1 X-28.225 Y8.431 E0.034
G1 X-28.3 Y7.5 E0.0466
G1 X-28.3 Y-7.5 E0.74835
G1 X-28.26 Y-8.18 E0.03398
G1 X-28.141 Y-8.85 E0.03395
G1 X-27.944 Y-9.502 E0.03398
G1 X-27.672 Y-10.126 E0.03396
G1 X-27.328 Y-10.714 E0.03399
G1 X-26.918 Y-11.258 E0.03399
G1 X-26.447 Y-11.749 E0.03394
G1 X-25.922 Y-12.183 E0.03398
G1 X-25.35 Y-12.552 E0.03396
G1 X-24.738 Y-12.851 E0.03398
G1 X-24.096 Y-13.076 E0.03394
G1 X-23.431 Y-13.225 E0.034
G1 X-22.5 Y-13.3 E0.0466
G1 X-13.3 Y-13.3 E0.45899
G1 X-13.3 Y-22.5 E0.45899
G1 X-13.26 Y-23.18 E0.03398
G1 X-13.141 Y-23.85 E0.03395
G1 X-12.944 Y-24.502 E0.03398
G1 X-12.672 Y-25.126 E0.03396
G1 X-12.328 Y-25.714 E0.03399
G1 X-11.918 Y-26.258 E0.03399
G1 X-11.447 Y-26.749 E0.03394
G1 X-10.922 Y-27.183 E0.03398
G1 X-10.35 Y-27.552 E0.03396
G1 X-9.738 Y-27.851 E0.03398
G1 X-9.096 Y-28.076 E0.03394
G1 X-8.431 Y-28.225 E0.034
G1 X-7.5 Y-28.3 E0.0466
G1 X7.5 Y-28.3 E0.74835
G1 X8.18 Y-28.26 E0.03398
G1 X8.85 Y-28.141 E0.03395
G1 X9.502 Y-27.944 E0.03398
G1 X10.126 Y-27.672 E0.03396
G1 X10.714 Y-27.328 E0.03399
G1 X11.258 Y-26.918 E0.03399
G1 X11.749 Y-26.447 E0.03394
