;FLAVOR:Makerbot
;TIME:4783
;MINX:-46.7
;MINY:-14.95
;MINZ:0.3
;MAXX:112.5
;MAXY:73
;MAXZ:13.7
;Generated with Cura_SteamEngine 4.7.1
T0
M82 ;absolute extrusion mode
; **** FlashForge Creator Pro PRINTER start.gcode for dual extrusion only ****
M83 ; relative extrusion mode
M73 P0 ; enable build progress
G162 X Y F3000 ; home XY maximum
G161 Z F1200 ; home Z minimum
G92 Z-5 ; set Z to -5
G1 Z0 ; move Z to 0
G161 Z F100 ; home Z slowly
M132 X Y Z A B ; recall home offsets
M135 T0 ; load right extruder offsets
G1 X150 Y-70 Z30 F9000 ; move to wait position right hand side of the table
G130 X20 Y20 Z20 A20 B20 ; lower stepper Vrefs while heating
M127
M140 S60 T0 ; set bed temperature
M134 T0 ; stabilize bed temperature
M104 S200 T0 ; set right extruder temp
M104 S228 T1 ; set left extruder temp
M133 T0 ; stabilize right extruder temperature
M133 T1 ; stabilize left extruder temperature
G130 X127 Y127 Z40 A127 B127 ; default stepper Vrefs
G92 A0 B0 ; zero extruders
M135 T0 ; right tool
G1 Z0.4 ; position nozzle
G1 X110 Y-70 E25 F300 ; purge nozzle
G1 X120 Y-70 Z0.15 F1200 ; slow wipe
G1 X110 Y-70 Z0.5 F1200 ; lift
G1 Z4 F1200 ; raise
G1 X-110 F4000 ; move nozzle to left side of bed
G1 Z0.4 F1200 ; lower
M135 T1 ; left tool
G1 X-140 Y-70 F9000 ; reposition nozzle
G1 X-100 Y-70 E25 F300 ; purge nozzle
G1 X-110 Y-70 Z0.15 F1200 ; slow wipe
G1 X-100 Y-70 Z0.5 F1200 ; lift
G92 A0 B0 ; zero extruders
M135 T0 ; left or right tool
M73 P1 ;@body (notify GPX body has started)
; **** end of start.gcode ****
M83 ;relative extrusion mode
G1 F1800 E-1.3
;LAYER_COUNT:125
;LAYER:0
M127 T0
M104 T1 S175
G0 F1800 X0.586 Y14.15 Z0.3
;TYPE:SKIRT
G1 F1800 E1.3
G1 F900 X0.084 Y14.187 E0.02511
G1 X-.705 Y14.165 E0.03938
G1 X-.82 Y14.15 E0.00579
G1 X-38.1 Y14.15 E1.85991
G1 X-38.889 Y14.11 E0.03941
G1 X-39.669 Y13.991 E0.03936
G1 X-40.434 Y13.793 E0.03942
G1 X-41.174 Y13.519 E0.03937
G1 X-41.883 Y13.171 E0.0394
G1 X-42.554 Y12.753 E0.03944
G1 X-43.178 Y12.27 E0.03937
G1 X-43.751 Y11.727 E0.03938
G1 X-44.266 Y11.128 E0.03941
G1 X-44.717 Y10.48 E0.03939
G1 X-45.101 Y9.789 E0.03944
G1 X-45.413 Y9.064 E0.03938
G1 X-45.65 Y8.311 E0.03938
G1 X-45.809 Y7.537 E0.03942
G1 X-45.89 Y6.752 E0.03937
G1 X-45.9 Y6.35 E0.02006
G1 X-45.9 Y-6.35 E0.63361
G1 X-45.86 Y-7.139 E0.03941
G1 X-45.741 Y-7.919 E0.03936
G1 X-45.543 Y-8.684 E0.03942
G1 X-45.269 Y-9.424 E0.03937
G1 X-44.921 Y-10.133 E0.0394
G1 X-44.503 Y-10.804 E0.03944
G1 X-44.02 Y-11.428 E0.03937
G1 X-43.477 Y-12.001 E0.03938
G1 X-42.878 Y-12.516 E0.03941
G1 X-42.23 Y-12.967 E0.03939
G1 X-41.539 Y-13.351 E0.03944
G1 X-40.814 Y-13.663 E0.03938
G1 X-40.061 Y-13.9 E0.03938
G1 X-39.287 Y-14.059 E0.03942
G1 X-38.502 Y-14.14 E0.03937
G1 X-38.1 Y-14.15 E0.02006
G1 X38.1 Y-14.15 E3.80163
G1 X38.889 Y-14.11 E0.03941
G1 X39.669 Y-13.991 E0.03936
G1 X40.434 Y-13.793 E0.03942
G1 X41.174 Y-13.519 E0.03937
G1 X41.883 Y-13.171 E0.0394
G1 X42.554 Y-12.753 E0.03944
G1 X43.178 Y-12.27 E0.03937
G1 X43.751 Y-11.727 E0.03938
G1 X44.266 Y-11.128 E0.03941
G1 X44.717 Y-10.48 E0.03939
G1 X45.101 Y-9.789 E0.03944
G1 X45.413 Y-9.064 E0.03938
G1 X45.65 Y-8.311 E0.03938
G1 X45.809 Y-7.537 E0.03942
G1 X45.89 Y-6.752 E0.03937
G1 X45.9 Y-6.35 E0.02006
G1 X45.9 Y6.35 E0.63361
G1 X45.86 Y7.139 E0.03941
G1 X45.741 Y7.919 E0.03936
G1 X45.543 Y8.684 E0.03942
G1 X45.269 Y9.424 E0.03937
G1 X44.921 Y10.133 E0.0394
G1 X44.503 Y10.804 E0.03944
G1 X44.02 Y11.428 E0.03937
G1 X43.477 Y12.001 E0.03938
G1 X42.878 Y12.516 E0.03941
G1 X42.23 Y12.967 E0.03939
G1 X41.539 Y13.351 E0.03944
G1 X40.814 Y13.663 E0.03938
G1 X40.061 Y13.9 E0.03938
G1 X39.287 Y14.059 E0.03942
G1 X38.502 Y14.14 E0.03937
G1 X38.1 Y14.15 E0.02006
G1 X0.586 Y14.15 E1.87158
G0 F1800 X0.575 Y13.75
G1 F900 X0.035 Y13.788 E0.02701
G1 X-.734 Y13.761 E0.03839
G1 X-.813 Y13.75 E0.00398
G1 X-38.1 Y13.75 E1.86026
G1 X-38.868 Y13.71 E0.03837
G1 X-39.628 Y13.591 E0.03838
G1 X-40.371 Y13.393 E0.03836
G1 X-41.09 Y13.119 E0.03839
G1 X-41.776 Y12.772 E0.03835
G1 X-42.423 Y12.356 E0.03838
G1 X-43.023 Y11.875 E0.03837
G1 X-43.57 Y11.334 E0.03838
G1 X-44.058 Y10.739 E0.03839
G1 X-44.481 Y10.097 E0.03836
G1 X-44.836 Y9.414 E0.0384
G1 X-45.117 Y8.699 E0.03833
G1 X-45.323 Y7.957 E0.03842
G1 X-45.451 Y7.199 E0.03835
G1 X-45.5 Y6.35 E0.04243
G1 X-45.5 Y-6.35 E0.63361
G1 X-45.46 Y-7.118 E0.03837
G1 X-45.341 Y-7.878 E0.03838
G1 X-45.143 Y-8.621 E0.03836
G1 X-44.869 Y-9.34 E0.03839
G1 X-44.522 Y-10.026 E0.03835
G1 X-44.106 Y-10.673 E0.03838
G1 X-43.625 Y-11.273 E0.03837
G1 X-43.084 Y-11.82 E0.03838
G1 X-42.489 Y-12.308 E0.03839
G1 X-41.847 Y-12.731 E0.03836
G1 X-41.164 Y-13.086 E0.0384
G1 X-40.449 Y-13.367 E0.03833
G1 X-39.707 Y-13.573 E0.03842
G1 X-38.949 Y-13.701 E0.03835
G1 X-38.1 Y-13.75 E0.04243
G1 X38.1 Y-13.75 E3.80163
G1 X38.868 Y-13.71 E0.03837
G1 X39.628 Y-13.591 E0.03838
G1 X40.371 Y-13.393 E0.03836
G1 X41.09 Y-13.119 E0.03839
G1 X41.776 Y-12.772 E0.03835
G1 X42.423 Y-12.356 E0.03838
G1 X43.023 Y-11.875 E0.03837
G1 X43.57 Y-11.334 E0.03838
G1 X44.058 Y-10.739 E0.03839
G1 X44.481 Y-10.097 E0.03836
G1 X44.836 Y-9.414 E0.0384
G1 X45.117 Y-8.699 E0.03833
G1 X45.323 Y-7.957 E0.03842
G1 X45.451 Y-7.199 E0.03835
G1 X45.5 Y-6.35 E0.04243
G1 X45.5 Y6.35 E0.63361
G1 X45.46 Y7.118 E0.03837
G1 X45.341 Y7.878 E0.03838
G1 X45.143 Y8.621 E0.03836
G1 X44.869 Y9.34 E0.03839
G1 X44.522 Y10.026 E0.03835
G1 X44.106 Y10.673 E0.03838
G1 X43.625 Y11.273 E0.03837
G1 X43.084 Y11.82 E0.03838
G1 X42.489 Y12.308 E0.03839
G1 X41.847 Y12.731 E0.03836
G1 X41.164 Y13.086 E0.0384
G1 X40.449 Y13.367 E0.03833
G1 X39.707 Y13.573 E0.03842
G1 X38.949 Y13.701 E0.03835
G1 X38.1 Y13.75 E0.04243
G1 X0.575 Y13.75 E1.87213
G0 F1800 X0.581 Y13.35
G1 F900 X-0.013 Y13.389 E0.0297
G1 X-.761 Y13.357 E0.03735
G1 X-.808 Y13.35 E0.00237
G1 X-38.1 Y13.35 E1.86051
G1 X-38.847 Y13.31 E0.03732
G1 X-39.585 Y13.191 E0.03729
G1 X-40.307 Y12.993 E0.03735
G1 X-41.003 Y12.72 E0.0373
G1 X-41.666 Y12.373 E0.03733
G1 X-42.289 Y11.958 E0.03735
G1 X-42.863 Y11.479 E0.0373
G1 X-43.384 Y10.942 E0.03733
G1 X-43.843 Y10.352 E0.03729
G1 X-44.238 Y9.716 E0.03735
G1 X-44.562 Y9.042 E0.03731
G1 X-44.812 Y8.337 E0.03732
G1 X-44.986 Y7.609 E0.03734
G1 X-45.081 Y6.867 E0.03732
G1 X-45.1 Y6.35 E0.02581
G1 X-45.1 Y-6.35 E0.63361
G1 X-45.06 Y-7.097 E0.03732
G1 X-44.941 Y-7.835 E0.03729
G1 X-44.743 Y-8.557 E0.03735
G1 X-44.47 Y-9.253 E0.0373
G1 X-44.123 Y-9.916 E0.03733
G1 X-43.708 Y-10.539 E0.03735
G1 X-43.229 Y-11.113 E0.0373
G1 X-42.692 Y-11.634 E0.03733
G1 X-42.102 Y-12.093 E0.03729
G1 X-41.466 Y-12.488 E0.03735
G1 X-40.792 Y-12.812 E0.03731
G1 X-40.087 Y-13.062 E0.03732
G1 X-39.359 Y-13.236 E0.03734
G1 X-38.617 Y-13.331 E0.03732
G1 X-38.1 Y-13.35 E0.02581
G1 X38.1 Y-13.35 E3.80163
G1 X38.847 Y-13.31 E0.03732
G1 X39.585 Y-13.191 E0.03729
G1 X40.307 Y-12.993 E0.03735
G1 X41.003 Y-12.72 E0.0373
G1 X41.666 Y-12.373 E0.03733
G1 X42.289 Y-11.958 E0.03735
G1 X42.863 Y-11.479 E0.0373
G1 X43.384 Y-10.942 E0.03733
G1 X43.843 Y-10.352 E0.03729
G1 X44.238 Y-9.716 E0.03735
G1 X44.562 Y-9.042 E0.03731
G1 X44.812 Y-8.337 E0.03732
G1 X44.986 Y-7.609 E0.03734
G1 X45.081 Y-6.867 E0.03732
G1 X45.1 Y-6.35 E0.02581
G1 X45.1 Y6.35 E0.63361
G1 X45.06 Y7.097 E0.03732
G1 X44.941 Y7.835 E0.03729
G1 X44.743 Y8.557 E0.03735
G1 X44.47 Y9.253 E0.0373
G1 X44.123 Y9.916 E0.03733
G1 X43.708 Y10.539 E0.03735
G1 X43.229 Y11.113 E0.0373
G1 X42.692 Y11.634 E0.03733
G1 X42.102 Y12.093 E0.03729
G1 X41.466 Y12.488 E0.03735
G1 X40.792 Y12.812 E0.03731
G1 X40.087 Y13.062 E0.03732
G1 X39.359 Y13.236 E0.03734
G1 X38.617 Y13.331 E0.03732
G1 X38.1 Y13.35 E0.02581
G1 X0.581 Y13.35 E1.87183
G0 F1800 X0.583 Y12.95
G1 F900 X-0.06 Y12.989 E0.03214
G1 X-.786 Y12.953 E0.03626
G1 X-.805 Y12.95 E0.00096
G1 X-38.1 Y12.95 E1.86066
G1 X-38.825 Y12.91 E0.03623
G1 X-39.542 Y12.791 E0.03626
G1 X-40.241 Y12.593 E0.03625
G1 X-40.914 Y12.32 E0.03623
G1 X-41.553 Y11.975 E0.03623
G1 X-42.15 Y11.561 E0.03625
G1 X-42.698 Y11.085 E0.03621
G1 X-43.191 Y10.551 E0.03626
G1 X-43.621 Y9.966 E0.03622
G1 X-43.985 Y9.337 E0.03626
G1 X-44.278 Y8.672 E0.03625
G1 X-44.496 Y7.979 E0.03624
G1 X-44.636 Y7.267 E0.0362
G1 X-44.7 Y6.35 E0.04586
G1 X-44.7 Y-6.35 E0.63361
G1 X-44.66 Y-7.075 E0.03623
G1 X-44.541 Y-7.792 E0.03626
G1 X-44.343 Y-8.491 E0.03625
G1 X-44.07 Y-9.164 E0.03623
G1 X-43.725 Y-9.803 E0.03623
G1 X-43.311 Y-10.4 E0.03625
G1 X-42.835 Y-10.948 E0.03621
G1 X-42.301 Y-11.441 E0.03626
G1 X-41.716 Y-11.871 E0.03622
G1 X-41.087 Y-12.235 E0.03626
G1 X-40.422 Y-12.528 E0.03625
G1 X-39.729 Y-12.746 E0.03624
G1 X-39.017 Y-12.886 E0.0362
G1 X-38.1 Y-12.95 E0.04586
G1 X38.1 Y-12.95 E3.80163
G1 X38.825 Y-12.91 E0.03623
G1 X39.542 Y-12.791 E0.03626
G1 X40.241 Y-12.593 E0.03625
G1 X40.914 Y-12.32 E0.03623
G1 X41.553 Y-11.975 E0.03623
G1 X42.15 Y-11.561 E0.03625
G1 X42.698 Y-11.085 E0.03621
G1 X43.191 Y-10.551 E0.03626
G1 X43.621 Y-9.966 E0.03622
G1 X43.985 Y-9.337 E0.03626
G1 X44.278 Y-8.672 E0.03625
G1 X44.496 Y-7.979 E0.03624
G1 X44.636 Y-7.267 E0.0362
G1 X44.7 Y-6.35 E0.04586
G1 X44.7 Y6.35 E0.63361
G1 X44.66 Y7.075 E0.03623
G1 X44.541 Y7.792 E0.03626
G1 X44.343 Y8.491 E0.03625
G1 X44.07 Y9.164 E0.03623
G1 X43.725 Y9.803 E0.03623
G1 X43.311 Y10.4 E0.03625
G1 X42.835 Y10.948 E0.03621
G1 X42.301 Y11.441 E0.03626
G1 X41.716 Y11.871 E0.03622
G1 X41.087 Y12.235 E0.03626
G1 X40.422 Y12.528 E0.03625
G1 X39.729 Y12.746 E0.03624
G1 X39.017 Y12.886 E0.0362
G1 X38.1 Y12.95 E0.04586
G1 X0.583 Y12.95 E1.87173
G0 F1800 X0.597 Y12.55
G1 F900 X-.106 Y12.589 E0.03513
G1 X-.774 Y12.55 E0.03338
G1 X-38.1 Y12.55 E1.8622
G1 X-38.803 Y12.51 E0.03513
G1 X-39.497 Y12.391 E0.03513
G1 X-40.172 Y12.193 E0.03509
G1 X-40.821 Y11.921 E0.03511
G1 X-41.435 Y11.576 E0.03514
G1 X-42.006 Y11.165 E0.0351
G1 X-42.527 Y10.691 E0.03514
G1 X-42.991 Y10.161 E0.03514
G1 X-43.391 Y9.582 E0.03511
G1 X-43.723 Y8.961 E0.03513
G1 X-43.983 Y8.307 E0.03511
G1 X-44.167 Y7.627 E0.03515
G1 X-44.273 Y6.931 E0.03512
G1 X-44.3 Y6.35 E0.02902
G1 X-44.3 Y-6.35 E0.63361
G1 X-44.26 Y-7.053 E0.03513
G1 X-44.141 Y-7.747 E0.03513
G1 X-43.943 Y-8.422 E0.03509
G1 X-43.671 Y-9.071 E0.03511
G1 X-43.326 Y-9.685 E0.03514
G1 X-42.915 Y-10.256 E0.0351
G1 X-42.441 Y-10.777 E0.03514
G1 X-41.911 Y-11.241 E0.03514
G1 X-41.332 Y-11.641 E0.03511
G1 X-40.711 Y-11.973 E0.03513
G1 X-40.057 Y-12.233 E0.03511
G1 X-39.377 Y-12.417 E0.03515
G1 X-38.681 Y-12.523 E0.03512
G1 X-38.1 Y-12.55 E0.02902
G1 X38.1 Y-12.55 E3.80163
G1 X38.803 Y-12.51 E0.03513
G1 X39.497 Y-12.391 E0.03513
G1 X40.172 Y-12.193 E0.03509
G1 X40.821 Y-11.921 E0.03511
G1 X41.435 Y-11.576 E0.03514
G1 X42.006 Y-11.165 E0.0351
G1 X42.527 Y-10.691 E0.03514
G1 X42.991 Y-10.161 E0.03514
G1 X43.391 Y-9.582 E0.03511
G1 X43.723 Y-8.961 E0.03513
G1 X43.983 Y-8.307 E0.03511
G1 X44.167 Y-7.627 E0.03515
G1 X44.273 Y-6.931 E0.03512
G1 X44.3 Y-6.35 E0.02902
G1 X44.3 Y6.35 E0.63361
G1 X44.26 Y7.053 E0.03513
G1 X44.141 Y7.747 E0.03513
G1 X43.943 Y8.422 E0.03509
G1 X43.671 Y9.071 E0.03511
G1 X43.326 Y9.685 E0.03514
G1 X42.915 Y10.256 E0.0351
G1 X42.441 Y10.777 E0.03514
G1 X41.911 Y11.241 E0.03514
G1 X41.332 Y11.641 E0.03511
G1 X40.711 Y11.973 E0.03513
G1 X40.057 Y12.233 E0.03511
G1 X39.377 Y12.417 E0.03515
G1 X38.681 Y12.523 E0.03512
G1 X38.1 Y12.55 E0.02902
G1 X0.597 Y12.55 E1.87103
G0 F1800 X0.53 Y12.155
G1 F900 X-.15 Y12.189 E0.03397
G1 X-.713 Y12.15 E0.02816
G1 X-38.1 Y12.15 E1.86525
G1 X-38.78 Y12.11 E0.03398
G1 X-39.45 Y11.991 E0.03395
G1 X-40.102 Y11.794 E0.03398
G1 X-40.726 Y11.522 E0.03396
G1 X-41.314 Y11.178 E0.03399
G1 X-41.858 Y10.768 E0.03399
G1 X-42.349 Y10.297 E0.03394
G1 X-42.783 Y9.772 E0.03398
G1 X-43.152 Y9.2 E0.03396
G1 X-43.451 Y8.588 E0.03398
G1 X-43.676 Y7.946 E0.03394
G1 X-43.825 Y7.281 E0.034
G1 X-43.9 Y6.35 E0.0466
G1 X-43.9 Y-6.35 E0.63361
G1 X-43.86 Y-7.03 E0.03398
G1 X-43.741 Y-7.7 E0.03395
G1 X-43.544 Y-8.352 E0.03398
G1 X-43.272 Y-8.976 E0.03396
G1 X-42.928 Y-9.564 E0.03399
G1 X-42.518 Y-10.108 E0.03399
G1 X-42.047 Y-10.599 E0.03394
G1 X-41.522 Y-11.033 E0.03398
G1 X-40.95 Y-11.402 E0.03396
G1 X-40.338 Y-11.701 E0.03398
G1 X-39.696 Y-11.926 E0.03394
G1 X-39.031 Y-12.075 E0.034
G1 X-38.1 Y-12.15 E0.0466
G1 X38.1 Y-12.15 E3.80163
G1 X38.78 Y-12.11 E0.03398
G1 X39.45 Y-11.991 E0.03395
G1 X40.102 Y-11.794 E0.03398
G1 X40.726 Y-11.522 E0.03396
G1 X41.314 Y-11.178 E0.03399
G1 X41.858 Y-10.768 E0.03399
G1 X42.349 Y-10.297 E0.03394
G1 X42.783 Y-9.772 E0.03398
G1 X43.152 Y-9.2 E0.03396
G1 X43.451 Y-8.588 E0.03398
G1 X43.676 Y-7.946 E0.03394
G1 X43.825 Y-7.281 E0.034
G1 X43.9 Y-6.35 E0.0466
G1 X43.9 Y6.35 E0.63361
G1 X43.86 Y7.03 E0.03398
G1 X43.741 Y7.7 E0.03395
G1 X43.544 Y8.352 E0.03398
G1 X43.272 Y8.976 E0.03396
G1 X42.928 Y9.564 E0.03399
G1 X42.518 Y10.108 E0.03399
G1 X42.047 Y10.599 E0.03394
G1 X41.522 Y11.033 E0.03398
G1 X40.95 Y11.402 E0.03396
G1 X40.338 Y11.701 E0.03398
G1 X39.696 Y11.926 E0.03394
G1 X39.031 Y12.075 E0.034
G1 X38.1 Y12.15 E0.0466
G1 X0.56 Y12.15 E1.87288
G1 X0.53 Y12.155 E0.00152
G0 F1800 X0.464 Y11.76
G1 F900 X-.192 Y11.788 E0.03276
G1 X-.671 Y11.75 E0.02397
G1 X-38.1 Y11.75 E1.86734
G1 X-38.756 Y11.71 E0.03279
G1 X-39.402 Y11.591 E0.03277
G1 X-40.029 Y11.394 E0.03279
G1 X-40.627 Y11.122 E0.03278
G1 X-41.188 Y10.78 E0.03278
G1 X-41.703 Y10.372 E0.03278
G1 X-42.165 Y9.905 E0.03277
G1 X-42.566 Y9.385 E0.03276
G1 X-42.902 Y8.821 E0.03275
G1 X-43.166 Y8.219 E0.03279
G1 X-43.356 Y7.59 E0.03278
G1 X-43.467 Y6.943 E0.03275
G1 X-43.5 Y6.35 E0.02963
G1 X-43.5 Y-6.35 E0.63361
G1 X-43.46 Y-7.006 E0.03279
G1 X-43.341 Y-7.652 E0.03277
G1 X-43.144 Y-8.279 E0.03279
G1 X-42.872 Y-8.877 E0.03278
G1 X-42.53 Y-9.438 E0.03278
G1 X-42.122 Y-9.953 E0.03278
G1 X-41.655 Y-10.415 E0.03277
G1 X-41.135 Y-10.816 E0.03276
G1 X-40.571 Y-11.152 E0.03275
G1 X-39.969 Y-11.416 E0.03279
G1 X-39.34 Y-11.606 E0.03278
G1 X-38.693 Y-11.717 E0.03275
G1 X-38.1 Y-11.75 E0.02963
G1 X38.1 Y-11.75 E3.80163
G1 X38.756 Y-11.71 E0.03279
G1 X39.402 Y-11.591 E0.03277
G1 X40.029 Y-11.394 E0.03279
G1 X40.627 Y-11.122 E0.03278
G1 X41.188 Y-10.78 E0.03278
G1 X41.703 Y-10.372 E0.03278
G1 X42.165 Y-9.905 E0.03277
G1 X42.566 Y-9.385 E0.03276
G1 X42.902 Y-8.821 E0.03275
G1 X43.166 Y-8.219 E0.03279
G1 X43.356 Y-7.59 E0.03278
G1 X43.467 Y-6.943 E0.03275
G1 X43.5 Y-6.35 E0.02963
G1 X43.5 Y6.35 E0.63361
G1 X43.46 Y7.006 E0.03279
G1 X43.341 Y7.652 E0.03277
G1 X43.144 Y8.279 E0.03279
G1 X42.872 Y8.877 E0.03278
G1 X42.53 Y9.438 E0.03278
G1 X42.122 Y9.953 E0.03278
G1 X41.655 Y10.415 E0.03277
G1 X41.135 Y10.816 E0.03276
G1 X40.571 Y11.152 E0.03275
G1 X39.969 Y11.416 E0.03279
G1 X39.34 Y11.606 E0.03278
G1 X38.693 Y11.717 E0.03275
G1 X38.1 Y11.75 E0.02963
G1 X0.524 Y11.75 E1.87467
G1 X0.464 Y11.76 E0.00303
G0 F1800 X0.399 Y11.365
G1 F900 X-.233 Y11.387 E0.03155
G1 X-.641 Y11.35 E0.02044
G1 X-38.1 Y11.35 E1.86884
G1 X-38.731 Y11.31 E0.03154
G1 X-39.352 Y11.191 E0.03155
G1 X-39.952 Y10.994 E0.03151
G1 X-40.524 Y10.723 E0.03158
G1 X-41.056 Y10.383 E0.0315
G1 X-41.541 Y9.977 E0.03156
G1 X-41.971 Y9.514 E0.03152
G1 X-42.34 Y9 E0.03157
G1 X-42.64 Y8.444 E0.03152
G1 X-42.868 Y7.855 E0.03151
G1 X-43.02 Y7.241 E0.03156
G1 X-43.1 Y6.35 E0.04463
G1 X-43.1 Y-6.35 E0.63361
G1 X-43.06 Y-6.981 E0.03154
G1 X-42.941 Y-7.602 E0.03155
G1 X-42.744 Y-8.202 E0.03151
G1 X-42.473 Y-8.774 E0.03158
G1 X-42.133 Y-9.306 E0.0315
G1 X-41.727 Y-9.791 E0.03156
G1 X-41.264 Y-10.221 E0.03152
G1 X-40.75 Y-10.59 E0.03157
G1 X-40.194 Y-10.89 E0.03152
G1 X-39.605 Y-11.118 E0.03151
G1 X-38.991 Y-11.27 E0.03156
G1 X-38.1 Y-11.35 E0.04463
G1 X38.1 Y-11.35 E3.80163
G1 X38.731 Y-11.31 E0.03154
G1 X39.352 Y-11.191 E0.03155
G1 X39.952 Y-10.994 E0.03151
G1 X40.524 Y-10.723 E0.03158
G1 X41.056 Y-10.383 E0.0315
G1 X41.541 Y-9.977 E0.03156
G1 X41.971 Y-9.514 E0.03152
G1 X42.34 Y-9 E0.03157
G1 X42.64 Y-8.444 E0.03152
G1 X42.868 Y-7.855 E0.03151
G1 X43.02 Y-7.241 E0.03156
G1 X43.1 Y-6.35 E0.04463
G1 X43.1 Y6.35 E0.63361
G1 X43.06 Y6.981 E0.03154
G1 X42.941 Y7.602 E0.03155
G1 X42.744 Y8.202 E0.03151
G1 X42.473 Y8.774 E0.03158
G1 X42.133 Y9.306 E0.0315
G1 X41.727 Y9.791 E0.03156
G1 X41.264 Y10.221 E0.03152
G1 X40.75 Y10.59 E0.03157
G1 X40.194 Y10.89 E0.03152
G1 X39.605 Y11.118 E0.03151
G1 X38.991 Y11.27 E0.03156
