;FLAVOR:Makerbot
;TIME:14870
;MINX:-104.345
;MINY:-46.409
;MINZ:0.3
;MAXX:112.5
;MAXY:73
;MAXZ:13.7
;Generated with Cura_SteamEngine 4.8.0
T0
M82 ;absolute extrusion mode
; **** FlashForge Creator Pro PRINTER start.gcode for dual extrusion only ****
M83 ; relative extrusion mode
M73 P0 ; enable build progress
G162 X Y F3000 ; home XY maximum
G161 Z F1200 ; home Z minimum
G92 Z-5 ; set Z to -5
G1 Z0 ; move Z to 0
G161 Z F100 ; home Z slowly
M132 X Y Z A B ; recall home offsets
M135 T0 ; load right extruder offsets
G1 X150 Y-70 Z30 F9000 ; move to wait position right hand side of the table
G130 X20 Y20 Z20 A20 B20 ; lower stepper Vrefs while heating
M127
M140 S60 T0 ; set bed temperature
M134 T0 ; stabilize bed temperature
M104 S230 T0 ; set right extruder temp
M104 S228 T1 ; set left extruder temp
M133 T0 ; stabilize right extruder temperature
M133 T1 ; stabilize left extruder temperature
G130 X127 Y127 Z40 A127 B127 ; default stepper Vrefs
G92 A0 B0 ; zero extruders
M135 T0 ; right tool
G1 Z0.4 ; position nozzle
G1 X110 Y-70 E25 F300 ; purge nozzle
G1 X120 Y-70 Z0.15 F1200 ; slow wipe
G1 X110 Y-70 Z0.5 F1200 ; lift
G1 Z4 F1200 ; raise
G1 X-110 F4000 ; move nozzle to left side of bed
G1 Z0.4 F1200 ; lower
M135 T1 ; left tool
G1 X-140 Y-70 F9000 ; reposition nozzle
G1 X-100 Y-70 E25 F300 ; purge nozzle
G1 X-110 Y-70 Z0.15 F1200 ; slow wipe
G1 X-100 Y-70 Z0.5 F1200 ; lift
G92 A0 B0 ; zero extruders
M135 T0 ; left or right tool
M73 P1 ;@body (notify GPX body has started)
; **** end of start.gcode ****
M83 ;relative extrusion mode
G1 F1800 E-1.3
;LAYER_COUNT:125
;LAYER:0
M127 T0
M104 T1 S175
;MESH:FCPRO_final_5.3mf(9)
G0 X3.507 Y0.438 Z0.3
;TYPE:WALL-INNER
G1 F1800 E1.3
G1 F900 X-20.768 Y0.438 E1.21108
G1 X-20.768 Y-11.062 E0.57374
G1 X3.507 Y-11.062 E1.21108
G1 X3.507 Y0.438 E0.57374
G0 F1800 X3.907 Y0.838
;TYPE:WALL-OUTER
G1 F900 X-21.168 Y0.838 E1.251
G1 X-21.168 Y-11.462 E0.61365
G1 X3.907 Y-11.462 E1.251
G1 X3.907 Y0.838 E0.61365
G0 F1800 X3.707 Y0.838
G0 X3.117 Y0.048
;TYPE:SKIN
G1 F900 X-20.378 Y0.048 E1.17217
G1 X-20.378 Y-10.672 E0.53482
G1 X3.117 Y-10.672 E1.17217
G1 X3.117 Y0.048 E0.53482
G0 F1800 X2.519 Y-10.491
G1 F900 X2.936 Y-10.074 E0.02942
G0 F1800 X2.936 Y-9.508
G1 F900 X1.953 Y-10.491 E0.06936
G0 F1800 X1.388 Y-10.491
G1 F900 X2.936 Y-8.942 E0.10926
G0 F1800 X2.936 Y-8.377
G1 F900 X0.822 Y-10.491 E0.14915
G0 F1800 X0.256 Y-10.491
G1 F900 X2.936 Y-7.811 E0.18909
G0 F1800 X2.936 Y-7.245
G1 F900 X-.309 Y-10.491 E0.22899
G0 F1800 X-.874 Y-10.491
G1 F900 X2.936 Y-6.68 E0.26885
G0 F1800 X2.936 Y-6.114
G1 F900 X-1.44 Y-10.491 E0.30879
G0 F1800 X-2.006 Y-10.491
G1 F900 X2.936 Y-5.548 E0.34872
G0 F1800 X2.936 Y-4.982
G1 F900 X-2.571 Y-10.491 E0.38862
G0 F1800 X-3.137 Y-10.491
G1 F900 X2.936 Y-4.417 E0.42852
G0 F1800 X2.936 Y-3.851
G1 F900 X-3.703 Y-10.491 E0.46845
G0 F1800 X-4.268 Y-10.491
G1 F900 X2.936 Y-3.285 E0.50835
G0 F1800 X2.936 Y-2.72
G1 F900 X-4.834 Y-10.491 E0.54825
G0 F1800 X-5.4 Y-10.491
G1 F900 X2.936 Y-2.154 E0.58819
G0 F1800 X2.936 Y-1.588
G1 F900 X-5.965 Y-10.491 E0.62808
G0 F1800 X-6.531 Y-10.491
G1 F900 X2.936 Y-1.023 E0.66798
G0 F1800 X2.936 Y-.457
G1 F900 X-7.097 Y-10.491 E0.70792
G0 F1800 X-7.662 Y-10.491
G1 F900 X2.696 Y-.132 E0.73085
G0 F1800 X2.13 Y-.132
G1 F900 X-8.228 Y-10.491 E0.73085
G0 F1800 X-8.794 Y-10.491
G1 F900 X1.564 Y-.132 E0.73085
G0 F1800 X0.999 Y-.132
G1 F900 X-9.359 Y-10.491 E0.73085
G0 F1800 X-9.925 Y-10.491
G1 F900 X0.433 Y-.132 E0.73085
G0 F1800 X-.132 Y-.132
G1 F900 X-10.491 Y-10.491 E0.73088
G0 F1800 X-11.057 Y-10.491
G1 F900 X-.697 Y-.132 E0.73092
G0 F1800 X-1.263 Y-.132
G1 F900 X-11.622 Y-10.491 E0.73088
G0 F1800 X-12.188 Y-10.491
G1 F900 X-1.829 Y-.132 E0.73088
G0 F1800 X-2.394 Y-.132
G1 F900 X-12.754 Y-10.491 E0.73092
G0 F1800 X-13.319 Y-10.491
G1 F900 X-2.96 Y-.132 E0.73088
G0 F1800 X-3.526 Y-.132
G1 F900 X-13.885 Y-10.491 E0.73088
G0 F1800 X-14.451 Y-10.491
G1 F900 X-4.092 Y-.132 E0.73088
G0 F1800 X-4.657 Y-.132
G1 F900 X-15.016 Y-10.491 E0.73088
G0 F1800 X-15.582 Y-10.491
G1 F900 X-5.223 Y-.132 E0.73088
G0 F1800 X-5.789 Y-.132
G1 F900 X-16.148 Y-10.491 E0.73088
G0 F1800 X-16.713 Y-10.491
G1 F900 X-6.354 Y-.132 E0.73088
G0 F1800 X-6.92 Y-.132
G1 F900 X-17.279 Y-10.491 E0.73088
G0 F1800 X-17.845 Y-10.491
G1 F900 X-7.486 Y-.132 E0.73088
G0 F1800 X-8.051 Y-.132
G1 F900 X-18.41 Y-10.491 E0.73088
G0 F1800 X-18.976 Y-10.491
G1 F900 X-8.617 Y-.132 E0.73088
G0 F1800 X-9.183 Y-.132
G1 F900 X-19.542 Y-10.491 E0.73088
G0 F1800 X-20.107 Y-10.491
G1 F900 X-9.748 Y-.132 E0.73088
G0 F1800 X-10.314 Y-.132
G1 F900 X-20.197 Y-10.015 E0.6973
G0 F1800 X-20.197 Y-9.449
G1 F900 X-10.88 Y-.132 E0.65736
G0 F1800 X-11.445 Y-.132
G1 F900 X-20.197 Y-8.884 E0.6175
G0 F1800 X-20.197 Y-8.318
G1 F900 X-12.011 Y-.132 E0.57757
G0 F1800 X-12.577 Y-.132
G1 F900 X-20.197 Y-7.752 E0.53763
G0 F1800 X-20.197 Y-7.187
G1 F900 X-13.142 Y-.132 E0.49777
G0 F1800 X-13.708 Y-.132
G1 F900 X-20.197 Y-6.621 E0.45783
G0 F1800 X-20.197 Y-6.055
G1 F900 X-14.274 Y-.132 E0.4179
G0 F1800 X-14.84 Y-.132
G1 F900 X-20.197 Y-5.489 E0.37797
G0 F1800 X-20.197 Y-4.924
G1 F900 X-15.405 Y-.132 E0.3381
G0 F1800 X-15.971 Y-.132
G1 F900 X-20.197 Y-4.358 E0.29817
G0 F1800 X-20.197 Y-3.792
G1 F900 X-16.537 Y-.132 E0.25823
G0 F1800 X-17.102 Y-.132
G1 F900 X-20.197 Y-3.227 E0.21837
G0 F1800 X-20.197 Y-2.661
G1 F900 X-17.668 Y-.132 E0.17843
G0 F1800 X-18.234 Y-.132
G1 F900 X-20.197 Y-2.095 E0.1385
G0 F1800 X-20.197 Y-1.53
G1 F900 X-18.799 Y-.132 E0.09864
G0 F1800 X-19.365 Y-.132
G1 F900 X-20.197 Y-.964 E0.0587
G0 F1800 X-20.197 Y-.398
G1 F900 X-19.931 Y-.132 E0.01877
G1 F1800 E-1.3
;MESH:FCPRO_final_5.3mf(8)
G0 X3.493 Y-11.048
G0 X3.747 Y-12.326
G0 X54.877 Y-34.523
G0 X56.156 Y-34.523
G0 X80.347 Y-34.579
G0 X80.417 Y-34.509
;TYPE:WALL-INNER
G1 F1800 E1.3
G1 F900 X56.142 Y-34.509 E1.21108
G1 X56.142 Y-46.009 E0.57374
G1 X80.417 Y-46.009 E1.21108
G1 X80.417 Y-34.509 E0.57374
G0 F1800 X80.817 Y-34.109
;TYPE:WALL-OUTER
G1 F900 X55.742 Y-34.109 E1.251
G1 X55.742 Y-46.409 E0.61365
G1 X80.817 Y-46.409 E1.251
G1 X80.817 Y-34.109 E0.61365
G0 F1800 X80.617 Y-34.109
G0 X80.027 Y-34.899
;TYPE:SKIN
G1 F900 X56.532 Y-34.899 E1.17217
G1 X56.532 Y-45.619 E0.53482
G1 X80.027 Y-45.619 E1.17217
G1 X80.027 Y-34.899 E0.53482
G0 F1800 X79.577 Y-45.438
G1 F900 X79.846 Y-45.169 E0.01898
G0 F1800 X79.846 Y-44.604
G1 F900 X79.012 Y-45.438 E0.05884
G0 F1800 X78.446 Y-45.438
G1 F900 X79.846 Y-44.038 E0.09878
G0 F1800 X79.846 Y-43.472
G1 F900 X77.88 Y-45.438 E0.13871
G0 F1800 X77.315 Y-45.438
G1 F900 X79.846 Y-42.907 E0.17858
G0 F1800 X79.846 Y-42.341
G1 F900 X76.749 Y-45.438 E0.21851
G0 F1800 X76.183 Y-45.438
G1 F900 X79.846 Y-41.775 E0.25844
G0 F1800 X79.846 Y-41.21
G1 F900 X75.617 Y-45.438 E0.29834
G0 F1800 X75.052 Y-45.438
G1 F900 X79.846 Y-40.644 E0.33824
G0 F1800 X79.846 Y-40.078
G1 F900 X74.486 Y-45.438 E0.37818
G0 F1800 X73.92 Y-45.438
G1 F900 X79.846 Y-39.513 E0.41808
G0 F1800 X79.846 Y-38.947
G1 F900 X73.355 Y-45.438 E0.45798
G0 F1800 X72.789 Y-45.438
G1 F900 X79.846 Y-38.381 E0.49791
G0 F1800 X79.846 Y-37.816
G1 F900 X72.223 Y-45.438 E0.53781
G0 F1800 X71.658 Y-45.438
G1 F900 X79.846 Y-37.25 E0.57771
G0 F1800 X79.846 Y-36.684
G1 F900 X71.092 Y-45.438 E0.61764
G0 F1800 X70.526 Y-45.438
G1 F900 X79.846 Y-36.119 E0.65754
G0 F1800 X79.846 Y-35.553
G1 F900 X69.961 Y-45.438 E0.69744
G0 F1800 X69.395 Y-45.438
G1 F900 X79.754 Y-35.079 E0.73088
G0 F1800 X79.188 Y-35.079
G1 F900 X68.829 Y-45.438 E0.73088
G0 F1800 X68.264 Y-45.438
G1 F900 X78.623 Y-35.079 E0.73088
G0 F1800 X78.057 Y-35.079
G1 F900 X67.698 Y-45.438 E0.73088
G0 F1800 X67.132 Y-45.438
G1 F900 X77.491 Y-35.079 E0.73088
G0 F1800 X76.926 Y-35.079
G1 F900 X66.567 Y-45.438 E0.73088
G0 F1800 X66.001 Y-45.438
G1 F900 X76.36 Y-35.079 E0.73088
G0 F1800 X75.794 Y-35.079
G1 F900 X65.435 Y-45.438 E0.73088
G0 F1800 X64.869 Y-45.438
G1 F900 X75.229 Y-35.079 E0.73092
G0 F1800 X74.663 Y-35.079
G1 F900 X64.304 Y-45.438 E0.73088
G0 F1800 X63.738 Y-45.438
G1 F900 X74.097 Y-35.079 E0.73088
G0 F1800 X73.532 Y-35.079
G1 F900 X63.172 Y-45.438 E0.73092
G0 F1800 X62.607 Y-45.438
G1 F900 X72.966 Y-35.079 E0.73088
G0 F1800 X72.4 Y-35.079
G1 F900 X62.041 Y-45.438 E0.73088
G0 F1800 X61.475 Y-45.438
G1 F900 X71.834 Y-35.079 E0.73088
G0 F1800 X71.269 Y-35.079
G1 F900 X60.91 Y-45.438 E0.73088
G0 F1800 X60.344 Y-45.438
G1 F900 X70.703 Y-35.079 E0.73088
G0 F1800 X70.137 Y-35.079
G1 F900 X59.778 Y-45.438 E0.73088
G0 F1800 X59.213 Y-45.438
G1 F900 X69.572 Y-35.079 E0.73088
G0 F1800 X69.006 Y-35.079
G1 F900 X58.647 Y-45.438 E0.73088
G0 F1800 X58.081 Y-45.438
G1 F900 X68.44 Y-35.079 E0.73088
G0 F1800 X67.875 Y-35.079
G1 F900 X57.516 Y-45.438 E0.73088
G0 F1800 X56.95 Y-45.438
G1 F900 X67.309 Y-35.079 E0.73088
G0 F1800 X66.743 Y-35.079
G1 F900 X56.711 Y-45.111 E0.70781
G0 F1800 X56.711 Y-44.546
G1 F900 X66.178 Y-35.079 E0.66795
G0 F1800 X65.612 Y-35.079
G1 F900 X56.711 Y-43.98 E0.62801
G0 F1800 X56.711 Y-43.414
G1 F900 X65.046 Y-35.079 E0.58808
G0 F1800 X64.481 Y-35.079
G1 F900 X56.711 Y-42.849 E0.54822
G0 F1800 X56.711 Y-42.283
G1 F900 X63.915 Y-35.079 E0.50828
G0 F1800 X63.349 Y-35.079
G1 F900 X56.711 Y-41.717 E0.46835
G0 F1800 X56.711 Y-41.152
G1 F900 X62.784 Y-35.079 E0.42848
G0 F1800 X62.218 Y-35.079
G1 F900 X56.711 Y-40.586 E0.38855
G0 F1800 X56.711 Y-40.02
G1 F900 X61.652 Y-35.079 E0.34861
G0 F1800 X61.086 Y-35.079
G1 F900 X56.711 Y-39.455 E0.30872
G0 F1800 X56.711 Y-38.889
G1 F900 X60.521 Y-35.079 E0.26882
G0 F1800 X59.955 Y-35.079
G1 F900 X56.711 Y-38.323 E0.22888
G0 F1800 X56.711 Y-37.758
G1 F900 X59.389 Y-35.079 E0.18898
G0 F1800 X58.824 Y-35.079
G1 F900 X56.711 Y-37.192 E0.14908
G0 F1800 X56.711 Y-36.626
G1 F900 X58.258 Y-35.079 E0.10915
G0 F1800 X57.692 Y-35.079
G1 F900 X56.711 Y-36.061 E0.06925
G0 F1800 X56.711 Y-35.495
G1 F900 X57.127 Y-35.079 E0.02935
G1 F1800 E-1.3
;MESH:FCPRO_final_5.3mf(5)
G0 X80.235 Y-34.529
G0 X80.194 Y-33.256
G0 X80.082 Y26.248
G0 X80.235 Y27.521
G0 X80.235 Y38.931
G0 X80.305 Y39.001
;TYPE:WALL-INNER
G1 F1800 E1.3
G1 F900 X56.03 Y39.001 E1.21108
G1 X56.03 Y27.501 E0.57374
G1 X80.305 Y27.501 E1.21108
G1 X80.305 Y39.001 E0.57374
G0 F1800 X80.705 Y39.401
;TYPE:WALL-OUTER
G1 F900 X55.63 Y39.401 E1.251
G1 X55.63 Y27.101 E0.61365
G1 X80.705 Y27.101 E1.251
G1 X80.705 Y39.401 E0.61365
G0 F1800 X80.505 Y39.401
G0 X79.915 Y38.611
;TYPE:SKIN
G1 F900 X56.42 Y38.611 E1.17217
G1 X56.42 Y27.891 E0.53482
G1 X79.915 Y27.891 E1.17217
G1 X79.915 Y38.611 E0.53482
G0 F1800 X79.734 Y28.256
G1 F900 X79.548 Y28.071 E0.01309
G0 F1800 X78.983 Y28.071
G1 F900 X79.734 Y28.822 E0.05299
G0 F1800 X79.734 Y29.388
G1 F900 X78.417 Y28.071 E0.09292
G0 F1800 X77.851 Y28.071
G1 F900 X79.734 Y29.953 E0.13282
G0 F1800 X79.734 Y30.519
G1 F900 X77.286 Y28.071 E0.17272
G0 F1800 X76.72 Y28.071
G1 F900 X79.734 Y31.085 E0.21265
G0 F1800 X79.734 Y31.65
G1 F900 X76.154 Y28.071 E0.25255
G0 F1800 X75.589 Y28.071
G1 F900 X79.734 Y32.216 E0.29245
G0 F1800 X79.734 Y32.782
G1 F900 X75.023 Y28.071 E0.33239
G0 F1800 X74.457 Y28.071
G1 F900 X79.734 Y33.347 E0.37229
G0 F1800 X79.734 Y33.913
G1 F900 X73.891 Y28.071 E0.41222
G0 F1800 X73.326 Y28.071
G1 F900 X79.734 Y34.479 E0.45212
G0 F1800 X79.734 Y35.044
G1 F900 X72.76 Y28.071 E0.49202
G0 F1800 X72.194 Y28.071
G1 F900 X79.734 Y35.61 E0.53195
G0 F1800 X79.734 Y36.176
G1 F900 X71.629 Y28.071 E0.57185
G0 F1800 X71.063 Y28.071
G1 F900 X79.734 Y36.741 E0.61175
G0 F1800 X79.734 Y37.307
G1 F900 X70.497 Y28.071 E0.65168
G0 F1800 X69.932 Y28.071
G1 F900 X79.734 Y37.873 E0.69158
G0 F1800 X79.725 Y38.43
G1 F900 X69.366 Y28.071 E0.73088
G0 F1800 X68.8 Y28.071
G1 F900 X79.159 Y38.43 E0.73088
G0 F1800 X78.594 Y38.43
G1 F900 X68.235 Y28.071 E0.73088
G0 F1800 X67.669 Y28.071
G1 F900 X78.028 Y38.43 E0.73088
G0 F1800 X77.462 Y38.43
G1 F900 X67.103 Y28.071 E0.73088
G0 F1800 X66.538 Y28.071
G1 F900 X76.897 Y38.43 E0.73088
G0 F1800 X76.331 Y38.43
G1 F900 X65.972 Y28.071 E0.73088
G0 F1800 X65.406 Y28.071
G1 F900 X75.765 Y38.43 E0.73088
G0 F1800 X75.2 Y38.43
G1 F900 X64.84 Y28.071 E0.73092
G0 F1800 X64.275 Y28.071
G1 F900 X74.634 Y38.43 E0.73088
G0 F1800 X74.068 Y38.43
G1 F900 X63.709 Y28.071 E0.73088
G0 F1800 X63.143 Y28.071
G1 F900 X73.503 Y38.43 E0.73092
G0 F1800 X72.937 Y38.43
G1 F900 X62.578 Y28.071 E0.73088
G0 F1800 X62.012 Y28.071
G1 F900 X72.371 Y38.43 E0.73088
G0 F1800 X71.805 Y38.43
G1 F900 X61.446 Y28.071 E0.73088
G0 F1800 X60.881 Y28.071
G1 F900 X71.24 Y38.43 E0.73088
G0 F1800 X70.674 Y38.43
G1 F900 X60.315 Y28.071 E0.73088
G0 F1800 X59.749 Y28.071
G1 F900 X70.108 Y38.43 E0.73088
G0 F1800 X69.543 Y38.43
G1 F900 X59.184 Y28.071 E0.73088
G0 F1800 X58.618 Y28.071
G1 F900 X68.977 Y38.43 E0.73088
G0 F1800 X68.411 Y38.43
G1 F900 X58.052 Y28.071 E0.73088
G0 F1800 X57.487 Y28.071
G1 F900 X67.846 Y38.43 E0.73088
G0 F1800 X67.28 Y38.43
G1 F900 X56.921 Y28.071 E0.73088
G0 F1800 X56.599 Y28.315
G1 F900 X66.714 Y38.43 E0.71367
G0 F1800 X66.149 Y38.43
G1 F900 X56.599 Y28.881 E0.67377
G0 F1800 X56.599 Y29.446
G1 F900 X65.583 Y38.43 E0.63387
G0 F1800 X65.017 Y38.43
G1 F900 X56.599 Y30.012 E0.59394
G0 F1800 X56.599 Y30.578
G1 F900 X64.452 Y38.43 E0.55404
G0 F1800 X63.886 Y38.43
G1 F900 X56.599 Y31.143 E0.51414
G0 F1800 X56.599 Y31.709
G1 F900 X63.32 Y38.43 E0.4742
G0 F1800 X62.755 Y38.43
G1 F900 X56.599 Y32.275 E0.4343
G0 F1800 X56.599 Y32.84
G1 F900 X62.189 Y38.43 E0.3944
G0 F1800 X61.623 Y38.43
G1 F900 X56.599 Y33.406 E0.35447
G0 F1800 X56.599 Y33.972
G1 F900 X61.057 Y38.43 E0.31454
G0 F1800 X60.492 Y38.43
G1 F900 X56.599 Y34.537 E0.27467
G0 F1800 X56.599 Y35.103
G1 F900 X59.926 Y38.43 E0.23474
G0 F1800 X59.36 Y38.43
G1 F900 X56.599 Y35.669 E0.1948
G0 F1800 X56.599 Y36.234
G1 F900 X58.795 Y38.43 E0.15494
G0 F1800 X58.229 Y38.43
G1 F900 X56.599 Y36.8 E0.11501
G0 F1800 X56.599 Y37.366
G1 F900 X57.663 Y38.43 E0.07507
G0 F1800 X57.098 Y38.43
G1 F900 X56.599 Y37.932 E0.03517
G1 F1800 E-1.3
;MESH:FCPRO_final_5.3mf
G0 X56.044 Y38.987
G0 X54.765 Y38.987
G0 X-53.092 Y40.885
G0 X-79.891 Y41.004
G0 X-79.69 Y38.987
G0 X-79.67 Y39.632
;TYPE:WALL-INNER
G1 F1800 E1.3
G1 F900 X-103.945 Y39.632 E1.21108
G1 X-103.945 Y28.132 E0.57374
G1 X-79.67 Y28.132 E1.21108
G1 X-79.67 Y39.632 E0.57374
G0 F1800 X-79.27 Y40.032
;TYPE:WALL-OUTER
G1 F900 X-104.345 Y40.032 E1.251
G1 X-104.345 Y27.732 E0.61365
G1 X-79.27 Y27.732 E1.251
G1 X-79.27 Y40.032 E0.61365
G0 F1800 X-79.47 Y40.032
G0 X-80.06 Y39.242
;TYPE:SKIN
G1 F900 X-103.555 Y39.242 E1.17217
G1 X-103.555 Y28.522 E0.53482
G1 X-80.06 Y28.522 E1.17217
G1 X-80.06 Y39.242 E0.53482
G0 F1800 X-80.475 Y28.702
G1 F900 X-80.238 Y28.938 E0.01669
G0 F1800 X-80.238 Y29.504
G1 F900 X-81.04 Y28.702 E0.05659
G0 F1800 X-81.606 Y28.702
G1 F900 X-80.238 Y30.069 E0.09648
G0 F1800 X-80.238 Y30.635
G1 F900 X-82.172 Y28.702 E0.13642
G0 F1800 X-82.737 Y28.702
G1 F900 X-80.238 Y31.201 E0.17632
G0 F1800 X-80.238 Y31.766
G1 F900 X-83.303 Y28.702 E0.21622
G0 F1800 X-83.869 Y28.702
G1 F900 X-80.238 Y32.332 E0.25615
G0 F1800 X-80.238 Y32.898
G1 F900 X-84.434 Y28.702 E0.29605
G0 F1800 X-85 Y28.702
G1 F900 X-80.238 Y33.463 E0.33595
G0 F1800 X-80.238 Y34.029
G1 F900 X-85.566 Y28.702 E0.37588
G0 F1800 X-86.131 Y28.702
G1 F900 X-80.238 Y34.595 E0.41578
G0 F1800 X-80.238 Y35.16
G1 F900 X-86.697 Y28.702 E0.45568
G0 F1800 X-87.263 Y28.702
G1 F900 X-80.238 Y35.726 E0.49562
G0 F1800 X-80.238 Y36.292
G1 F900 X-87.829 Y28.702 E0.53555
G0 F1800 X-88.394 Y28.702
G1 F900 X-80.238 Y36.857 E0.57541
G0 F1800 X-80.238 Y37.423
G1 F900 X-88.96 Y28.702 E0.61535
G0 F1800 X-89.526 Y28.702
G1 F900 X-80.238 Y37.989 E0.65528
G0 F1800 X-80.238 Y38.554
G1 F900 X-90.091 Y28.702 E0.69515
G0 F1800 X-90.657 Y28.702
G1 F900 X-80.297 Y39.061 E0.73092
G0 F1800 X-80.863 Y39.061
G1 F900 X-91.223 Y28.702 E0.73092
G0 F1800 X-91.788 Y28.702
G1 F900 X-81.429 Y39.061 E0.73088
G0 F1800 X-81.994 Y39.061
G1 F900 X-92.354 Y28.702 E0.73092
G0 F1800 X-92.92 Y28.702
G1 F900 X-82.56 Y39.061 E0.73092
G0 F1800 X-83.126 Y39.061
G1 F900 X-93.485 Y28.702 E0.73088
G0 F1800 X-94.051 Y28.702
G1 F900 X-83.691 Y39.061 E0.73092
G0 F1800 X-84.257 Y39.061
G1 F900 X-94.617 Y28.702 E0.73092
G0 F1800 X-95.182 Y28.702
G1 F900 X-84.823 Y39.061 E0.73088
