;FLAVOR:Makerbot
;TIME:16415
;MINX:-71.014
;MINY:-71.734
;MINZ:0.3
;MAXX:112.5
;MAXY:73
;MAXZ:11.5
;Generated with Cura_SteamEngine 4.8.0
T0
M82 ;absolute extrusion mode
; **** FlashForge Creator Pro PRINTER start.gcode for dual extrusion only ****
M83 ; relative extrusion mode
M73 P0 ; enable build progress
G162 X Y F3000 ; home XY maximum
G161 Z F1200 ; home Z minimum
G92 Z-5 ; set Z to -5
G1 Z0 ; move Z to 0
G161 Z F100 ; home Z slowly
M132 X Y Z A B ; recall home offsets
M135 T0 ; load right extruder offsets
G1 X150 Y-70 Z30 F9000 ; move to wait position right hand side of the table
G130 X20 Y20 Z20 A20 B20 ; lower stepper Vrefs while heating
M127
M140 S60 T0 ; set bed temperature
M134 T0 ; stabilize bed temperature
M104 S230 T0 ; set right extruder temp
M104 S228 T1 ; set left extruder temp
M133 T0 ; stabilize right extruder temperature
M133 T1 ; stabilize left extruder temperature
G130 X127 Y127 Z40 A127 B127 ; default stepper Vrefs
G92 A0 B0 ; zero extruders
M135 T0 ; right tool
G1 Z0.4 ; position nozzle
G1 X110 Y-70 E25 F300 ; purge nozzle
G1 X120 Y-70 Z0.15 F1200 ; slow wipe
G1 X110 Y-70 Z0.5 F1200 ; lift
G1 Z4 F1200 ; raise
G1 X-110 F4000 ; move nozzle to left side of bed
G1 Z0.4 F1200 ; lower
M135 T1 ; left tool
G1 X-140 Y-70 F9000 ; reposition nozzle
G1 X-100 Y-70 E25 F300 ; purge nozzle
G1 X-110 Y-70 Z0.15 F1200 ; slow wipe
G1 X-100 Y-70 Z0.5 F1200 ; lift
G92 A0 B0 ; zero extruders
M135 T1 ; left or right tool
M73 P1 ;@body (notify GPX body has started)
; **** end of start.gcode ****
M83 ;relative extrusion mode
G1 F1800 E-1.3
;LAYER_COUNT:57
;LAYER:0
M127 T0
M104 T1 S228
M104 S215
;MESH:gripper_bottom_flex.STL
G0 X112.5 Y73 Z0.3
G1 F1200 E-14.7
G1 F600 Z1.3
M135 T1
M104 S228
M116
M104 T0 S175
G1 F1800 E-1.3
G0 X78.5 Y73 Z1.3
G1 F600 Z0.3
G0 F1800 X70.098 Y64.591
G0 X69.331 Y63.825
G0 X0.487 Y23.257
G0 X-.431 Y23.201
G0 X-.955 Y23.802
;TYPE:WALL-INNER
G1 F1800 E1.3
G1 F900 X-.849 Y23.907 E0.00744
G1 X-.864 Y23.918
G1 X-60.45 Y70.261 E3.76602
G1 X-60.781 Y70.452 E0.01907
G1 X-61.196 Y70.58 E0.02167
G1 X-61.569 Y70.612 E0.01868
G1 X-61.955 Y70.562 E0.01942
G1 X-62.301 Y70.44 E0.0183
G1 X-62.835 Y70.066 E0.03253
G1 X-70.107 Y62.792 E0.51315
G1 X-70.348 Y62.474 E0.01991
G1 X-70.524 Y62.085 E0.0213
G1 X-70.602 Y61.712 E0.01901
G1 X-70.603 Y61.343 E0.01841
G1 X-70.521 Y60.962 E0.01944
G1 X-70.226 Y60.404 E0.03149
G1 X-23.881 Y0.818 E3.76608
G1 X-23.805 Y0.884 E0.00502
G1 X-23.101 Y0.567 E0.03852
G1 X-23.1 Y-.57 E0.05673
G1 X-23.807 Y-.89 E0.03872
G1 X-23.885 Y-.821 E0.0052
G1 X-70.261 Y-60.45 E3.76873
G1 X-70.452 Y-60.781 E0.01907
G1 X-70.58 Y-61.196 E0.02167
G1 X-70.612 Y-61.569 E0.01868
G1 X-70.562 Y-61.955 E0.01942
G1 X-70.44 Y-62.301 E0.0183
G1 X-70.066 Y-62.835 E0.03253
G1 X-62.792 Y-70.107 E0.51315
G1 X-62.474 Y-70.348 E0.01991
G1 X-62.085 Y-70.524 E0.0213
G1 X-61.712 Y-70.602 E0.01901
G1 X-61.343 Y-70.603 E0.01841
G1 X-60.962 Y-70.521 E0.01944
G1 X-60.404 Y-70.226 E0.03149
G1 X-.818 Y-23.881 E3.76608
G1 X-.884 Y-23.805 E0.00502
G1 X-.567 Y-23.101 E0.03852
G1 X0.57 Y-23.1 E0.05673
G1 X0.89 Y-23.807 E0.03872
G1 X0.821 Y-23.885 E0.0052
G1 X60.45 Y-70.261 E3.76873
G1 X60.781 Y-70.452 E0.01907
G1 X61.196 Y-70.58 E0.02167
G1 X61.569 Y-70.612 E0.01868
G1 X61.955 Y-70.562 E0.01942
G1 X62.301 Y-70.44 E0.0183
G1 X62.835 Y-70.066 E0.03253
G1 X70.107 Y-62.792 E0.51315
G1 X70.348 Y-62.474 E0.01991
G1 X70.524 Y-62.085 E0.0213
G1 X70.602 Y-61.712 E0.01901
G1 X70.603 Y-61.343 E0.01841
G1 X70.521 Y-60.962 E0.01944
G1 X70.226 Y-60.404 E0.03149
G1 X23.881 Y-.818 E3.76608
G1 X23.805 Y-.884 E0.00502
G1 X23.101 Y-.567 E0.03852
G1 X23.1 Y0.57 E0.05673
G1 X23.807 Y0.89 E0.03872
G1 X23.885 Y0.821 E0.0052
G1 X70.261 Y60.45 E3.76873
G1 X70.452 Y60.781 E0.01907
G1 X70.58 Y61.196 E0.02167
G1 X70.612 Y61.569 E0.01868
G1 X70.562 Y61.955 E0.01942
G1 X70.44 Y62.301 E0.0183
G1 X70.066 Y62.835 E0.03253
G1 X62.792 Y70.107 E0.51315
G1 X62.474 Y70.348 E0.01991
G1 X62.085 Y70.524 E0.0213
G1 X61.712 Y70.602 E0.01901
G1 X61.343 Y70.603 E0.01841
G1 X60.962 Y70.521 E0.01944
G1 X60.409 Y70.229 E0.0312
G1 X0.854 Y23.91 E3.76407
G1 X0.844 Y23.902 E0.00064
G1 X0.917 Y23.828 E0.00286
G1 X0.596 Y23.087 E0.04029
G1 X-.107 Y23.103 E0.03508
G1 X-.519 Y23.009 E0.02108
G1 X-.955 Y23.802 E0.04515
G0 F1800 X-16.894 Y5.886
G0 X-20.539 Y0.152
G1 F900 X-20.363 Y0.746 E0.03091
G1 X-19.985 Y1.231 E0.03068
G1 X-19.45 Y1.539 E0.0308
G1 X-18.874 Y1.629 E0.02909
G1 X-18.269 Y1.497 E0.03089
G1 X-17.757 Y1.146 E0.03097
G1 X-17.572 Y0.87 E0.01658
G1 X-17.417 Y0.64 E0.01384
G1 X-17.289 Y0.072 E0.02905
G1 X-17.374 Y-.532 E0.03043
G1 X-17.572 Y-.875 E0.01976
G1 X-17.685 Y-1.07 E0.01124
G1 X-18.176 Y-1.453 E0.03107
G1 X-18.77 Y-1.623 E0.03082
G1 X-19.335 Y-1.572 E0.0283
G1 X-19.767 Y-1.386 E0.02347
G1 X-20.214 Y-.984 E0.02999
G1 X-20.477 Y-.463 E0.02912
G1 X-20.539 Y0.152 E0.03084
G0 F1800 X-20.083 Y-.886
G0 X-16.932 Y-5.819
G0 X-5.107 Y-12.007
G0 X-3.321 Y-12.621
G0 X-1.984 Y-12.898
G0 X-.644 Y-13.033
G0 X0.719 Y-13.03
G0 X2.044 Y-12.888
G0 X3.377 Y-12.605
G0 X4.654 Y-12.191
G0 X5.903 Y-11.638
G0 X7.067 Y-10.97
G0 X8.162 Y-10.182
G0 X9.179 Y-9.275
G0 X10.098 Y-8.266
G0 X12.199 Y-5.223
G1 F900 X12.037 Y-5.518 E0.01679
G1 X11.461 Y-6.567 E0.05971
G1 X11.028 Y-7.273 E0.04132
G1 X10.719 Y-7.719 E0.02707
G1 X10.216 Y-8.375 E0.04124
G1 X9.863 Y-8.787 E0.02707
G1 X9.293 Y-9.388 E0.04132
G1 X8.9 Y-9.761 E0.02703
G1 X8.272 Y-10.3 E0.04129
G1 X7.842 Y-10.63 E0.02704
G1 X7.161 Y-11.101 E0.04131
G1 X6.7 Y-11.384 E0.02699
G1 X5.973 Y-11.783 E0.04137
G1 X5.484 Y-12.017 E0.02705
G1 X4.722 Y-12.337 E0.04123
G1 X4.212 Y-12.52 E0.02703
G1 X3.419 Y-12.76 E0.04134
G1 X2.892 Y-12.888 E0.02706
G1 X2.079 Y-13.045 E0.04131
G1 X1.542 Y-13.119 E0.02704
G1 X0.718 Y-13.191 E0.04127
G1 X0.175 Y-13.208 E0.0271
G1 X-.652 Y-13.194 E0.04127
G1 X-1.192 Y-13.155 E0.02701
G1 X-2.014 Y-13.056 E0.04131
G1 X-2.548 Y-12.961 E0.02706
G1 X-3.355 Y-12.778 E0.04128
G1 X-3.877 Y-12.628 E0.0271
G1 X-4.66 Y-12.361 E0.04127
G1 X-5.163 Y-12.158 E0.02706
G1 X-5.914 Y-11.812 E0.04125
G1 X-6.393 Y-11.559 E0.02703
G1 X-7.106 Y-11.136 E0.04136
G1 X-7.556 Y-10.834 E0.02704
G1 X-8.22 Y-10.341 E0.04126
G1 X-8.637 Y-9.994 E0.02707
G1 X-9.247 Y-9.435 E0.04128
G1 X-9.626 Y-9.046 E0.0271
G1 X-10.173 Y-8.426 E0.04125
G1 X-10.51 Y-8.002 E0.02702
G1 X-10.992 Y-7.327 E0.04138
G1 X-11.281 Y-6.87 E0.02698
G1 X-11.51 Y-6.469 E0.02304
G1 X-16.191 Y-6.469 E0.23354
G1 X-16.683 Y-6.328 E0.02553
G1 X-17.08 Y-5.898 E0.0292
G1 X-17.187 Y-5.455 E0.02274
G1 X-17.187 Y-.929 E0.2258
G1 X-17.187 Y-.532 E0.01472
G1 X-17.187 Y0.072 E0.01085
G1 X-17.187 Y0.64 E0.01166
G1 X-17.187 Y0.918 E0.01105
G1 X-17.187 Y5.496 E0.2284
G1 X-17.035 Y5.978 E0.02521
G1 X-16.606 Y6.366 E0.02886
G1 X-16.171 Y6.468 E0.02229
G1 X-11.515 Y6.468 E0.23229
G1 X-11.432 Y6.619 E0.0086
G1 X-10.995 Y7.322 E0.0413
G1 X-10.684 Y7.767 E0.02709
G1 X-10.178 Y8.422 E0.04129
G1 X-9.823 Y8.831 E0.02702
G1 X-9.252 Y9.43 E0.04129
G1 X-8.855 Y9.801 E0.02711
G1 X-8.225 Y10.337 E0.04127
G1 X-7.793 Y10.665 E0.02706
G1 X-7.111 Y11.133 E0.04127
G1 X-6.648 Y11.414 E0.02702
G1 X-5.92 Y11.809 E0.04132
G1 X-5.43 Y12.042 E0.02707
G1 X-4.666 Y12.359 E0.04127
G1 X-4.154 Y12.539 E0.02708
G1 X-3.361 Y12.775 E0.04128
G1 X-2.834 Y12.901 E0.02703
G1 X-2.021 Y13.055 E0.04128
G1 X-1.482 Y13.125 E0.02712
G1 X-.658 Y13.194 E0.04125
G1 X-.117 Y13.209 E0.027
G1 X0.712 Y13.192 E0.04137
G1 X1.253 Y13.149 E0.02708
G1 X2.072 Y13.047 E0.04118
G1 X2.607 Y12.95 E0.02713
G1 X3.413 Y12.762 E0.04129
G1 X3.934 Y12.61 E0.02708
G1 X4.715 Y12.339 E0.04124
G1 X5.218 Y12.135 E0.02708
G1 X5.967 Y11.785 E0.04125
G1 X6.446 Y11.53 E0.02707
G1 X7.156 Y11.104 E0.04131
G1 X7.604 Y10.801 E0.02698
G1 X8.267 Y10.304 E0.04134
G1 X8.682 Y9.955 E0.02705
G1 X9.289 Y9.393 E0.04127
G1 X9.665 Y9.002 E0.02706
G1 X10.212 Y8.381 E0.04129
G1 X10.546 Y7.954 E0.02705
G1 X11.024 Y7.278 E0.04131
G1 X11.311 Y6.821 E0.02692
G1 X11.575 Y6.362 E0.02642
G1 X12.03 Y5.518 E0.04784
G1 X12.189 Y5.224 E0.01668
G1 X11.855 Y5.224 E0.0095
G1 X11.854 Y5.224 E0.00005
G1 X6.854 Y5.223 E0.24945
G1 X6.854 Y1.119 E0.20475
G1 X6.854 Y0.791 E0.01636
G1 X6.854 Y0.296 E0.0247
G1 X7.014 Y0.791 E0.00595
G1 X7.225 Y1.041 E0.01172
G1 X7.414 Y1.265 E0.01462
G1 X7.962 Y1.559 E0.03103
G1 X8.591 Y1.624 E0.03155
G1 X9.186 Y1.447 E0.03097
G1 X9.67 Y1.069 E0.03064
G1 X9.981 Y0.53 E0.03105
G1 X10.066 Y-0.093 E0.03137
G1 X9.913 Y-.696 E0.03104
G1 X9.545 Y-1.198 E0.03105
G1 X9.015 Y-1.525 E0.03107
G1 X8.401 Y-1.629 E0.03107
G1 X7.832 Y-1.506 E0.02904
G1 X7.57 Y-1.371 E0.0147
G1 X7.241 Y-1.074 E0.02211
G1 X7.138 Y-.981 E0.00692
G1 X6.864 Y-.422 E0.03106
G1 X6.863 Y-.98 E0.00903
G1 X6.863 Y-1.12 E0.00599
G1 X6.853 Y-5.023 E0.19472
G1 X6.853 Y-5.223 E0.00998
G1 X7.053 Y-5.223 E0.00646
G1 X11.862 Y-5.223 E0.23992
G1 X11.863 Y-5.223 E0.00005
G1 X12.199 Y-5.223 E0.00955
G0 F1800 X11.523 Y-5.623
;TYPE:WALL-OUTER
G1 F900 X11.361 Y-5.918 E0.01679
G1 X11.115 Y-6.366 E0.0255
G1 X10.693 Y-7.054 E0.04027
G1 X10.396 Y-7.483 E0.02603
G1 X9.905 Y-8.123 E0.04024
G1 X9.566 Y-8.519 E0.02601
G1 X9.01 Y-9.105 E0.0403
G1 X8.632 Y-9.464 E0.02601
G1 X8.02 Y-9.989 E0.04023
G1 X7.606 Y-10.307 E0.02604
G1 X6.942 Y-10.766 E0.04027
G1 X6.499 Y-11.038 E0.02593
G1 X5.79 Y-11.427 E0.04035
G1 X5.32 Y-11.652 E0.026
G1 X4.577 Y-11.964 E0.0402
G1 X4.086 Y-12.14 E0.02602
G1 X3.314 Y-12.374 E0.04025
G1 X2.807 Y-12.497 E0.02603
G1 X2.014 Y-12.65 E0.04029
G1 X1.497 Y-12.721 E0.02604
G1 X0.694 Y-12.792 E0.04022
G1 X0.172 Y-12.808 E0.02605
G1 X-.634 Y-12.794 E0.04022
G1 X-1.154 Y-12.757 E0.02601
G1 X-1.955 Y-12.66 E0.04025
G1 X-2.469 Y-12.569 E0.02604
G1 X-3.255 Y-12.39 E0.04022
G1 X-3.757 Y-12.246 E0.02605
G1 X-4.521 Y-11.986 E0.04026
G1 X-5.004 Y-11.791 E0.02599
G1 X-5.737 Y-11.453 E0.04027
G1 X-6.198 Y-11.21 E0.026
G1 X-6.892 Y-10.798 E0.04027
G1 X-7.325 Y-10.507 E0.02603
G1 X-7.973 Y-10.026 E0.04026
G1 X-8.374 Y-9.693 E0.026
G1 X-8.968 Y-9.148 E0.04022
G1 X-9.333 Y-8.774 E0.02607
G1 X-9.866 Y-8.169 E0.04023
G1 X-10.191 Y-7.761 E0.02602
G1 X-10.66 Y-7.104 E0.04027
G1 X-10.938 Y-6.664 E0.02597
G1 X-11.277 Y-6.069 E0.03416
G1 X-16.135 Y-6.069 E0.24237
G1 X-16.465 Y-5.974 E0.01713
G1 X-16.716 Y-5.703 E0.01843
G1 X-16.787 Y-5.408 E0.01514
G1 X-16.787 Y5.434 E0.54091
G1 X-16.686 Y5.754 E0.01674
G1 X-16.414 Y6 E0.0183
G1 X-16.125 Y6.068 E0.01481
G1 X-11.279 Y6.068 E0.24177
G1 X-11.087 Y6.417 E0.01987
G1 X-10.661 Y7.102 E0.04024
G1 X-10.362 Y7.53 E0.02605
G1 X-9.868 Y8.168 E0.04026
G1 X-9.527 Y8.562 E0.026
G1 X-8.97 Y9.146 E0.04026
G1 X-8.589 Y9.502 E0.02601
G1 X-7.974 Y10.025 E0.04028
G1 X-7.559 Y10.341 E0.02602
G1 X-6.894 Y10.797 E0.04023
G1 X-6.449 Y11.067 E0.02597
G1 X-5.739 Y11.452 E0.04029
G1 X-5.267 Y11.676 E0.02607
G1 X-4.523 Y11.985 E0.04019
G1 X-4.03 Y12.158 E0.02607
G1 X-3.257 Y12.389 E0.04025
G1 X-2.75 Y12.51 E0.026
G1 X-1.958 Y12.66 E0.04022
G1 X-1.44 Y12.727 E0.02606
G1 X-.636 Y12.794 E0.04025
G1 X-.115 Y12.809 E0.026
G1 X0.692 Y12.792 E0.04027
G1 X1.212 Y12.751 E0.02602
G1 X2.012 Y12.651 E0.04022
G1 X2.526 Y12.558 E0.02606
G1 X3.312 Y12.375 E0.04026
G1 X3.812 Y12.229 E0.02599
G1 X4.574 Y11.965 E0.04023
G1 X5.058 Y11.768 E0.02607
G1 X5.788 Y11.427 E0.0402
G1 X6.249 Y11.182 E0.02605
G1 X6.941 Y10.767 E0.04026
G1 X7.372 Y10.475 E0.02597
G1 X8.018 Y9.991 E0.04027
G1 X8.417 Y9.655 E0.02602
G1 X9.009 Y9.107 E0.04025
G1 X9.371 Y8.731 E0.02604
G1 X9.904 Y8.125 E0.04026
G1 X10.225 Y7.715 E0.02598
G1 X10.691 Y7.056 E0.04027
G1 X10.968 Y6.615 E0.02598
G1 X11.226 Y6.167 E0.02579
G1 X11.36 Y5.918 E0.01411
G1 X11.519 Y5.624 E0.01668
G1 X11.185 Y5.624 E0.0095
G1 X11.184 Y5.624 E0.00005
G1 X6.537 Y5.623 E0.23184
G1 X6.454 Y5.538 E0.00593
G1 X6.453 Y-5.398 E0.5456
G1 X6.453 Y-5.545 E0.00733
G1 X6.525 Y-5.623 E0.0053
G1 X6.672 Y-5.623 E0.00733
G1 X11.186 Y-5.623 E0.2252
G1 X11.187 Y-5.623 E0.00005
G1 X11.523 Y-5.623 E0.00955
G0 F1800 X11.427 Y-5.798
G0 X11.689 Y-5.941
G0 X9.826 Y0.476
G0 X9.194 Y1.237
G0 X8.553 Y1.218
G1 F900 X8.999 Y1.085 E0.02322
G1 X9.362 Y0.802 E0.02296
G1 X9.595 Y0.398 E0.02327
G1 X9.659 Y-0.07 E0.02357
G1 X9.544 Y-.522 E0.02327
G1 X9.268 Y-.899 E0.02331
G1 X8.871 Y-1.144 E0.02327
G1 X8.41 Y-1.222 E0.02333
G1 X7.968 Y-1.126 E0.02257
G1 X7.799 Y-1.039 E0.00948
G1 X7.463 Y-.736 E0.02257
G1 X7.258 Y-.317 E0.02327
G1 X7.226 Y0.149 E0.0233
G1 X7.37 Y0.593 E0.02329
G1 X7.67 Y0.949 E0.02323
G1 X8.081 Y1.169 E0.02326
G1 X8.553 Y1.218 E0.02367
G0 F1800 X8.744 Y1.161
G0 X8.829 Y1.449
G0 X11.888 Y5.404
G0 X10.99 Y7.01
G0 X-.575 Y23.321
G0 X-.314 Y23.466
G1 F900 X-.459 Y23.73 E0.01503
G1 X-.415 Y23.774 E0.0031
G1 X-.244 Y23.943 E0.01199
G1 X-.274 Y23.966
G1 X-60.221 Y70.59 E3.78884
G1 X-60.621 Y70.821 E0.02304
G1 X-61.122 Y70.976 E0.02616
G1 X-61.578 Y71.014 E0.02283
G1 X-62.044 Y70.954 E0.02344
G1 X-62.477 Y70.802 E0.02289
G1 X-62.925 Y70.522 E0.02636
G1 X-63.11 Y70.357 E0.01237
G1 X-70.41 Y63.055 E0.51512
G1 X-70.692 Y62.683 E0.02329
G1 X-70.908 Y62.206 E0.02612
G1 X-71.002 Y61.756 E0.02294
G1 X-71.003 Y61.301 E0.0227
G1 X-70.903 Y60.834 E0.02383
G1 X-70.683 Y60.36 E0.02607
G1 X-70.547 Y60.164 E0.0119
G1 X-23.948 Y0.25 E3.78678
G1 X-23.938 Y0.238 E0.00078
G1 X-23.736 Y0.414 E0.00891
G1 X-23.501 Y0.308 E0.01286
G1 X-23.5 Y-.312 E0.03093
G1 X-23.736 Y-.419 E0.01293
G1 X-23.939 Y-.239 E0.01354
G1 X-23.949 Y-.252
G1 X-70.59 Y-60.221 E3.79023
G1 X-70.821 Y-60.621 E0.02304
G1 X-70.976 Y-61.122 E0.02616
G1 X-71.014 Y-61.578 E0.02283
G1 X-70.954 Y-62.044 E0.02344
G1 X-70.802 Y-62.477 E0.02289
G1 X-70.522 Y-62.925 E0.02636
G1 X-70.357 Y-63.11 E0.01237
G1 X-63.055 Y-70.41 E0.51512
G1 X-62.683 Y-70.692 E0.02329
G1 X-62.206 Y-70.908 E0.02612
G1 X-61.756 Y-71.002 E0.02294
G1 X-61.301 Y-71.003 E0.0227
G1 X-60.834 Y-70.903 E0.02383
G1 X-60.36 Y-70.683 E0.02607
G1 X-60.164 Y-70.547 E0.0119
G1 X-.25 Y-23.948 E3.78678
G1 X-.238 Y-23.938 E0.00078
G1 X-.414 Y-23.736 E0.00891
G1 X-.308 Y-23.501 E0.01286
G1 X0.312 Y-23.5 E0.03093
G1 X0.419 Y-23.736 E0.01293
G1 X0.239 Y-23.939 E0.01354
G1 X0.252 Y-23.949
G1 X60.221 Y-70.59 E3.79023
G1 X60.621 Y-70.821 E0.02304
G1 X61.122 Y-70.976 E0.02616
G1 X61.578 Y-71.014 E0.02283
G1 X62.044 Y-70.954 E0.02344
G1 X62.477 Y-70.802 E0.02289
G1 X62.925 Y-70.522 E0.02636
G1 X63.11 Y-70.357 E0.01237
G1 X70.41 Y-63.055 E0.51512
G1 X70.692 Y-62.683 E0.02329
G1 X70.908 Y-62.206 E0.02612
G1 X71.002 Y-61.756 E0.02294
G1 X71.003 Y-61.301 E0.0227
G1 X70.903 Y-60.834 E0.02383
G1 X70.683 Y-60.36 E0.02607
G1 X70.547 Y-60.164 E0.0119
G1 X23.948 Y-.25 E3.78678
G1 X23.938 Y-.238 E0.00078
G1 X23.736 Y-.414 E0.00891
G1 X23.501 Y-.308 E0.01286
G1 X23.5 Y0.312 E0.03093
G1 X23.736 Y0.419 E0.01293
G1 X23.939 Y0.239 E0.01354
G1 X23.949 Y0.252
G1 X70.59 Y60.221 E3.79023
G1 X70.821 Y60.621 E0.02304
G1 X70.976 Y61.122 E0.02616
G1 X71.014 Y61.578 E0.02283
G1 X70.954 Y62.044 E0.02344
G1 X70.802 Y62.477 E0.02289
G1 X70.522 Y62.925 E0.02636
G1 X70.357 Y63.11 E0.01237
G1 X63.055 Y70.41 E0.51512
G1 X62.683 Y70.692 E0.02329
G1 X62.206 Y70.908 E0.02612
G1 X61.756 Y71.002 E0.02294
G1 X61.301 Y71.003 E0.0227
G1 X60.834 Y70.903 E0.02383
G1 X60.36 Y70.683 E0.02607
G1 X60.164 Y70.546 E0.01193
G1 X0.27 Y23.963 E3.7855
G1 X0.244 Y23.943 E0.00164
G1 X0.443 Y23.74 E0.00949
G1 X0.336 Y23.493 E0.01343
G1 X-.147 Y23.504 E0.02404
G1 X-.314 Y23.466 E0.0077
G0 F1800 X-.41 Y23.641
G0 X-.671 Y23.496
G0 X-16.894 Y5.886
G0 X-20.216 Y0.673
G0 X-20.133 Y0.114
G1 F900 X-20.001 Y0.56 E0.02321
G1 X-19.718 Y0.923 E0.02296
G1 X-19.315 Y1.155 E0.0232
G1 X-18.886 Y1.222 E0.02166
G1 X-18.431 Y1.123 E0.02323
G1 X-18.046 Y0.859 E0.02329
G1 X-17.791 Y0.479 E0.02283
G1 X-17.695 Y0.055 E0.02169
G1 X-17.759 Y-.399 E0.02287
G1 X-17.992 Y-.802 E0.02322
G1 X-18.361 Y-1.09 E0.02335
G1 X-18.808 Y-1.218 E0.0232
G1 X-19.235 Y-1.179 E0.02139
G1 X-19.549 Y-1.044 E0.01705
G1 X-19.891 Y-.737 E0.02293
G1 X-20.086 Y-.349 E0.02166
G1 X-20.133 Y0.114 E0.02322
G0 F1800 X-20.077 Y0.305
G0 X-20.935 Y0.189
;TYPE:SKIN
G1 F900 X-20.716 Y0.927 E0.03841
G1 X-20.246 Y1.531 E0.03818
G1 X-19.582 Y1.913 E0.03822
G1 X-18.862 Y2.025 E0.03635
G1 X-18.111 Y1.862 E0.03834
G1 X-17.577 Y1.495 E0.03233
G1 X-17.577 Y5.556 E0.2026
G1 X-17.375 Y6.196 E0.03348
G1 X-16.793 Y6.723 E0.03917
