;FLAVOR:Makerbot
;TIME:14245
;MINX:-72.982
;MINY:-72.982
;MINZ:0.3
;MAXX:112.5
;MAXY:73
;MAXZ:10.9
;Generated with Cura_SteamEngine 4.8.0
T0
M82 ;absolute extrusion mode
; **** FlashForge Creator Pro PRINTER start.gcode for dual extrusion only ****
M83 ; relative extrusion mode
M73 P0 ; enable build progress
G162 X Y F3000 ; home XY maximum
G161 Z F1200 ; home Z minimum
G92 Z-5 ; set Z to -5
G1 Z0 ; move Z to 0
G161 Z F100 ; home Z slowly
M132 X Y Z A B ; recall home offsets
M135 T0 ; load right extruder offsets
G1 X150 Y-70 Z30 F9000 ; move to wait position right hand side of the table
G130 X20 Y20 Z20 A20 B20 ; lower stepper Vrefs while heating
M127
M140 S60 T0 ; set bed temperature
M134 T0 ; stabilize bed temperature
M104 S230 T0 ; set right extruder temp
M104 S230 T1 ; set left extruder temp
M133 T0 ; stabilize right extruder temperature
M133 T1 ; stabilize left extruder temperature
G130 X127 Y127 Z40 A127 B127 ; default stepper Vrefs
G92 A0 B0 ; zero extruders
M135 T0 ; right tool
G1 Z0.4 ; position nozzle
G1 X110 Y-70 E25 F300 ; purge nozzle
G1 X120 Y-70 Z0.15 F1200 ; slow wipe
G1 X110 Y-70 Z0.5 F1200 ; lift
G1 Z4 F1200 ; raise
G1 X-110 F4000 ; move nozzle to left side of bed
G1 Z0.4 F1200 ; lower
M135 T1 ; left tool
G1 X-140 Y-70 F9000 ; reposition nozzle
G1 X-100 Y-70 E25 F300 ; purge nozzle
G1 X-110 Y-70 Z0.15 F1200 ; slow wipe
G1 X-100 Y-70 Z0.5 F1200 ; lift
G92 A0 B0 ; zero extruders
M135 T0 ; left or right tool
M73 P1 ;@body (notify GPX body has started)
; **** end of start.gcode ****
M83 ;relative extrusion mode
G1 F1800 E-1.3
;LAYER_COUNT:49
;LAYER:0
M127 T0
M104 T1 S175
G0 F2700 X6.043 Y1.108 Z0.3
;TYPE:SKIRT
G1 F1800 E1.3
G1 F900 X6.043 Y-6.043 E0.35676
G1 X-1.262 Y-6.043 E0.36445
G1 X-1.451 Y-6.008 E0.00959
G1 X-1.953 Y-6.049 E0.02513
G1 X-19.689 Y-6.049 E0.88485
G1 X-61.589 Y35.85 E2.95624
G1 X-61.884 Y36.088 E0.01891
G1 X-62.222 Y36.259 E0.0189
G1 X-62.588 Y36.356 E0.01889
G1 X-62.862 Y36.377 E0.01371
G1 X-70.782 Y36.377 E0.39513
G1 X-71.159 Y36.337 E0.01891
G1 X-71.519 Y36.219 E0.0189
G1 X-71.846 Y36.029 E0.01887
G1 X-72.127 Y35.774 E0.01893
G1 X-72.347 Y35.465 E0.01892
G1 X-72.499 Y35.118 E0.0189
G1 X-72.582 Y34.577 E0.02731
G1 X-72.582 Y21.284 E0.66319
G1 X-72.542 Y20.907 E0.01891
G1 X-72.424 Y20.547 E0.0189
G1 X-72.234 Y20.22 E0.01887
G1 X-72.055 Y20.011 E0.01373
G1 X-28.781 Y-23.262 E3.05318
G1 X-28.486 Y-23.5 E0.01891
G1 X-28.148 Y-23.671 E0.0189
G1 X-27.782 Y-23.768 E0.01889
G1 X-27.508 Y-23.789 E0.01371
G1 X-12.133 Y-23.789 E0.76706
G1 X-5.587 Y-30.335 E0.46186
G1 X-5.292 Y-30.573 E0.01891
G1 X-4.954 Y-30.744 E0.0189
G1 X-4.588 Y-30.841 E0.01889
G1 X-4.314 Y-30.862 E0.01371
G1 X-1.8 Y-30.862 E0.12542
G1 X-1.423 Y-30.897 E0.01889
G1 X-1.095 Y-30.857 E0.01649
G1 X6.043 Y-30.857 E0.35612
G1 X6.043 Y-36.163 E0.26472
G1 X6.016 Y-36.708 E0.02722
G1 X6.049 Y-36.851 E0.00732
G1 X6.049 Y-41.225 E0.21822
G1 X6.089 Y-41.602 E0.01891
G1 X6.207 Y-41.962 E0.0189
G1 X6.397 Y-42.289 E0.01887
G1 X6.576 Y-42.498 E0.01373
G1 X16.799 Y-52.722 E0.72132
G1 X17.094 Y-52.96 E0.01891
G1 X17.522 Y-53.163 E0.02363
G1 X26.694 Y-56.109 E0.48062
G1 X32.823 Y-62.239 E0.43247
G1 X33.118 Y-62.477 E0.01891
G1 X33.456 Y-62.648 E0.0189
G1 X33.822 Y-62.745 E0.01889
G1 X34.096 Y-62.766 E0.01371
G1 X36.179 Y-62.766 E0.10392
G1 X45.467 Y-72.055 E0.65535
G1 X45.762 Y-72.293 E0.01891
G1 X46.1 Y-72.464 E0.0189
G1 X46.466 Y-72.561 E0.01889
G1 X46.74 Y-72.582 E0.01371
G1 X60.882 Y-72.582 E0.70555
G1 X61.259 Y-72.542 E0.01891
G1 X61.619 Y-72.424 E0.0189
G1 X61.946 Y-72.234 E0.01887
G1 X62.227 Y-71.979 E0.01893
G1 X62.447 Y-71.67 E0.01892
G1 X62.599 Y-71.323 E0.0189
G1 X62.674 Y-70.952 E0.01888
G1 X62.67 Y-70.573 E0.01891
G1 X62.586 Y-70.203 E0.01893
G1 X62.427 Y-69.859 E0.01891
G1 X62.155 Y-69.509 E0.02211
G1 X30.862 Y-38.216 E2.20789
G1 X30.862 Y-36.69 E0.07613
G1 X30.897 Y-36.36 E0.01656
G1 X30.857 Y-35.983 E0.01891
G1 X30.857 Y-30.857 E0.25574
G1 X36.228 Y-30.857 E0.26796
G1 X36.735 Y-30.862 E0.0253
G1 X38.216 Y-30.862 E0.07389
G1 X69.509 Y-62.155 E2.20789
G1 X69.804 Y-62.393 E0.01891
G1 X70.142 Y-62.564 E0.0189
G1 X70.508 Y-62.661 E0.01889
G1 X70.887 Y-62.679 E0.01893
G1 X71.261 Y-62.617 E0.01891
G1 X71.613 Y-62.479 E0.01886
G1 X71.929 Y-62.269 E0.01893
G1 X72.194 Y-61.998 E0.01891
G1 X72.397 Y-61.678 E0.01891
G1 X72.527 Y-61.322 E0.01891
G1 X72.582 Y-60.882 E0.02212
G1 X72.582 Y-46.74 E0.70555
G1 X72.542 Y-46.363 E0.01891
G1 X72.424 Y-46.003 E0.0189
G1 X72.234 Y-45.676 E0.01887
G1 X72.055 Y-45.467 E0.01373
G1 X62.766 Y-36.179 E0.65535
G1 X62.766 Y-34.096 E0.10392
G1 X62.726 Y-33.719 E0.01891
G1 X62.608 Y-33.359 E0.0189
G1 X62.418 Y-33.032 E0.01887
G1 X62.239 Y-32.823 E0.01373
G1 X56.109 Y-26.694 E0.43247
G1 X53.163 Y-17.522 E0.48062
G1 X53.01 Y-17.175 E0.01892
G1 X52.722 Y-16.799 E0.02363
G1 X42.498 Y-6.576 E0.72132
G1 X42.203 Y-6.338 E0.01891
G1 X41.865 Y-6.167 E0.0189
G1 X41.499 Y-6.07 E0.01889
G1 X41.225 Y-6.049 E0.01371
G1 X36.721 Y-6.049 E0.22471
G1 X36.463 Y-6.007 E0.01304
G1 X36.018 Y-6.043 E0.02227
G1 X30.857 Y-6.043 E0.25748
G1 X30.857 Y1.323 E0.36749
G1 X30.862 Y1.841 E0.02584
G1 X30.862 Y4.314 E0.12338
G1 X30.822 Y4.691 E0.01891
G1 X30.704 Y5.051 E0.0189
G1 X30.514 Y5.378 E0.01887
G1 X30.335 Y5.587 E0.01373
G1 X23.789 Y12.133 E0.46186
G1 X23.789 Y27.508 E0.76706
G1 X23.749 Y27.885 E0.01891
G1 X23.631 Y28.245 E0.0189
G1 X23.441 Y28.572 E0.01887
G1 X23.262 Y28.781 E0.01373
G1 X-20.011 Y72.055 E3.05318
G1 X-20.306 Y72.293 E0.01891
G1 X-20.644 Y72.464 E0.0189
G1 X-21.01 Y72.561 E0.01889
G1 X-21.284 Y72.582 E0.01371
G1 X-34.577 Y72.582 E0.66319
G1 X-34.954 Y72.542 E0.01891
G1 X-35.314 Y72.424 E0.0189
G1 X-35.641 Y72.234 E0.01887
G1 X-35.922 Y71.979 E0.01893
G1 X-36.142 Y71.67 E0.01892
G1 X-36.294 Y71.323 E0.0189
G1 X-36.377 Y70.782 E0.02731
G1 X-36.377 Y62.862 E0.39513
G1 X-36.337 Y62.485 E0.01891
G1 X-36.219 Y62.125 E0.0189
G1 X-36.029 Y61.798 E0.01887
G1 X-35.85 Y61.589 E0.01373
G1 X6.049 Y19.689 E2.95624
G1 X6.049 Y1.819 E0.89154
G1 X6.006 Y1.541 E0.01403
G1 X6.043 Y1.108 E0.02168
G0 F2700 X6.443 Y1.136
G1 F900 X6.443 Y-6.443 E0.37812
G1 X-1.298 Y-6.443 E0.3862
G1 X-1.522 Y-6.405 E0.01134
G1 X-1.92 Y-6.449 E0.01998
G1 X-19.855 Y-6.449 E0.89478
G1 X-61.872 Y35.567 E2.96449
G1 X-62.135 Y35.773 E0.01667
G1 X-62.439 Y35.912 E0.01668
G1 X-62.862 Y35.977 E0.02135
G1 X-70.782 Y35.977 E0.39513
G1 X-71.114 Y35.937 E0.01668
G1 X-71.426 Y35.82 E0.01662
G1 X-71.703 Y35.632 E0.0167
G1 X-71.926 Y35.384 E0.01664
G1 X-72.085 Y35.09 E0.01668
G1 X-72.182 Y34.577 E0.02605
G1 X-72.182 Y21.284 E0.66319
G1 X-72.142 Y20.952 E0.01668
G1 X-72.025 Y20.64 E0.01662
G1 X-71.772 Y20.294 E0.02138
G1 X-28.498 Y-22.979 E3.05318
G1 X-28.235 Y-23.185 E0.01667
G1 X-27.931 Y-23.324 E0.01668
G1 X-27.508 Y-23.389 E0.02135
G1 X-11.967 Y-23.389 E0.77534
G1 X-5.304 Y-30.052 E0.47011
G1 X-5.041 Y-30.258 E0.01667
G1 X-4.737 Y-30.397 E0.01668
G1 X-4.314 Y-30.462 E0.02135
G1 X-1.762 Y-30.462 E0.12732
G1 X-1.389 Y-30.496 E0.01869
G1 X-1.151 Y-30.457 E0.01203
G1 X6.443 Y-30.457 E0.37887
G1 X6.443 Y-36.201 E0.28657
G1 X6.406 Y-36.404 E0.01029
G1 X6.449 Y-36.815 E0.02062
G1 X6.449 Y-41.225 E0.22002
G1 X6.489 Y-41.557 E0.01668
G1 X6.606 Y-41.869 E0.01662
G1 X6.859 Y-42.215 E0.02138
G1 X17.082 Y-52.439 E0.72132
G1 X17.345 Y-52.645 E0.01667
G1 X17.644 Y-52.782 E0.01641
G1 X26.908 Y-55.757 E0.48543
G1 X33.106 Y-61.956 E0.43734
G1 X33.369 Y-62.162 E0.01667
G1 X33.673 Y-62.301 E0.01668
G1 X34.096 Y-62.366 E0.02135
G1 X36.345 Y-62.366 E0.1122
G1 X45.75 Y-71.772 E0.66361
G1 X46.013 Y-71.978 E0.01667
G1 X46.317 Y-72.117 E0.01668
G1 X46.74 Y-72.182 E0.02135
G1 X60.882 Y-72.182 E0.70555
G1 X61.214 Y-72.142 E0.01668
G1 X61.526 Y-72.025 E0.01662
G1 X61.803 Y-71.837 E0.0167
G1 X62.026 Y-71.589 E0.01664
G1 X62.185 Y-71.295 E0.01668
G1 X62.269 Y-70.971 E0.0167
G1 X62.275 Y-70.637 E0.01667
G1 X62.201 Y-70.312 E0.01663
G1 X62.052 Y-70.013 E0.01667
G1 X61.872 Y-69.792 E0.01422
G1 X30.462 Y-38.382 E2.21615
G1 X30.462 Y-36.672 E0.08531
G1 X30.496 Y-36.321 E0.01759
G1 X30.457 Y-36.058 E0.01326
G1 X30.457 Y-30.457 E0.27944
G1 X36.255 Y-30.457 E0.28926
G1 X36.719 Y-30.462 E0.02315
G1 X38.382 Y-30.462 E0.08297
G1 X69.792 Y-61.872 E2.21615
G1 X70.055 Y-62.078 E0.01667
G1 X70.359 Y-62.217 E0.01668
G1 X70.687 Y-62.279 E0.01665
G1 X71.021 Y-62.261 E0.01669
G1 X71.341 Y-62.166 E0.01665
G1 X71.629 Y-61.997 E0.01666
G1 X71.869 Y-61.764 E0.01669
G1 X72.047 Y-61.482 E0.01664
G1 X72.153 Y-61.165 E0.01668
G1 X72.182 Y-60.882 E0.01419
G1 X72.182 Y-46.74 E0.70555
G1 X72.142 Y-46.408 E0.01668
G1 X72.025 Y-46.096 E0.01662
G1 X71.772 Y-45.75 E0.02138
G1 X62.366 Y-36.345 E0.66361
G1 X62.366 Y-34.096 E0.1122
G1 X62.326 Y-33.764 E0.01668
G1 X62.209 Y-33.452 E0.01662
G1 X61.956 Y-33.106 E0.02138
G1 X55.757 Y-26.908 E0.43734
G1 X52.782 Y-17.644 E0.48543
G1 X52.643 Y-17.34 E0.01668
G1 X52.439 Y-17.082 E0.01641
G1 X42.215 Y-6.859 E0.72132
G1 X41.952 Y-6.653 E0.01667
G1 X41.648 Y-6.514 E0.01668
G1 X41.225 Y-6.449 E0.02135
G1 X36.697 Y-6.449 E0.2259
G1 X36.401 Y-6.405 E0.01493
G1 X36.045 Y-6.443 E0.01786
G1 X30.457 Y-6.443 E0.27879
G1 X30.457 Y1.351 E0.38884
G1 X30.462 Y1.821 E0.02345
G1 X30.462 Y4.314 E0.12438
G1 X30.422 Y4.646 E0.01668
G1 X30.305 Y4.958 E0.01662
G1 X30.052 Y5.304 E0.02138
G1 X23.389 Y11.967 E0.47011
G1 X23.389 Y27.508 E0.77534
G1 X23.349 Y27.84 E0.01668
G1 X23.232 Y28.152 E0.01662
G1 X22.979 Y28.498 E0.02138
G1 X-20.294 Y71.772 E3.05318
G1 X-20.557 Y71.978 E0.01667
G1 X-20.861 Y72.117 E0.01668
G1 X-21.284 Y72.182 E0.02135
G1 X-34.577 Y72.182 E0.66319
G1 X-34.909 Y72.142 E0.01668
G1 X-35.221 Y72.025 E0.01662
G1 X-35.498 Y71.837 E0.0167
G1 X-35.721 Y71.589 E0.01664
G1 X-35.88 Y71.295 E0.01668
G1 X-35.977 Y70.782 E0.02605
G1 X-35.977 Y62.862 E0.39513
G1 X-35.937 Y62.53 E0.01668
G1 X-35.82 Y62.218 E0.01662
G1 X-35.567 Y61.872 E0.02138
G1 X6.449 Y19.855 E2.96449
G1 X6.449 Y1.799 E0.90082
G1 X6.404 Y1.482 E0.01597
G1 X6.443 Y1.136 E0.01737
G0 F2700 X6.843 Y1.199
G1 F900 X6.843 Y-6.843 E0.40122
G1 X-1.313 Y-6.843 E0.4069
G1 X-1.585 Y-6.803 E0.01372
G1 X-1.883 Y-6.849 E0.01504
G1 X-20.021 Y-6.849 E0.90491
G1 X-62.155 Y35.284 E2.97275
G1 X-62.381 Y35.453 E0.01408
G1 X-62.645 Y35.553 E0.01408
G1 X-62.862 Y35.577 E0.01089
G1 X-70.782 Y35.577 E0.39513
G1 X-71.061 Y35.537 E0.01406
G1 X-71.318 Y35.421 E0.01407
G1 X-71.533 Y35.238 E0.01409
G1 X-71.687 Y35.002 E0.01406
G1 X-71.782 Y34.577 E0.02173
G1 X-71.782 Y21.284 E0.66319
G1 X-71.742 Y21.005 E0.01406
G1 X-71.626 Y20.748 E0.01407
G1 X-71.489 Y20.577 E0.01093
G1 X-28.215 Y-22.696 E3.05318
G1 X-27.989 Y-22.865 E0.01408
G1 X-27.725 Y-22.965 E0.01408
G1 X-27.508 Y-22.989 E0.01089
G1 X-11.801 Y-22.989 E0.78363
G1 X-5.021 Y-29.769 E0.47837
G1 X-4.795 Y-29.938 E0.01408
G1 X-4.531 Y-30.038 E0.01408
G1 X-4.314 Y-30.062 E0.01089
G1 X-1.724 Y-30.062 E0.12922
G1 X-1.362 Y-30.093 E0.01813
G1 X-1.208 Y-30.057 E0.00789
G1 X6.843 Y-30.057 E0.40167
G1 X6.843 Y-36.225 E0.30772
G1 X6.803 Y-36.472 E0.01248
G1 X6.849 Y-36.777 E0.01539
G1 X6.849 Y-41.225 E0.22191
G1 X6.889 Y-41.504 E0.01406
G1 X7.005 Y-41.761 E0.01407
G1 X7.142 Y-41.932 E0.01093
G1 X17.365 Y-52.156 E0.72132
G1 X17.59 Y-52.325 E0.01404
G1 X17.766 Y-52.401 E0.00956
G1 X27.123 Y-55.406 E0.49031
G1 X33.389 Y-61.673 E0.44214
G1 X33.614 Y-61.842 E0.01404
G1 X33.878 Y-61.942 E0.01408
G1 X34.096 Y-61.966 E0.01094
G1 X36.511 Y-61.966 E0.12048
G1 X46.033 Y-71.489 E0.67186
G1 X46.258 Y-71.658 E0.01404
G1 X46.522 Y-71.758 E0.01408
G1 X46.74 Y-71.782 E0.01094
G1 X60.882 Y-71.782 E0.70555
G1 X61.161 Y-71.742 E0.01406
G1 X61.418 Y-71.626 E0.01407
G1 X61.633 Y-71.443 E0.01409
G1 X61.787 Y-71.207 E0.01406
G1 X61.87 Y-70.937 E0.01409
G1 X61.874 Y-70.655 E0.01407
G1 X61.799 Y-70.383 E0.01408
G1 X61.589 Y-70.075 E0.0186
G1 X30.062 Y-38.548 E2.2244
G1 X30.062 Y-36.631 E0.09564
G1 X30.094 Y-36.288 E0.01719
G1 X30.057 Y-36.118 E0.00868
G1 X30.057 Y-30.057 E0.30238
G1 X36.282 Y-30.057 E0.31057
G1 X36.695 Y-30.062 E0.02061
G1 X38.548 Y-30.062 E0.09245
G1 X70.075 Y-61.589 E2.2244
G1 X70.301 Y-61.758 E0.01408
G1 X70.565 Y-61.858 E0.01408
G1 X70.846 Y-61.88 E0.01406
G1 X71.122 Y-61.822 E0.01407
G1 X71.371 Y-61.69 E0.01406
G1 X71.573 Y-61.493 E0.01408
G1 X71.713 Y-61.248 E0.01408
G1 X71.782 Y-60.882 E0.01858
G1 X71.782 Y-46.74 E0.70555
G1 X71.742 Y-46.461 E0.01406
G1 X71.626 Y-46.204 E0.01407
G1 X71.489 Y-46.033 E0.01093
G1 X61.966 Y-36.511 E0.67186
G1 X61.966 Y-34.096 E0.12048
G1 X61.926 Y-33.817 E0.01406
G1 X61.81 Y-33.56 E0.01407
G1 X61.673 Y-33.389 E0.01093
G1 X55.406 Y-27.123 E0.44214
G1 X52.401 Y-17.766 E0.49031
G1 X52.278 Y-17.512 E0.01408
G1 X52.156 Y-17.365 E0.00953
G1 X41.932 Y-7.142 E0.72132
G1 X41.706 Y-6.973 E0.01408
G1 X41.442 Y-6.873 E0.01408
G1 X41.225 Y-6.849 E0.01089
G1 X36.659 Y-6.849 E0.2278
G1 X36.346 Y-6.804 E0.01578
G1 X36.099 Y-6.843 E0.01248
G1 X30.057 Y-6.843 E0.30144
G1 X30.057 Y1.378 E0.41015
G1 X30.062 Y1.801 E0.02111
G1 X30.062 Y4.314 E0.12537
G1 X30.022 Y4.593 E0.01406
G1 X29.906 Y4.85 E0.01407
G1 X29.769 Y5.021 E0.01093
G1 X22.989 Y11.801 E0.47837
G1 X22.989 Y27.508 E0.78363
G1 X22.949 Y27.787 E0.01406
G1 X22.833 Y28.044 E0.01407
G1 X22.696 Y28.215 E0.01093
G1 X-20.577 Y71.489 E3.05318
G1 X-20.803 Y71.658 E0.01408
G1 X-21.067 Y71.758 E0.01408
G1 X-21.284 Y71.782 E0.01089
G1 X-34.577 Y71.782 E0.66319
G1 X-34.856 Y71.742 E0.01406
G1 X-35.113 Y71.626 E0.01407
G1 X-35.328 Y71.443 E0.01409
G1 X-35.482 Y71.207 E0.01406
G1 X-35.577 Y70.782 E0.02173
G1 X-35.577 Y62.862 E0.39513
G1 X-35.537 Y62.583 E0.01406
G1 X-35.421 Y62.326 E0.01407
G1 X-35.284 Y62.155 E0.01093
G1 X6.849 Y20.021 E2.97275
G1 X6.849 Y1.756 E0.91124
G1 X6.804 Y1.431 E0.01637
G1 X6.843 Y1.199 E0.01174
G0 F2700 X7.207 Y1.391
G1 F900 X7.243 Y1.272 E0.0062
G1 X7.243 Y-7.243 E0.42482
G1 X-1.369 Y-7.243 E0.42965
G1 X-1.637 Y-7.205 E0.0135
G1 X-1.802 Y-7.249 E0.00852
G1 X-20.187 Y-7.249 E0.91723
G1 X-62.438 Y35.001 E2.981
G1 X-62.617 Y35.125 E0.01086
G1 X-62.862 Y35.177 E0.0125
G1 X-70.782 Y35.177 E0.39513
G1 X-70.997 Y35.137 E0.01091
G1 X-71.183 Y35.024 E0.01086
G1 X-71.316 Y34.851 E0.01089
G1 X-71.382 Y34.577 E0.01406
G1 X-71.382 Y21.284 E0.66319
G1 X-71.342 Y21.069 E0.01091
G1 X-71.206 Y20.86 E0.01244
G1 X-27.932 Y-22.413 E3.05318
G1 X-27.753 Y-22.537 E0.01086
G1 X-27.508 Y-22.589 E0.0125
G1 X-11.635 Y-22.589 E0.79191
G1 X-4.738 Y-29.486 E0.48662
G1 X-4.559 Y-29.61 E0.01086
G1 X-4.314 Y-29.662 E0.0125
G1 X-1.682 Y-29.662 E0.13131
G1 X-1.348 Y-29.688 E0.01671
G1 X-1.263 Y-29.657 E0.00451
G1 X7.243 Y-29.657 E0.42437
G1 X7.243 Y-36.27 E0.32992
G1 X7.204 Y-36.529 E0.01307
G1 X7.249 Y-36.705 E0.00906
G1 X7.249 Y-41.225 E0.2255
G1 X7.289 Y-41.44 E0.01091
G1 X7.425 Y-41.649 E0.01244
G1 X17.648 Y-51.873 E0.72132
G1 X17.889 Y-52.02 E0.01408
G1 X27.338 Y-55.055 E0.49513
G1 X33.672 Y-61.39 E0.44693
G1 X33.851 Y-61.514 E0.01086
G1 X34.096 Y-61.566 E0.0125
G1 X36.677 Y-61.566 E0.12877
G1 X46.316 Y-71.206 E0.68012
G1 X46.495 Y-71.33 E0.01086
G1 X46.74 Y-71.382 E0.0125
G1 X60.882 Y-71.382 E0.70555
G1 X61.097 Y-71.342 E0.01091
G1 X61.283 Y-71.229 E0.01086
G1 X61.416 Y-71.056 E0.01089
G1 X61.478 Y-70.847 E0.01088
G1 X61.462 Y-70.629 E0.01091
G1 X61.306 Y-70.358 E0.0156
G1 X29.662 Y-38.714 E2.23266
G1 X29.662 Y-36.589 E0.10602
G1 X29.69 Y-36.268 E0.01608
G1 X29.657 Y-36.175 E0.00492
G1 X29.657 Y-29.657 E0.32518
G1 X36.317 Y-29.657 E0.33227
G1 X36.667 Y-29.662 E0.01746
G1 X38.714 Y-29.662 E0.10213
G1 X70.358 Y-61.306 E2.23266
G1 X70.537 Y-61.43 E0.01086
G1 X70.75 Y-61.481 E0.01093
G1 X70.966 Y-61.453 E0.01087
G1 X71.158 Y-61.35 E0.01087
G1 X71.3 Y-61.184 E0.0109
G1 X71.382 Y-60.882 E0.01561
G1 X71.382 Y-46.74 E0.70555
G1 X71.342 Y-46.525 E0.01091
G1 X71.206 Y-46.316 E0.01244
G1 X61.566 Y-36.677 E0.68012
G1 X61.566 Y-34.096 E0.12877
G1 X61.526 Y-33.881 E0.01091
G1 X61.39 Y-33.672 E0.01244
G1 X55.055 Y-27.338 E0.44693
G1 X52.02 Y-17.889 E0.49513
G1 X51.873 Y-17.648 E0.01408
G1 X41.649 Y-7.425 E0.72132
G1 X41.469 Y-7.301 E0.0109
G1 X41.225 Y-7.249 E0.01245
G1 X36.607 Y-7.249 E0.23039
G1 X36.302 Y-7.207 E0.01536
G1 X36.177 Y-7.243 E0.00649
G1 X29.657 Y-7.243 E0.32528
G1 X29.657 Y1.407 E0.43155
G1 X29.662 Y1.77 E0.01811
G1 X29.662 Y4.314 E0.12692
