;FLAVOR:Makerbot
;TIME:2525
;MINX:-12.83
;MINY:-11.402
;MINZ:0.3
;MAXX:112.5
;MAXY:73
;MAXZ:26.7
;Generated with Cura_SteamEngine 4.8.0
T1
M82 ;absolute extrusion mode
; **** FlashForge Creator Pro PRINTER start.gcode for dual extrusion only ****
M83 ; relative extrusion mode
M73 P0 ; enable build progress
G162 X Y F3000 ; home XY maximum
G161 Z F1200 ; home Z minimum
G92 Z-5 ; set Z to -5
G1 Z0 ; move Z to 0
G161 Z F100 ; home Z slowly
M132 X Y Z A B ; recall home offsets
M135 T0 ; load right extruder offsets
G1 X150 Y-70 Z30 F9000 ; move to wait position right hand side of the table
G130 X20 Y20 Z20 A20 B20 ; lower stepper Vrefs while heating
M127
M140 S80 T0 ; set bed temperature
M134 T0 ; stabilize bed temperature
M104 S210 T0 ; set right extruder temp
M104 S240 T1 ; set left extruder temp
M133 T0 ; stabilize right extruder temperature
M133 T1 ; stabilize left extruder temperature
G130 X127 Y127 Z40 A127 B127 ; default stepper Vrefs
G92 A0 B0 ; zero extruders
M135 T0 ; right tool
G1 Z0.4 ; position nozzle
G1 X110 Y-70 E25 F300 ; purge nozzle
G1 X120 Y-70 Z0.15 F1200 ; slow wipe
G1 X110 Y-70 Z0.5 F1200 ; lift
G1 Z4 F1200 ; raise
G1 X-110 F4000 ; move nozzle to left side of bed
G1 Z0.4 F1200 ; lower
M135 T1 ; left tool
G1 X-140 Y-70 F9000 ; reposition nozzle
G1 X-100 Y-70 E25 F300 ; purge nozzle
G1 X-110 Y-70 Z0.15 F1200 ; slow wipe
G1 X-100 Y-70 Z0.5 F1200 ; lift
G92 A0 B0 ; zero extruders
M135 T1 ; left or right tool
M73 P1 ;@body (notify GPX body has started)
; **** end of start.gcode ****
M83 ;relative extrusion mode
G1 F1800 E-1.3
;LAYER_COUNT:133
;LAYER:0
M127 T0
M104 T0 S210
G0 F2700 X-.281 Y7.19 Z0.3
;TYPE:SKIRT
G1 F1800 E1.3
G1 F900 X-.578 Y7.342 E0.01665
G1 X-.903 Y7.42 E0.01667
G1 X-1.424 Y7.382 E0.02606
G1 X-2.442 Y7.111 E0.05256
G1 X-2.888 Y6.903 E0.02455
G1 X-3.192 Y6.689 E0.01855
G1 X-3.585 Y6.55 E0.0208
G1 X-4.047 Y6.546 E0.02305
G1 X-4.365 Y6.442 E0.01669
G1 X-4.649 Y6.267 E0.01664
G1 X-4.898 Y6.016 E0.01764
G1 X-5.171 Y5.953 E0.01398
G1 X-5.469 Y5.802 E0.01667
G1 X-5.615 Y5.678 E0.00956
G1 X-7.395 Y4.779 E0.09949
G1 X-8.814 Y3.987 E0.08107
G1 X-9.084 Y3.79 E0.01667
G1 X-9.383 Y3.391 E0.02488
G1 X-10.21 Y1.736 E0.0923
G1 X-10.46 Y1.545 E0.0157
G1 X-10.67 Y1.285 E0.01667
G1 X-10.968 Y0.583 E0.03805
G1 X-11.029 Y0.383 E0.01043
G1 X-11.202 Y-.396 E0.03981
G1 X-11.235 Y-.729 E0.01669
G1 X-11.137 Y-1.262 E0.02704
G1 X-11.114 Y-1.336 E0.00387
G1 X-11.103 Y-2.192 E0.04271
G1 X-11.059 Y-2.523 E0.01666
G1 X-10.826 Y-3.009 E0.02689
G1 X-10.581 Y-3.338 E0.02047
G1 X-10.387 Y-3.806 E0.02528
G1 X-10.004 Y-4.479 E0.03863
G1 X-9.546 Y-5.127 E0.03959
G1 X-9.135 Y-5.632 E0.03248
G1 X-8.994 Y-5.815 E0.01153
G1 X-8.754 Y-6.331 E0.02839
G1 X-8.578 Y-6.615 E0.01667
G1 X-8.34 Y-6.849 E0.01665
G1 X-8.03 Y-7.039 E0.01814
G1 X-7.759 Y-7.422 E0.02341
G1 X-7.375 Y-7.804 E0.02702
G1 X-6.872 Y-8.153 E0.03054
G1 X-6.349 Y-8.625 E0.03515
G1 X-6.036 Y-8.864 E0.01965
G1 X-5.711 Y-9.042 E0.01849
G1 X-4.922 Y-9.304 E0.04148
G1 X-4.588 Y-9.308 E0.01666
G1 X-4.372 Y-9.258 E0.01106
G1 X-3.357 Y-9.697 E0.05517
G1 X-3.037 Y-9.792 E0.01665
G1 X-2.703 Y-9.809 E0.01668
G1 X-2.082 Y-9.65 E0.03198
G1 X-.845 Y-9.247 E0.06491
G1 X-.593 Y-9.112 E0.01426
G1 X-0.05 Y-8.947 E0.02831
G1 X0.272 Y-8.857 E0.01668
G1 X0.438 Y-8.763 E0.00952
G1 X1.132 Y-8.629 E0.03526
G1 X1.491 Y-8.507 E0.01892
G1 X2.603 Y-7.953 E0.06198
G1 X2.992 Y-7.666 E0.02412
G1 X3.239 Y-7.407 E0.01786
G1 X3.505 Y-7.362 E0.01346
G1 X3.811 Y-7.229 E0.01665
G1 X4.078 Y-7.028 E0.01667
G1 X4.289 Y-6.769 E0.01667
G1 X4.392 Y-6.565 E0.0114
G1 X4.829 Y-6.308 E0.02529
G1 X5.189 Y-6.224 E0.01844
G1 X5.599 Y-6.01 E0.02307
G1 X6.278 Y-5.794 E0.03555
G1 X6.582 Y-5.655 E0.01668
G1 X6.925 Y-5.377 E0.02203
G1 X7.714 Y-5.02 E0.04321
G1 X8 Y-4.847 E0.01668
G1 X8.388 Y-4.419 E0.02882
G1 X8.561 Y-4.133 E0.01668
G1 X8.63 Y-3.915 E0.01141
G1 X8.844 Y-3.795 E0.01224
G1 X9.388 Y-3.3 E0.03669
G1 X9.796 Y-2.85 E0.0303
G1 X10.677 Y-1.403 E0.08452
G1 X10.815 Y-1.099 E0.01666
G1 X10.881 Y-.708 E0.01978
G1 X10.911 Y0.574 E0.06398
G1 X10.824 Y1.092 E0.02621
G1 X10.634 Y1.598 E0.02697
G1 X10.583 Y1.709 E0.00609
G1 X10.359 Y2.166 E0.02539
G1 X10.242 Y2.468 E0.01616
G1 X10.172 Y3.16 E0.0347
G1 X10.115 Y3.489 E0.01666
G1 X9.917 Y3.894 E0.02249
G1 X9.755 Y4.123 E0.01399
G1 X9.309 Y5.063 E0.05191
G1 X9.123 Y5.63 E0.02977
G1 X8.86 Y6 E0.02265
G1 X8.604 Y6.508 E0.02838
G1 X8.249 Y6.845 E0.02442
G1 X7.978 Y7.024 E0.0162
G1 X7.302 Y7.582 E0.04373
G1 X6.841 Y7.834 E0.02621
G1 X5.683 Y8.208 E0.06071
G1 X4.889 Y8.426 E0.04108
G1 X4.464 Y8.394 E0.02126
G1 X3.964 Y8.278 E0.02561
G1 X3.063 Y8.258 E0.04496
G1 X2.733 Y8.211 E0.01663
G1 X2.198 Y7.972 E0.02923
G1 X1.906 Y7.79 E0.01717
G1 X1.158 Y7.928 E0.03795
G1 X0.827 Y7.887 E0.01664
G1 X0.514 Y7.768 E0.01671
G1 X0.072 Y7.442 E0.0274
G1 X-.281 Y7.19 E0.02164
G0 F2700 X-.562 Y6.894
G1 F900 X-.824 Y7 E0.0141
G1 X-1.105 Y7.028 E0.01409
G1 X-1.321 Y6.995 E0.0109
G1 X-2.339 Y6.724 E0.05256
G1 X-2.657 Y6.576 E0.0175
G1 X-3.006 Y6.331 E0.02127
G1 X-3.546 Y6.139 E0.02859
G1 X-3.775 Y6.172 E0.01154
G1 X-4.055 Y6.132 E0.01411
G1 X-4.312 Y6.016 E0.01407
G1 X-4.708 Y5.626 E0.02773
G1 X-4.846 Y5.625 E0.00689
G1 X-5.116 Y5.543 E0.01408
G1 X-5.388 Y5.345 E0.01678
G1 X-7.252 Y4.402 E0.10422
G1 X-8.619 Y3.638 E0.07813
G1 X-8.843 Y3.467 E0.01406
G1 X-9.025 Y3.212 E0.01563
G1 X-9.903 Y1.457 E0.0979
G1 X-10.212 Y1.228 E0.01919
G1 X-10.416 Y0.903 E0.01914
G1 X-10.638 Y0.296 E0.03225
G1 X-10.811 Y-.483 E0.03981
G1 X-10.807 Y-.934 E0.0225
G1 X-10.715 Y-1.276 E0.01767
G1 X-10.703 Y-2.186 E0.0454
G1 X-10.659 Y-2.465 E0.01409
G1 X-10.505 Y-2.77 E0.01705
G1 X-10.223 Y-3.149 E0.02357
G1 X-10.046 Y-3.597 E0.02403
G1 X-9.797 Y-4.062 E0.02632
G1 X-9.689 Y-4.234 E0.01013
G1 X-9.36 Y-4.656 E0.0267
G1 X-9.096 Y-5.069 E0.02445
G1 X-8.653 Y-5.603 E0.03462
G1 X-8.392 Y-6.163 E0.03082
G1 X-8.238 Y-6.399 E0.01406
G1 X-7.968 Y-6.617 E0.01731
G1 X-7.726 Y-6.75 E0.01378
G1 X-7.477 Y-7.138 E0.023
G1 X-7.093 Y-7.52 E0.02702
G1 X-6.635 Y-7.828 E0.02754
G1 X-6.081 Y-8.328 E0.03723
G1 X-5.567 Y-8.669 E0.03077
G1 X-5.101 Y-8.849 E0.02492
G1 X-4.826 Y-8.912 E0.01408
G1 X-4.545 Y-8.897 E0.01404
G1 X-4.364 Y-8.825 E0.00972
G1 X-3.198 Y-9.33 E0.06339
G1 X-2.926 Y-9.404 E0.01406
G1 X-2.492 Y-9.363 E0.02175
G1 X-.968 Y-8.867 E0.07996
G1 X-.715 Y-8.732 E0.01431
G1 X-.112 Y-8.552 E0.0314
G1 X0.158 Y-8.47 E0.01408
G1 X0.276 Y-8.386 E0.00723
G1 X1.056 Y-8.236 E0.03963
G1 X1.313 Y-8.149 E0.01354
G1 X2.425 Y-7.595 E0.06198
G1 X2.702 Y-7.39 E0.01719
G1 X3.051 Y-7.024 E0.02523
G1 X3.433 Y-6.965 E0.01928
G1 X3.684 Y-6.836 E0.01408
G1 X3.889 Y-6.642 E0.01408
G1 X4.074 Y-6.287 E0.01997
G1 X4.699 Y-5.922 E0.03611
G1 X5.185 Y-5.785 E0.02519
G1 X5.435 Y-5.643 E0.01434
G1 X6.157 Y-5.413 E0.0378
G1 X6.525 Y-5.2 E0.02121
G1 X6.702 Y-5.039 E0.01194
G1 X7.549 Y-4.656 E0.04638
G1 X7.787 Y-4.505 E0.01406
G1 X8.073 Y-4.172 E0.0219
G1 X8.214 Y-3.928 E0.01406
G1 X8.281 Y-3.648 E0.01436
G1 X8.591 Y-3.485 E0.01747
G1 X9.095 Y-3.023 E0.03411
G1 X9.454 Y-2.642 E0.02612
G1 X10.335 Y-1.195 E0.08452
G1 X10.446 Y-.936 E0.01406
G1 X10.481 Y-.698 E0.012
G1 X10.511 Y0.584 E0.06398
G1 X10.449 Y0.954 E0.01872
G1 X10.269 Y1.433 E0.02553
G1 X10.223 Y1.533 E0.00549
G1 X9.997 Y1.995 E0.02566
G1 X9.855 Y2.358 E0.01945
G1 X9.773 Y3.139 E0.03918
G1 X9.718 Y3.416 E0.01409
G1 X9.408 Y3.922 E0.02961
G1 X8.932 Y4.924 E0.05534
G1 X8.856 Y5.22 E0.01525
G1 X8.673 Y5.59 E0.02059
G1 X8.512 Y5.794 E0.01297
G1 X8.255 Y6.305 E0.02854
G1 X7.746 Y6.697 E0.03205
G1 X7.048 Y7.273 E0.04515
G1 X6.718 Y7.454 E0.01878
G1 X5.56 Y7.828 E0.06071
G1 X4.814 Y8.029 E0.03855
G1 X4.555 Y8.004 E0.01298
G1 X4.016 Y7.879 E0.0276
G1 X3.072 Y7.858 E0.04711
G1 X2.663 Y7.76 E0.02098
G1 X2.409 Y7.632 E0.01419
G1 X1.975 Y7.363 E0.02547
G1 X1.397 Y7.501 E0.02965
G1 X1.116 Y7.527 E0.01408
G1 X0.839 Y7.474 E0.01407
G1 X0.588 Y7.345 E0.01408
G1 X0.053 Y6.921 E0.03406
G1 X-.138 Y6.612 E0.01812
G1 X-.26 Y6.606 E0.00609
G1 X-.341 Y6.719 E0.00694
G1 X-.562 Y6.894 E0.01406
G0 F2700 X-.687 Y6.496
G1 F900 X-.879 Y6.6 E0.01089
G1 X-1.218 Y6.609 E0.01692
G1 X-2.236 Y6.338 E0.05256
G1 X-2.427 Y6.249 E0.01051
G1 X-2.82 Y5.972 E0.02399
G1 X-3.523 Y5.723 E0.03721
G1 X-3.825 Y5.77 E0.01525
G1 X-4.036 Y5.713 E0.0109
G1 X-4.227 Y5.568 E0.01196
G1 X-4.497 Y5.261 E0.0204
G1 X-4.834 Y5.22 E0.01694
G1 X-5.034 Y5.131 E0.01092
G1 X-5.122 Y5.031 E0.00665
G1 X-7.057 Y4.053 E0.10817
G1 X-8.424 Y3.289 E0.07813
G1 X-8.668 Y3.033 E0.01764
G1 X-9.599 Y1.172 E0.10382
G1 X-9.953 Y0.916 E0.0218
G1 X-10.222 Y0.295 E0.03376
G1 X-10.248 Y0.209 E0.00448
G1 X-10.421 Y-.57 E0.03981
G1 X-10.381 Y-.994 E0.02125
G1 X-10.316 Y-1.213 E0.0114
G1 X-10.303 Y-2.181 E0.0483
G1 X-10.26 Y-2.395 E0.01089
G1 X-10.184 Y-2.531 E0.00777
G1 X-9.863 Y-2.962 E0.02681
G1 X-9.705 Y-3.388 E0.02267
G1 X-9.438 Y-3.885 E0.02815
G1 X-9.373 Y-3.988 E0.00608
G1 X-9.036 Y-4.421 E0.02737
G1 X-8.795 Y-4.806 E0.02266
G1 X-8.308 Y-5.395 E0.03813
G1 X-8.029 Y-5.994 E0.03297
G1 X-7.903 Y-6.172 E0.01088
G1 X-7.421 Y-6.461 E0.02804
G1 X-7.195 Y-6.854 E0.02262
G1 X-6.811 Y-7.236 E0.02702
G1 X-6.397 Y-7.503 E0.02458
G1 X-5.813 Y-8.031 E0.03928
G1 X-5.423 Y-8.296 E0.02352
G1 X-4.957 Y-8.476 E0.02492
G1 X-4.743 Y-8.516 E0.01086
G1 X-4.312 Y-8.412 E0.02212
G1 X-3.039 Y-8.963 E0.0692
G1 X-2.827 Y-9.011 E0.01084
G1 X-2.329 Y-8.89 E0.02557
G1 X-2.17 Y-8.838 E0.00835
G1 X-1.092 Y-8.487 E0.05656
G1 X-.869 Y-8.358 E0.01285
G1 X-.613 Y-8.293 E0.01318
G1 X-.439 Y-8.199 E0.00987
G1 X0.033 Y-8.084 E0.02424
G1 X0.133 Y-8.007 E0.0063
G1 X0.981 Y-7.843 E0.04309
G1 X1.135 Y-7.791 E0.00811
G1 X2.247 Y-7.237 E0.06198
G1 X2.413 Y-7.114 E0.01031
G1 X2.873 Y-6.632 E0.03324
G1 X3.348 Y-6.569 E0.02391
G1 X3.528 Y-6.446 E0.01088
G1 X3.666 Y-6.235 E0.01258
G1 X3.751 Y-6.013 E0.01186
G1 X4.569 Y-5.535 E0.04727
G1 X4.988 Y-5.437 E0.02147
G1 X5.275 Y-5.274 E0.01647
G1 X6.035 Y-5.032 E0.03979
G1 X6.256 Y-4.904 E0.01274
G1 X6.479 Y-4.702 E0.01501
G1 X7.384 Y-4.292 E0.04957
G1 X7.609 Y-4.115 E0.01428
G1 X7.859 Y-3.732 E0.02282
G1 X7.885 Y-3.515 E0.0109
G1 X7.815 Y-3.281 E0.01219
G1 X8.113 Y-3.289 E0.01487
G1 X8.339 Y-3.174 E0.01265
G1 X8.748 Y-2.798 E0.02772
G1 X9.112 Y-2.434 E0.02568
G1 X9.993 Y-.987 E0.08452
G1 X10.081 Y-.689 E0.0155
G1 X10.111 Y0.593 E0.06398
G1 X10.074 Y0.815 E0.01123
G1 X9.872 Y1.341 E0.02811
G1 X9.624 Y1.848 E0.02816
G1 X9.467 Y2.252 E0.02162
G1 X9.373 Y3.118 E0.04346
G1 X9.264 Y3.432 E0.01658
G1 X9.064 Y3.715 E0.01729
G1 X8.552 Y4.792 E0.05949
G1 X8.468 Y5.121 E0.01694
G1 X8.359 Y5.343 E0.01234
G1 X8.164 Y5.591 E0.01574
G1 X7.911 Y6.091 E0.02796
G1 X7.5 Y6.382 E0.02512
G1 X6.793 Y6.965 E0.04572
G1 X6.595 Y7.073 E0.01125
G1 X5.437 Y7.447 E0.06071
G1 X4.968 Y7.6 E0.02461
G1 X4.645 Y7.614 E0.01613
G1 X4.067 Y7.48 E0.0296
G1 X3.081 Y7.458 E0.0492
G1 X2.678 Y7.324 E0.02119
G1 X2.62 Y7.293 E0.00328
G1 X2.116 Y6.979 E0.02963
G1 X1.962 Y6.955 E0.00778
G1 X1.304 Y7.112 E0.03375
G1 X1.086 Y7.123 E0.01089
G1 X0.878 Y7.056 E0.0109
G1 X0.476 Y6.752 E0.02514
G1 X0.311 Y6.609 E0.01089
G1 X0.208 Y6.417 E0.01087
G1 X0.18 Y6.204 E0.01072
G1 X-.174 Y6.215 E0.01767
G1 X-.473 Y6.129 E0.01552
G1 X-.545 Y6.33 E0.01065
G1 X-.687 Y6.496 E0.0109
G0 F2700 X-.951 Y6.194
G1 F900 X-1.115 Y6.222 E0.0083
G1 X-2.133 Y5.951 E0.05256
G1 X-2.197 Y5.922 E0.00351
G1 X-2.636 Y5.613 E0.02678
G1 X-3.51 Y5.303 E0.04627
G1 X-3.845 Y5.36 E0.01695
G1 X-3.926 Y5.304 E0.00491
G1 X-4.262 Y4.922 E0.02538
G1 X-4.545 Y4.818 E0.01504
G1 X-4.792 Y4.811 E0.01233
G1 X-4.886 Y4.702 E0.00718
G1 X-6.862 Y3.704 E0.11044
G1 X-8.229 Y2.94 E0.07813
G1 X-8.31 Y2.854 E0.00589
G1 X-9.293 Y0.887 E0.10971
G1 X-9.585 Y0.715 E0.01691
G1 X-9.67 Y0.615 E0.00655
G1 X-9.857 Y0.122 E0.02631
G1 X-10.03 Y-.657 E0.03981
G1 X-9.917 Y-1.15 E0.02523
G1 X-9.903 Y-2.176 E0.05119
G1 X-9.863 Y-2.292 E0.00612
G1 X-9.505 Y-2.773 E0.02991
G1 X-9.364 Y-3.179 E0.02144
G1 X-9.079 Y-3.708 E0.02998
G1 X-9.058 Y-3.742 E0.00199
G1 X-8.701 Y-4.2 E0.02897
G1 X-8.494 Y-4.543 E0.01999
G1 X-7.962 Y-5.188 E0.04171
G1 X-7.666 Y-5.825 E0.03504
G1 X-7.582 Y-5.916 E0.00618
G1 X-7.115 Y-6.174 E0.02662
G1 X-6.913 Y-6.571 E0.02222
G1 X-6.529 Y-6.953 E0.02702
G1 X-6.157 Y-7.181 E0.02177
G1 X-5.529 Y-7.747 E0.04218
G1 X-5.279 Y-7.923 E0.01525
G1 X-4.813 Y-8.103 E0.02492
G1 X-4.636 Y-8.086 E0.00887
G1 X-4.541 Y-8.027 E0.00558
G1 X-4.244 Y-8.006 E0.01485
G1 X-2.88 Y-8.596 E0.07414
G1 X-2.739 Y-8.602 E0.00704
G1 X-2.294 Y-8.457 E0.02335
G1 X-1.216 Y-8.106 E0.05656
G1 X-1.05 Y-7.991 E0.01007
G1 X-.624 Y-7.858 E0.02226
G1 X-.578 Y-7.816 E0.00311
G1 X-.235 Y-7.762 E0.01732
G1 X-0.055 Y-7.635 E0.01099
G1 X0.905 Y-7.45 E0.04878
G1 X0.956 Y-7.433 E0.00268
G1 X2.068 Y-6.879 E0.06198
G1 X2.124 Y-6.838 E0.00346
G1 X2.694 Y-6.241 E0.04118
G1 X3.116 Y-6.22 E0.02108
G1 X3.233 Y-6.175 E0.00625
G1 X3.429 Y-5.738 E0.02389
G1 X4.438 Y-5.148 E0.05831
G1 X4.791 Y-5.089 E0.01786
G1 X5.113 Y-4.906 E0.01848
G1 X5.914 Y-4.651 E0.04194
G1 X6.258 Y-4.362 E0.02241
G1 X7.219 Y-3.927 E0.05263
G1 X7.443 Y-3.678 E0.01671
G1 X7.486 Y-3.561 E0.00622
G1 X7.45 Y-3.441 E0.00625
G1 X7.351 Y-3.366 E0.0062
G1 X7.205 Y-3.372 E0.00729
G1 X6.576 Y-3.65 E0.03431
G1 X6.17 Y-3.67 E0.02028
G1 X5.617 Y-3.486 E0.02908
G1 X5.086 Y-2.963 E0.03718
G1 X4.91 Y-2.31 E0.03374
G1 X4.996 Y-1.434 E0.04391
G1 X5.474 Y-1.061 E0.03025
G1 X5.97 Y-1.143 E0.02508
G1 X6.488 Y-1.335 E0.02756
G1 X6.538 Y-1.347 E0.00257
G1 X7.118 Y-1.406 E0.02909
G1 X7.387 Y-1.385 E0.01346
G1 X7.532 Y-1.496 E0.00911
G1 X7.82 Y-2.136 E0.03501
G1 X7.76 Y-2.684 E0.0275
G1 X7.799 Y-2.828 E0.00744
G1 X7.901 Y-2.9 E0.00623
G1 X8.086 Y-2.864 E0.0094
G1 X8.451 Y-2.543 E0.02425
G1 X8.771 Y-2.226 E0.02247
G1 X9.652 Y-.779 E0.08452
G1 X9.681 Y-.68 E0.00515
G1 X9.711 Y0.602 E0.06398
G1 X9.546 Y1.09 E0.0257
G1 X9.505 Y1.182 E0.00503
G1 X9.257 Y1.689 E0.02816
G1 X9.079 Y2.147 E0.02451
G1 X8.999 Y2.632 E0.02452
G1 X8.974 Y3.097 E0.02323
G1 X8.719 Y3.51 E0.02422
G1 X8.175 Y4.654 E0.0632
G1 X8.044 Y5.096 E0.023
G1 X7.816 Y5.386 E0.0184
G1 X7.662 Y5.754 E0.0199
G1 X7.587 Y5.844 E0.00584
G1 X7.26 Y6.06 E0.01955
G1 X6.538 Y6.656 E0.04671
G1 X6.472 Y6.692 E0.00375
G1 X5.314 Y7.066 E0.06071
G1 X4.736 Y7.225 E0.02991
G1 X4.114 Y7.081 E0.03185
G1 X3.09 Y7.058 E0.0511
G1 X2.831 Y6.953 E0.01394
G1 X2.259 Y6.597 E0.03361
G1 X1.947 Y6.547 E0.01576
G1 X1.211 Y6.723 E0.03775
G1 X1.086 Y6.712 E0.00626
G1 X0.967 Y6.576 E0.00902
G1 X0.678 Y6.407 E0.0167
G1 X0.595 Y6.313 E0.00626
G1 X0.584 Y6.189 E0.00621
G1 X0.649 Y6.082 E0.00625
G1 X0.756 Y6.035 E0.00583
G1 X1.11 Y5.495 E0.03221
G1 X0.94 Y4.889 E0.0314
G1 X0.51 Y4.424 E0.0316
G1 X-0.075 Y4.108 E0.03317
G1 X-.564 Y4.023 E0.02476
G1 X-1.105 Y4.227 E0.02885
G1 X-1.274 Y4.394 E0.01185
G1 X-1.766 Y4.708 E0.02912
G1 X-1.824 Y4.778 E0.00454
G1 X-1.835 Y4.875 E0.00487
G1 X-1.709 Y5.106 E0.01313
G1 X-1.443 Y5.368 E0.01863
G1 X-1.351 Y5.569 E0.01103
G1 X-.945 Y5.868 E0.02516
G1 X-.873 Y5.97 E0.00623
G1 X-.875 Y6.095 E0.00624
G1 X-.951 Y6.194 E0.00623
G0 F2700 X-0.026 Y5.826
G1 F900 X-.208 Y5.798 E0.00919
G1 X-.799 Y5.592 E0.03122
G1 X-1.069 Y5.404 E0.01641
G1 X-1.232 Y5.11 E0.01677
G1 X-1.243 Y4.975 E0.00676
G1 X-1.143 Y4.695 E0.01483
G1 X-.896 Y4.469 E0.0167
G1 X-.482 Y4.342 E0.0216
G1 X-.145 Y4.411 E0.01716
G1 X0.295 Y4.649 E0.02496
G1 X0.638 Y5.003 E0.02459
G1 X0.76 Y5.357 E0.01868
G1 X0.734 Y5.52 E0.00823
G1 X0.634 Y5.673 E0.00912
G1 X0.492 Y5.762 E0.00836
G1 X-0.026 Y5.826 E0.02604
G1 F1800 E-1.3
G0 F2700 X1.123 Y6.204
G1 F1800 E1.3
G1 F900 X1.494 Y5.64 E0.03368
G1 X1.52 Y5.476 E0.00828
G1 X1.312 Y4.732 E0.03854
G1 X1.266 Y4.65 E0.00469
G1 X0.784 Y4.128 E0.03545
G1 X0.732 Y4.088 E0.00327
G1 X0.086 Y3.741 E0.03658
G1 X0.025 Y3.72 E0.00322
G1 X-.55 Y3.62 E0.02912
G1 X-.654 Y3.63 E0.00521
G1 X-1.286 Y3.868 E0.03369
G1 X-1.509 Y4.068 E0.01494
G1 X-2.006 Y4.385 E0.02941
G1 X-2.17 Y4.568 E0.01226
G1 X-2.241 Y4.893 E0.0166
G1 X-2.217 Y5.012 E0.00606
G1 X-2.004 Y5.379 E0.02117
G1 X-1.76 Y5.637 E0.01772
G1 X-1.994 Y5.574 E0.01209
G1 X-2.428 Y5.27 E0.02644
G1 X-2.476 Y5.245 E0.0027
G1 X-3.438 Y4.904 E0.05092
G1 X-3.71 Y4.944 E0.01372
G1 X-4.077 Y4.564 E0.02636
G1 X-4.548 Y4.414 E0.02466
G1 X-4.6 Y4.421 E0.00262
G1 X-4.649 Y4.373 E0.00342
