;FLAVOR:Marlin
;TIME:4725
;Filament used: 2.97566m
;Layer height: 0.2
;MINX:100.5
;MINY:100.5
;MINZ:0.2
;MAXX:134.5
;MAXY:134.5
;MAXZ:76.2
;Generated with Cura_SteamEngine 4.7.1
M140 S60
M105
M190 S60
M104 S210
M105
M109 S210
M82 ;absolute extrusion mode
; Ender 3 Custom Start G-code
G92 E0 ; Reset Extruder
G28 ; Home all axes
G1 Z2.0 F3000 ; Move Z Axis up little to prevent scratching of Heat Bed
G1 X0.1 Y20 Z0.3 F5000.0 ; Move to start position
G1 X0.1 Y200.0 Z0.3 F1500.0 E15 ; Draw the first line
G1 X0.4 Y200.0 Z0.3 F5000.0 ; Move to side a little
G1 X0.4 Y20 Z0.3 F1500.0 E30 ; Draw the second line
G92 E0 ; Reset Extruder
G1 Z2.0 F3000 ; Move Z Axis up little to prevent scratching of Heat Bed
G1 X5 Y20 Z0.3 F5000.0 ; Move over to prevent blob squish
M83 ;relative extrusion mode
G1 F2700 E-5
;LAYER_COUNT:381
;LAYER:0
M107
G0 F6000 X103.698 Y103.764 Z0.2
;TYPE:SKIRT
G1 F2700 E5
G1 F1200 X104.386 Y103.127 E0.03119
G1 X105.126 Y102.551 E0.03119
G1 X105.912 Y102.039 E0.0312
G1 X106.739 Y101.597 E0.03119
G1 X107.601 Y101.227 E0.0312
G1 X108.491 Y100.931 E0.0312
G1 X109.403 Y100.713 E0.03119
G1 X110.33 Y100.572 E0.03119
G1 X111.201 Y100.513 E0.02904
G1 X111.522 Y100.504 E0.01068
G1 X111.83 Y100.5 E0.01024
G1 X122.951 Y100.501 E0.36989
G1 X123.649 Y100.511 E0.02322
G1 X124.585 Y100.565 E0.03118
G1 X125.513 Y100.697 E0.03118
G1 X126.427 Y100.909 E0.03121
G1 X127.319 Y101.198 E0.03119
G1 X128.184 Y101.561 E0.0312
G1 X129.014 Y101.997 E0.03118
G1 X129.805 Y102.502 E0.03121
G1 X130.549 Y103.073 E0.03119
G1 X131.242 Y103.705 E0.03119
G1 X131.879 Y104.393 E0.03119
G1 X132.454 Y105.134 E0.0312
G1 X132.965 Y105.92 E0.03118
G1 X133.407 Y106.748 E0.03122
G1 X133.776 Y107.61 E0.03119
G1 X134.071 Y108.5 E0.03119
G1 X134.289 Y109.412 E0.03119
G1 X134.429 Y110.34 E0.03121
G1 X134.487 Y111.201 E0.0287
G1 X134.496 Y111.521 E0.01065
G1 X134.5 Y111.83 E0.01028
G1 X134.499 Y122.9 E0.36819
G1 X134.49 Y123.627 E0.02418
G1 X134.439 Y124.564 E0.03121
G1 X134.307 Y125.492 E0.03118
G1 X134.098 Y126.406 E0.03118
G1 X133.811 Y127.299 E0.0312
G1 X133.449 Y128.165 E0.03122
G1 X133.015 Y128.996 E0.03118
G1 X132.511 Y129.787 E0.0312
G1 X131.942 Y130.532 E0.03118
G1 X131.311 Y131.227 E0.03122
G1 X130.624 Y131.865 E0.03118
G1 X129.885 Y132.442 E0.03118
G1 X129.099 Y132.954 E0.0312
G1 X128.273 Y133.397 E0.03117
G1 X127.411 Y133.769 E0.03123
G1 X126.522 Y134.065 E0.03116
G1 X125.61 Y134.285 E0.0312
G1 X124.683 Y134.426 E0.03119
G1 X123.799 Y134.487 E0.02947
G1 X123.478 Y134.496 E0.01068
G1 X123.17 Y134.5 E0.01024
G1 X112.065 Y134.499 E0.36935
G1 X111.367 Y134.49 E0.02322
G1 X110.431 Y134.438 E0.03118
G1 X109.502 Y134.306 E0.03121
G1 X108.588 Y134.096 E0.03119
G1 X107.695 Y133.809 E0.0312
G1 X106.83 Y133.446 E0.0312
G1 X105.999 Y133.012 E0.03118
G1 X105.208 Y132.508 E0.0312
G1 X104.463 Y131.938 E0.0312
G1 X103.769 Y131.307 E0.0312
G1 X103.132 Y130.62 E0.03116
G1 X102.555 Y129.88 E0.03121
G1 X102.043 Y129.094 E0.0312
G1 X101.6 Y128.267 E0.0312
G1 X101.229 Y127.406 E0.03118
G1 X100.933 Y126.516 E0.0312
G1 X100.714 Y125.604 E0.0312
G1 X100.573 Y124.677 E0.03119
G1 X100.513 Y123.788 E0.02964
G1 X100.504 Y123.455 E0.01108
G1 X100.5 Y123.158 E0.00988
G1 X100.501 Y112.025 E0.37029
G1 X100.51 Y111.36 E0.02212
G1 X100.563 Y110.424 E0.03118
G1 X100.695 Y109.495 E0.03121
G1 X100.906 Y108.581 E0.0312
G1 X101.194 Y107.689 E0.03118
G1 X101.557 Y106.824 E0.0312
G1 X101.992 Y105.993 E0.0312
G1 X102.496 Y105.203 E0.03117
G1 X103.066 Y104.458 E0.0312
G1 X103.698 Y103.764 E0.03122
G0 F6000 X104.089 Y103.939
G1 F1200 X104.774 Y103.323 E0.03064
G1 X105.51 Y102.77 E0.03062
G1 X106.291 Y102.282 E0.03063
G1 X107.111 Y101.864 E0.03061
G1 X107.965 Y101.519 E0.03063
G1 X108.845 Y101.249 E0.03062
G1 X109.745 Y101.057 E0.03061
G1 X110.659 Y100.943 E0.03064
G1 X111.212 Y100.913 E0.01842
G1 X111.533 Y100.904 E0.01068
G1 X111.83 Y100.9 E0.00988
G1 X122.793 Y100.9 E0.36463
G1 X123.643 Y100.911 E0.02827
G1 X124.562 Y100.964 E0.03062
G1 X125.473 Y101.097 E0.03062
G1 X126.369 Y101.308 E0.03062
G1 X127.243 Y101.596 E0.03061
G1 X128.09 Y101.959 E0.03065
G1 X128.901 Y102.394 E0.03061
G1 X129.671 Y102.898 E0.03061
G1 X130.395 Y103.467 E0.03063
G1 X131.067 Y104.097 E0.03064
G1 X131.682 Y104.782 E0.03062
G1 X132.235 Y105.518 E0.03062
G1 X132.722 Y106.299 E0.03061
G1 X133.139 Y107.12 E0.03063
G1 X133.484 Y107.974 E0.03063
G1 X133.753 Y108.854 E0.03061
G1 X133.945 Y109.755 E0.03064
G1 X134.058 Y110.668 E0.0306
G1 X134.087 Y111.212 E0.01812
G1 X134.096 Y111.532 E0.01065
G1 X134.1 Y111.83 E0.00991
G1 X134.099 Y122.895 E0.36802
G1 X134.09 Y123.622 E0.02418
G1 X134.039 Y124.541 E0.03061
G1 X133.908 Y125.453 E0.03064
G1 X133.698 Y126.349 E0.03061
G1 X133.412 Y127.224 E0.03062
G1 X133.051 Y128.071 E0.03062
G1 X132.617 Y128.883 E0.03062
G1 X132.115 Y129.655 E0.03063
G1 X131.547 Y130.38 E0.03063
G1 X130.919 Y131.053 E0.03062
G1 X130.235 Y131.669 E0.03062
G1 X129.5 Y132.223 E0.03061
G1 X128.72 Y132.712 E0.03062
G1 X127.9 Y133.131 E0.03063
G1 X127.047 Y133.477 E0.03062
G1 X126.167 Y133.748 E0.03063
G1 X125.267 Y133.941 E0.03061
G1 X124.353 Y134.056 E0.03064
G1 X123.788 Y134.087 E0.01882
G1 X123.467 Y134.096 E0.01068
G1 X123.17 Y134.1 E0.00988
G1 X112.07 Y134.099 E0.36919
G1 X111.372 Y134.09 E0.02322
G1 X110.453 Y134.038 E0.03061
G1 X109.542 Y133.907 E0.03061
G1 X108.646 Y133.697 E0.03061
G1 X107.771 Y133.41 E0.03063
G1 X106.924 Y133.048 E0.03064
G1 X106.112 Y132.614 E0.03062
G1 X105.341 Y132.112 E0.0306
G1 X104.616 Y131.544 E0.03063
G1 X103.943 Y130.915 E0.03064
G1 X103.328 Y130.231 E0.03059
G1 X102.774 Y129.496 E0.03061
G1 X102.286 Y128.715 E0.03063
G1 X101.867 Y127.895 E0.03063
G1 X101.521 Y127.042 E0.03062
G1 X101.251 Y126.162 E0.03062
G1 X101.058 Y125.261 E0.03065
G1 X100.944 Y124.348 E0.0306
G1 X100.913 Y123.777 E0.01902
G1 X100.904 Y123.444 E0.01108
G1 X100.9 Y123.158 E0.00951
G1 X100.901 Y112.031 E0.37009
G1 X100.91 Y111.366 E0.02212
G1 X100.962 Y110.446 E0.03065
G1 X101.094 Y109.535 E0.03062
G1 X101.305 Y108.639 E0.03062
G1 X101.592 Y107.764 E0.03063
G1 X101.955 Y106.918 E0.03062
G1 X102.389 Y106.106 E0.03062
G1 X102.892 Y105.335 E0.03062
G1 X103.461 Y104.611 E0.03063
G1 X104.089 Y103.939 E0.03059
G0 F6000 X104.481 Y104.117
G1 F1200 X105.162 Y103.524 E0.03003
G1 X105.894 Y102.994 E0.03006
G1 X106.669 Y102.531 E0.03003
G1 X107.482 Y102.138 E0.03003
G1 X108.327 Y101.818 E0.03005
G1 X109.196 Y101.575 E0.03001
G1 X110.084 Y101.409 E0.03005
G1 X111.223 Y101.313 E0.03802
G1 X111.544 Y101.304 E0.01068
G1 X111.83 Y101.3 E0.00951
G1 X122.793 Y101.3 E0.36463
G1 X123.637 Y101.311 E0.02807
G1 X124.539 Y101.364 E0.03005
G1 X125.432 Y101.496 E0.03002
G1 X126.31 Y101.707 E0.03003
G1 X127.166 Y101.995 E0.03004
G1 X127.993 Y102.357 E0.03003
G1 X128.785 Y102.792 E0.03005
G1 X129.536 Y103.294 E0.03004
G1 X130.239 Y103.861 E0.03004
G1 X130.889 Y104.488 E0.03004
G1 X131.481 Y105.17 E0.03004
G1 X132.011 Y105.901 E0.03003
G1 X132.473 Y106.677 E0.03004
G1 X132.866 Y107.49 E0.03003
G1 X133.184 Y108.335 E0.03003
G1 X133.427 Y109.205 E0.03004
G1 X133.592 Y110.093 E0.03004
G1 X133.687 Y111.223 E0.03772
G1 X133.696 Y111.543 E0.01065
G1 X133.7 Y111.83 E0.00955
G1 X133.699 Y122.89 E0.36786
G1 X133.69 Y123.617 E0.02418
G1 X133.639 Y124.519 E0.03005
G1 X133.508 Y125.413 E0.03005
G1 X133.299 Y126.291 E0.03002
G1 X133.013 Y127.148 E0.03005
G1 X132.652 Y127.976 E0.03004
G1 X132.22 Y128.768 E0.03001
G1 X131.719 Y129.52 E0.03005
G1 X131.153 Y130.224 E0.03004
G1 X130.528 Y130.875 E0.03002
G1 X129.847 Y131.469 E0.03006
G1 X129.116 Y132 E0.03005
G1 X128.342 Y132.464 E0.03001
G1 X127.529 Y132.858 E0.03005
G1 X126.685 Y133.178 E0.03002
G1 X125.815 Y133.423 E0.03006
G1 X124.928 Y133.589 E0.03001
G1 X123.777 Y133.687 E0.03842
G1 X123.456 Y133.696 E0.01068
G1 X123.17 Y133.7 E0.00951
G1 X112.075 Y133.699 E0.36902
G1 X111.377 Y133.69 E0.02322
G1 X110.476 Y133.639 E0.03002
G1 X109.582 Y133.507 E0.03006
G1 X108.704 Y133.298 E0.03002
G1 X107.847 Y133.011 E0.03006
G1 X107.02 Y132.65 E0.03001
G1 X106.227 Y132.217 E0.03005
G1 X105.476 Y131.716 E0.03003
G1 X104.772 Y131.15 E0.03004
G1 X104.121 Y130.524 E0.03004
G1 X103.528 Y129.843 E0.03003
G1 X102.998 Y129.112 E0.03003
G1 X102.534 Y128.337 E0.03004
G1 X102.14 Y127.524 E0.03005
G1 X101.82 Y126.68 E0.03002
G1 X101.576 Y125.81 E0.03005
G1 X101.41 Y124.922 E0.03005
G1 X101.313 Y123.767 E0.03855
G1 X101.304 Y123.434 E0.01108
G1 X101.3 Y123.158 E0.00918
G1 X101.301 Y112.036 E0.36992
G1 X101.31 Y111.371 E0.02212
G1 X101.362 Y110.469 E0.03005
G1 X101.494 Y109.576 E0.03002
G1 X101.704 Y108.698 E0.03003
G1 X101.991 Y107.841 E0.03006
G1 X102.353 Y107.014 E0.03003
G1 X102.786 Y106.222 E0.03002
G1 X103.288 Y105.471 E0.03004
G1 X103.855 Y104.767 E0.03007
G1 X104.481 Y104.117 E0.03001
G1 F2700 E-5
;MESH:modified d2095.STL
G0 F6000 X111.914 Y110.835
G0 X111.914 Y111.914
G0 X122.718 Y112.282
G0 X122.9 Y122.9
;TYPE:WALL-INNER
G1 F2700 E5
G1 F1200 X112.1 Y122.9 E0.35921
G1 X112.1 Y112.1 E0.35921
G1 X122.9 Y112.1 E0.35921
G1 X122.9 Y122.9 E0.35921
G0 F6000 X123.3 Y123.3
;TYPE:WALL-OUTER
G1 F1200 X111.7 Y123.3 E0.38582
G1 X111.7 Y111.7 E0.38582
G1 X123.3 Y111.7 E0.38582
G1 X123.3 Y123.3 E0.38582
G0 F6000 X123.03 Y123.03
G0 X122.79 Y122.51
G0 X122.51 Y122.51
;TYPE:SKIN
G1 F1200 X112.49 Y122.51 E0.33327
G1 X112.49 Y112.49 E0.33327
G1 X122.51 Y112.49 E0.33327
G1 X122.51 Y122.51 E0.33327
G0 F6000 X122.79 Y122.51
G0 X122.79 Y112.733
G0 X122.349 Y112.733
G1 F1200 X122.267 Y112.65 E0.00388
G0 F6000 X121.701 Y112.65
G1 F1200 X122.349 Y113.299 E0.0305
G0 F6000 X122.349 Y113.864
G1 F1200 X121.135 Y112.65 E0.0571
G0 F6000 X120.57 Y112.65
G1 F1200 X122.349 Y114.43 E0.0837
G0 F6000 X122.349 Y114.996
G1 F1200 X120.004 Y112.65 E0.11033
G0 F6000 X119.438 Y112.65
G1 F1200 X122.349 Y115.561 E0.13692
G0 F6000 X122.349 Y116.127
G1 F1200 X118.873 Y112.65 E0.16352
G0 F6000 X118.307 Y112.65
G1 F1200 X122.349 Y116.693 E0.19015
G0 F6000 X122.349 Y117.258
G1 F1200 X117.741 Y112.65 E0.21675
G0 F6000 X117.176 Y112.65
G1 F1200 X122.349 Y117.824 E0.24335
G0 F6000 X122.349 Y118.39
G1 F1200 X116.61 Y112.65 E0.26997
G0 F6000 X116.044 Y112.65
G1 F1200 X122.349 Y118.955 E0.29657
G0 F6000 X122.349 Y119.521
G1 F1200 X115.479 Y112.65 E0.32317
G0 F6000 X114.913 Y112.65
G1 F1200 X122.349 Y120.087 E0.34979
G0 F6000 X122.349 Y120.652
G1 F1200 X114.347 Y112.65 E0.37639
G0 F6000 X113.781 Y112.65
G1 F1200 X122.349 Y121.218 E0.40301
G0 F6000 X122.349 Y121.784
G1 F1200 X113.216 Y112.65 E0.42961
G0 F6000 X112.649 Y112.649
G1 F1200 X122.349 Y122.349 E0.45626
G0 F6000 X121.783 Y122.349
G1 F1200 X112.649 Y113.215 E0.42964
G0 F6000 X112.649 Y113.781
G1 F1200 X121.217 Y122.349 E0.40301
G0 F6000 X120.652 Y122.349
G1 F1200 X112.649 Y114.346 E0.37644
G0 F6000 X112.649 Y114.912
G1 F1200 X120.086 Y122.349 E0.34981
G0 F6000 X119.52 Y122.349
G1 F1200 X112.649 Y115.478 E0.32319
G0 F6000 X112.649 Y116.044
G1 F1200 X118.955 Y122.349 E0.29659
G0 F6000 X118.389 Y122.349
G1 F1200 X112.649 Y116.609 E0.26999
G0 F6000 X112.649 Y117.175
G1 F1200 X117.823 Y122.349 E0.24337
G0 F6000 X117.258 Y122.349
G1 F1200 X112.649 Y117.741 E0.21677
G0 F6000 X112.649 Y118.306
G1 F1200 X116.692 Y122.349 E0.19017
G0 F6000 X116.126 Y122.349
G1 F1200 X112.649 Y118.872 E0.16355
G0 F6000 X112.649 Y119.438
G1 F1200 X115.561 Y122.349 E0.13695
G0 F6000 X114.995 Y122.349
G1 F1200 X112.649 Y120.003 E0.11035
G0 F6000 X112.649 Y120.569
G1 F1200 X114.429 Y122.349 E0.08373
G0 F6000 X113.863 Y122.349
G1 F1200 X112.649 Y121.135 E0.0571
G0 F6000 X112.649 Y121.7
G1 F1200 X113.298 Y122.349 E0.03053
G0 F6000 X112.732 Y122.349
G1 F1200 X112.649 Y122.266 E0.0039
G0 F6000 X112.3 Y122.266
;MESH:NONMESH
G0 F300 X112.3 Y122.266 Z0.4
G0 F6000 X112.21 Y122.266
G0 X112.282 Y122.718
G0 X122.9 Y122.9
;TIME_ELAPSED:44.672553
;LAYER:1
M106 S85
;TYPE:WALL-INNER
;MESH:modified d2095.STL
G1 F1350 X112.1 Y122.9 E0.35921
G1 X112.1 Y112.1 E0.35921
G1 X122.9 Y112.1 E0.35921
G1 X122.9 Y122.9 E0.35921
G0 F7500 X123.3 Y123.3
;TYPE:WALL-OUTER
G1 F1350 X111.7 Y123.3 E0.38582
G1 X111.7 Y111.7 E0.38582
G1 X123.3 Y111.7 E0.38582
G1 X123.3 Y123.3 E0.38582
G0 F7500 X123.03 Y123.03
G0 X122.79 Y122.51
G0 X122.51 Y122.51
;TYPE:SKIN
G1 F1350 X112.49 Y122.51 E0.33327
G1 X112.49 Y112.49 E0.33327
G1 X122.51 Y112.49 E0.33327
G1 X122.51 Y122.51 E0.33327
G0 F7500 X122.026 Y122.349
G1 F1350 X122.349 Y122.026 E0.01519
G0 F7500 X122.349 Y121.461
G1 F1350 X121.46 Y122.349 E0.04179
G0 F7500 X120.894 Y122.349
G1 F1350 X122.349 Y120.895 E0.06842
G0 F7500 X122.349 Y120.329
G1 F1350 X120.329 Y122.349 E0.09501
G0 F7500 X119.763 Y122.349
G1 F1350 X122.349 Y119.764 E0.12161
G0 F7500 X122.349 Y119.198
G1 F1350 X119.197 Y122.349 E0.14824
G0 F7500 X118.632 Y122.349
G1 F1350 X122.349 Y118.632 E0.17484
G0 F7500 X122.349 Y118.067
G1 F1350 X118.066 Y122.349 E0.20144
G0 F7500 X117.5 Y122.349
G1 F1350 X122.349 Y117.501 E0.22806
G0 F7500 X122.349 Y116.935
G1 F1350 X116.934 Y122.349 E0.25468
G0 F7500 X116.369 Y122.349
G1 F1350 X122.349 Y116.369 E0.28128
G0 F7500 X122.349 Y115.804
G1 F1350 X115.803 Y122.349 E0.30788
G0 F7500 X115.237 Y122.349
G1 F1350 X122.349 Y115.238 E0.3345
G0 F7500 X122.349 Y114.672
G1 F1350 X114.672 Y122.349 E0.3611
G0 F7500 X114.106 Y122.349
G1 F1350 X122.349 Y114.107 E0.3877
G0 F7500 X122.349 Y113.541
G1 F1350 X113.54 Y122.349 E0.41432
G0 F7500 X112.975 Y122.349
G1 F1350 X122.349 Y112.975 E0.44092
G0 F7500 X122.109 Y112.649
G1 F1350 X112.65 Y122.108 E0.44492
G0 F7500 X112.65 Y121.543
G1 F1350 X121.543 Y112.649 E0.41832
G0 F7500 X120.978 Y112.649
G1 F1350 X112.65 Y120.977 E0.39172
G0 F7500 X112.65 Y120.411
G1 F1350 X120.412 Y112.649 E0.3651
G0 F7500 X119.846 Y112.649
G1 F1350 X112.65 Y119.846 E0.3385
G0 F7500 X112.65 Y119.28
G1 F1350 X119.281 Y112.649 E0.3119
G0 F7500 X118.715 Y112.649
G1 F1350 X112.65 Y118.714 E0.28528
G0 F7500 X112.65 Y118.149
G1 F1350 X118.149 Y112.649 E0.25868
G0 F7500 X117.584 Y112.649
G1 F1350 X112.65 Y117.583 E0.23208
G0 F7500 X112.65 Y117.017
G1 F1350 X117.018 Y112.649 E0.20546
G0 F7500 X116.452 Y112.649
G1 F1350 X112.65 Y116.452 E0.17886
G0 F7500 X112.65 Y115.886
G1 F1350 X115.887 Y112.649 E0.15226
G0 F7500 X115.321 Y112.649
G1 F1350 X112.65 Y115.32 E0.12564
G0 F7500 X112.65 Y114.754
G1 F1350 X114.755 Y112.649 E0.09901
G0 F7500 X114.189 Y112.649
G1 F1350 X112.65 Y114.189 E0.07241
G0 F7500 X112.65 Y113.623
G1 F1350 X113.624 Y112.649 E0.04581
G0 F7500 X113.058 Y112.649
G1 F1350 X112.65 Y113.057 E0.01919
G0 F7500 X112.3 Y113.057
;MESH:NONMESH
G0 F300 X112.3 Y113.057 Z0.6
G0 F7500 X112.21 Y113.057
G0 X112.282 Y122.718
G0 X122.9 Y122.9
;TIME_ELAPSED:64.481524
;LAYER:2
M106 S170
;TYPE:WALL-INNER
;MESH:modified d2095.STL
G1 F1500 X112.1 Y122.9 E0.35921
G1 X112.1 Y112.1 E0.35921
G1 X122.9 Y112.1 E0.35921
G1 X122.9 Y122.9 E0.35921
G0 F9000 X123.3 Y123.3
;TYPE:WALL-OUTER
G1 F1500 X111.7 Y123.3 E0.38582
G1 X111.7 Y111.7 E0.38582
G1 X123.3 Y111.7 E0.38582
G1 X123.3 Y123.3 E0.38582
G0 F9000 X123.03 Y123.03
G0 X122.79 Y122.51
G0 X122.51 Y122.51
;TYPE:SKIN
G1 F1500 X112.49 Y122.51 E0.33327
G1 X112.49 Y112.49 E0.33327
G1 X122.51 Y112.49 E0.33327
G1 X122.51 Y122.51 E0.33327
G0 F9000 X122.79 Y122.51
G0 X122.79 Y112.733
G0 X122.349 Y112.733
G1 F1500 X122.267 Y112.65 E0.00388
G0 F9000 X121.701 Y112.65
G1 F1500 X122.349 Y113.299 E0.0305
G0 F9000 X122.349 Y113.864
G1 F1500 X121.135 Y112.65 E0.0571
G0 F9000 X120.57 Y112.65
G1 F1500 X122.349 Y114.43 E0.0837
G0 F9000 X122.349 Y114.996
G1 F1500 X120.004 Y112.65 E0.11033
G0 F9000 X119.438 Y112.65
G1 F1500 X122.349 Y115.561 E0.13692
G0 F9000 X122.349 Y116.127
G1 F1500 X118.873 Y112.65 E0.16352
G0 F9000 X118.307 Y112.65
G1 F1500 X122.349 Y116.693 E0.19015
G0 F9000 X122.349 Y117.258
G1 F1500 X117.741 Y112.65 E0.21675
G0 F9000 X117.176 Y112.65
G1 F1500 X122.349 Y117.824 E0.24335
G0 F9000 X122.349 Y118.39
G1 F1500 X116.61 Y112.65 E0.26997
G0 F9000 X116.044 Y112.65
G1 F1500 X122.349 Y118.955 E0.29657
G0 F9000 X122.349 Y119.521
G1 F1500 X115.479 Y112.65 E0.32317
G0 F9000 X114.913 Y112.65
G1 F1500 X122.349 Y120.087 E0.34979
G0 F9000 X122.349 Y120.652
G1 F1500 X114.347 Y112.65 E0.37639
G0 F9000 X113.781 Y112.65
G1 F1500 X122.349 Y121.218 E0.40301
G0 F9000 X122.349 Y121.784
