;FLAVOR:Marlin
;TIME:6781
;Filament used: 5.26383m
;Layer height: 0.2
;MINX:102.7
;MINY:66.2
;MINZ:0.2
;MAXX:132.3
;MAXY:78.8
;MAXZ:90
;Generated with Cura_SteamEngine 4.7.1
M140 S50
M105
M190 S50
M104 S200
M105
M109 S200
M82 ;absolute extrusion mode
; Ender 3 Custom Start G-code
G92 E0 ; Reset Extruder
G28 ; Home all axes
G1 Z2.0 F3000 ; Move Z Axis up little to prevent scratching of Heat Bed
G1 X0.1 Y20 Z0.3 F5000.0 ; Move to start position
G1 X0.1 Y200.0 Z0.3 F1500.0 E15 ; Draw the first line
G1 X0.4 Y200.0 Z0.3 F5000.0 ; Move to side a little
G1 X0.4 Y20 Z0.3 F1500.0 E30 ; Draw the second line
G92 E0 ; Reset Extruder
G1 Z2.0 F3000 ; Move Z Axis up little to prevent scratching of Heat Bed
G1 X5 Y20 Z0.3 F5000.0 ; Move over to prevent blob squish
M83 ;relative extrusion mode
G1 F2700 E-5
;LAYER_COUNT:450
;LAYER:0
M107
;MESH:adhesiontest_singlepart.STL
G0 F6000 X131.9 Y78.4 Z0.2
;TYPE:WALL-INNER
G1 F2700 E5
G1 F1200 X103.1 Y78.4 E0.95789
G1 X103.1 Y66.6 E0.39247
G1 X131.9 Y66.6 E0.95789
G1 X131.9 Y78.4 E0.39247
G0 F6000 X132.3 Y78.8
;TYPE:WALL-OUTER
G1 F1200 X102.7 Y78.8 E0.9845
G1 X102.7 Y66.2 E0.41908
G1 X132.3 Y66.2 E0.9845
G1 X132.3 Y78.8 E0.41908
G0 F6000 X132.03 Y78.53
G0 X131.79 Y78.01
G0 X131.51 Y78.01
;TYPE:SKIN
G1 F1200 X103.49 Y78.01 E0.93195
G1 X103.49 Y66.99 E0.36653
G1 X131.51 Y66.99 E0.93195
G1 X131.51 Y78.01 E0.36653
G0 F6000 X131.79 Y78.01
G0 X131.79 Y67.426
G0 X131.349 Y67.426
G1 F1200 X131.072 Y67.149 E0.01303
G0 F6000 X130.506 Y67.149
G1 F1200 X131.349 Y67.992 E0.03965
G0 F6000 X131.349 Y68.558
G1 F1200 X129.94 Y67.149 E0.06628
G0 F6000 X129.375 Y67.149
G1 F1200 X131.349 Y69.123 E0.09285
G0 F6000 X131.349 Y69.689
G1 F1200 X128.809 Y67.149 E0.11947
G0 F6000 X128.243 Y67.149
G1 F1200 X131.349 Y70.255 E0.1461
G0 F6000 X131.349 Y70.82
G1 F1200 X127.678 Y67.149 E0.17267
G0 F6000 X127.112 Y67.149
G1 F1200 X131.349 Y71.386 E0.1993
G0 F6000 X131.349 Y71.952
G1 F1200 X126.546 Y67.149 E0.22592
G0 F6000 X125.98 Y67.149
G1 F1200 X131.349 Y72.518 E0.25254
G0 F6000 X131.349 Y73.083
G1 F1200 X125.415 Y67.149 E0.27912
G0 F6000 X124.849 Y67.149
G1 F1200 X131.349 Y73.649 E0.30574
G0 F6000 X131.349 Y74.215
G1 F1200 X124.283 Y67.149 E0.33236
G0 F6000 X123.718 Y67.149
G1 F1200 X131.349 Y74.78 E0.35894
G0 F6000 X131.349 Y75.346
G1 F1200 X123.152 Y67.149 E0.38556
G0 F6000 X122.586 Y67.149
G1 F1200 X131.349 Y75.912 E0.41218
G0 F6000 X131.349 Y76.477
G1 F1200 X122.021 Y67.149 E0.43876
G0 F6000 X121.455 Y67.149
G1 F1200 X131.349 Y77.043 E0.46538
G0 F6000 X131.349 Y77.609
G1 F1200 X120.889 Y67.149 E0.49201
G0 F6000 X120.324 Y67.149
G1 F1200 X131.024 Y77.849 E0.5033
G0 F6000 X130.458 Y77.849
G1 F1200 X119.758 Y67.149 E0.5033
G0 F6000 X119.192 Y67.149
G1 F1200 X129.892 Y77.849 E0.5033
G0 F6000 X129.327 Y77.849
G1 F1200 X118.627 Y67.149 E0.5033
G0 F6000 X118.061 Y67.149
G1 F1200 X128.761 Y77.849 E0.5033
G0 F6000 X128.195 Y77.849
G1 F1200 X117.495 Y67.149 E0.5033
G0 F6000 X116.93 Y67.149
G1 F1200 X127.629 Y77.849 E0.50327
G0 F6000 X127.064 Y77.849
G1 F1200 X116.364 Y67.149 E0.5033
G0 F6000 X115.798 Y67.149
G1 F1200 X126.498 Y77.849 E0.5033
G0 F6000 X125.932 Y77.849
G1 F1200 X115.232 Y67.149 E0.5033
G0 F6000 X114.667 Y67.149
G1 F1200 X125.367 Y77.849 E0.5033
G0 F6000 X124.801 Y77.849
G1 F1200 X114.101 Y67.149 E0.5033
G0 F6000 X113.535 Y67.149
G1 F1200 X124.235 Y77.849 E0.5033
G0 F6000 X123.67 Y77.849
G1 F1200 X112.97 Y67.149 E0.5033
G0 F6000 X112.404 Y67.149
G1 F1200 X123.104 Y77.849 E0.5033
G0 F6000 X122.538 Y77.849
G1 F1200 X111.838 Y67.149 E0.5033
G0 F6000 X111.273 Y67.149
G1 F1200 X121.973 Y77.849 E0.5033
G0 F6000 X121.407 Y77.849
G1 F1200 X110.707 Y67.149 E0.5033
G0 F6000 X110.141 Y67.149
G1 F1200 X120.841 Y77.849 E0.5033
G0 F6000 X120.276 Y77.849
G1 F1200 X109.576 Y67.149 E0.5033
G0 F6000 X109.01 Y67.149
G1 F1200 X119.71 Y77.849 E0.5033
G0 F6000 X119.144 Y77.849
G1 F1200 X108.444 Y67.149 E0.5033
G0 F6000 X107.879 Y67.149
G1 F1200 X118.578 Y77.849 E0.50327
G0 F6000 X118.013 Y77.849
G1 F1200 X107.313 Y67.149 E0.5033
G0 F6000 X106.747 Y67.149
G1 F1200 X117.447 Y77.849 E0.5033
G0 F6000 X116.881 Y77.849
G1 F1200 X106.181 Y67.149 E0.5033
G0 F6000 X105.616 Y67.149
G1 F1200 X116.316 Y77.849 E0.5033
G0 F6000 X115.75 Y77.849
G1 F1200 X105.05 Y67.149 E0.5033
G0 F6000 X104.484 Y67.149
G1 F1200 X115.184 Y77.849 E0.5033
G0 F6000 X114.619 Y77.849
G1 F1200 X103.919 Y67.149 E0.5033
G0 F6000 X103.649 Y67.445
G1 F1200 X114.053 Y77.849 E0.48937
G0 F6000 X113.487 Y77.849
G1 F1200 X103.649 Y68.01 E0.46277
G0 F6000 X103.649 Y68.576
G1 F1200 X112.922 Y77.849 E0.43617
G0 F6000 X112.356 Y77.849
G1 F1200 X103.649 Y69.142 E0.40955
G0 F6000 X103.649 Y69.708
G1 F1200 X111.79 Y77.849 E0.38293
G0 F6000 X111.225 Y77.849
G1 F1200 X103.649 Y70.273 E0.35635
G0 F6000 X103.649 Y70.839
G1 F1200 X110.659 Y77.849 E0.32973
G0 F6000 X110.093 Y77.849
G1 F1200 X103.649 Y71.405 E0.30311
G0 F6000 X103.649 Y71.97
G1 F1200 X109.528 Y77.849 E0.27653
G0 F6000 X108.962 Y77.849
G1 F1200 X103.649 Y72.536 E0.24991
G0 F6000 X103.649 Y73.102
G1 F1200 X108.396 Y77.849 E0.22328
G0 F6000 X107.83 Y77.849
G1 F1200 X103.649 Y73.667 E0.19668
G0 F6000 X103.649 Y74.233
G1 F1200 X107.265 Y77.849 E0.17009
G0 F6000 X106.699 Y77.849
G1 F1200 X103.649 Y74.799 E0.14346
G0 F6000 X103.649 Y75.364
G1 F1200 X106.133 Y77.849 E0.11686
G0 F6000 X105.568 Y77.849
G1 F1200 X103.649 Y75.93 E0.09026
G0 F6000 X103.649 Y76.496
G1 F1200 X105.002 Y77.849 E0.06364
G0 F6000 X104.436 Y77.849
G1 F1200 X103.649 Y77.061 E0.03704
G0 F6000 X103.649 Y77.627
G1 F1200 X103.871 Y77.849 E0.01044
G0 F6000 X103.871 Y78.2
;MESH:NONMESH
G0 F300 X103.871 Y78.2 Z0.4
G0 F6000 X103.871 Y78.29
G0 X131.9 Y78.4
;TIME_ELAPSED:59.621577
;LAYER:1
M106 S85
;TYPE:WALL-INNER
;MESH:adhesiontest_singlepart.STL
G1 F1350 X103.1 Y78.4 E0.95789
G1 X103.1 Y66.6 E0.39247
G1 X131.9 Y66.6 E0.95789
G1 X131.9 Y78.4 E0.39247
G0 F7500 X132.3 Y78.8
;TYPE:WALL-OUTER
G1 F1350 X102.7 Y78.8 E0.9845
G1 X102.7 Y66.2 E0.41908
G1 X132.3 Y66.2 E0.9845
G1 X132.3 Y78.8 E0.41908
G0 F7500 X132.03 Y78.53
G0 X131.79 Y78.01
G0 X131.51 Y78.01
;TYPE:SKIN
G1 F1350 X103.49 Y78.01 E0.93195
G1 X103.49 Y66.99 E0.36653
G1 X131.51 Y66.99 E0.93195
G1 X131.51 Y78.01 E0.36653
G0 F7500 X130.888 Y77.849
G1 F1350 X131.349 Y77.388 E0.02168
G0 F7500 X131.349 Y76.822
G1 F1350 X130.322 Y77.849 E0.04831
G0 F7500 X129.756 Y77.849
G1 F1350 X131.349 Y76.257 E0.07491
G0 F7500 X131.349 Y75.691
G1 F1350 X129.191 Y77.849 E0.10151
G0 F7500 X128.625 Y77.849
G1 F1350 X131.349 Y75.125 E0.12813
G0 F7500 X131.349 Y74.56
G1 F1350 X128.059 Y77.849 E0.15473
G0 F7500 X127.494 Y77.849
G1 F1350 X131.349 Y73.994 E0.18133
G0 F7500 X131.349 Y73.428
G1 F1350 X126.928 Y77.849 E0.20795
G0 F7500 X126.362 Y77.849
G1 F1350 X131.349 Y72.863 E0.23455
G0 F7500 X131.349 Y72.297
G1 F1350 X125.797 Y77.849 E0.26115
G0 F7500 X125.231 Y77.849
G1 F1350 X131.349 Y71.731 E0.28777
G0 F7500 X131.349 Y71.166
G1 F1350 X124.665 Y77.849 E0.31437
G0 F7500 X124.1 Y77.849
G1 F1350 X131.349 Y70.6 E0.34097
G0 F7500 X131.349 Y70.034
G1 F1350 X123.534 Y77.849 E0.36759
G0 F7500 X122.968 Y77.849
G1 F1350 X131.349 Y69.468 E0.39422
G0 F7500 X131.349 Y68.903
G1 F1350 X122.403 Y77.849 E0.42079
G0 F7500 X121.837 Y77.849
G1 F1350 X131.349 Y68.337 E0.44742
G0 F7500 X131.349 Y67.771
G1 F1350 X121.271 Y77.849 E0.47404
G0 F7500 X120.705 Y77.849
G1 F1350 X131.349 Y67.206 E0.50064
G0 F7500 X130.84 Y67.149
G1 F1350 X120.14 Y77.849 E0.5033
G0 F7500 X119.574 Y77.849
G1 F1350 X130.274 Y67.149 E0.5033
G0 F7500 X129.708 Y67.149
G1 F1350 X119.008 Y77.849 E0.5033
G0 F7500 X118.443 Y77.849
G1 F1350 X129.143 Y67.149 E0.5033
G0 F7500 X128.577 Y67.149
G1 F1350 X117.877 Y77.849 E0.5033
G0 F7500 X117.311 Y77.849
G1 F1350 X128.011 Y67.149 E0.5033
G0 F7500 X127.446 Y67.149
G1 F1350 X116.746 Y77.849 E0.5033
G0 F7500 X116.18 Y77.849
G1 F1350 X126.88 Y67.149 E0.5033
G0 F7500 X126.314 Y67.149
G1 F1350 X115.614 Y77.849 E0.5033
G0 F7500 X115.049 Y77.849
G1 F1350 X125.749 Y67.149 E0.5033
G0 F7500 X125.183 Y67.149
G1 F1350 X114.483 Y77.849 E0.5033
G0 F7500 X113.917 Y77.849
G1 F1350 X124.617 Y67.149 E0.5033
G0 F7500 X124.051 Y67.149
G1 F1350 X113.352 Y77.849 E0.50327
G0 F7500 X112.786 Y77.849
G1 F1350 X123.486 Y67.149 E0.5033
G0 F7500 X122.92 Y67.149
G1 F1350 X112.22 Y77.849 E0.5033
G0 F7500 X111.654 Y77.849
G1 F1350 X122.354 Y67.149 E0.5033
G0 F7500 X121.789 Y67.149
G1 F1350 X111.089 Y77.849 E0.5033
G0 F7500 X110.523 Y77.849
G1 F1350 X121.223 Y67.149 E0.5033
G0 F7500 X120.657 Y67.149
G1 F1350 X109.957 Y77.849 E0.5033
G0 F7500 X109.392 Y77.849
G1 F1350 X120.092 Y67.149 E0.5033
G0 F7500 X119.526 Y67.149
G1 F1350 X108.826 Y77.849 E0.5033
G0 F7500 X108.26 Y77.849
G1 F1350 X118.96 Y67.149 E0.5033
G0 F7500 X118.395 Y67.149
G1 F1350 X107.695 Y77.849 E0.5033
G0 F7500 X107.129 Y77.849
G1 F1350 X117.829 Y67.149 E0.5033
G0 F7500 X117.263 Y67.149
G1 F1350 X106.563 Y77.849 E0.5033
G0 F7500 X105.998 Y77.849
G1 F1350 X116.698 Y67.149 E0.5033
G0 F7500 X116.132 Y67.149
G1 F1350 X105.432 Y77.849 E0.5033
G0 F7500 X104.866 Y77.849
G1 F1350 X115.566 Y67.149 E0.5033
G0 F7500 X115.001 Y67.149
G1 F1350 X104.301 Y77.849 E0.5033
G0 F7500 X103.735 Y77.849
G1 F1350 X114.435 Y67.149 E0.5033
G0 F7500 X113.869 Y67.149
G1 F1350 X103.649 Y77.37 E0.48074
G0 F7500 X103.649 Y76.804
G1 F1350 X113.303 Y67.149 E0.45412
G0 F7500 X112.738 Y67.149
G1 F1350 X103.649 Y76.238 E0.42752
G0 F7500 X103.649 Y75.673
G1 F1350 X112.172 Y67.149 E0.40092
G0 F7500 X111.606 Y67.149
G1 F1350 X103.649 Y75.107 E0.3743
G0 F7500 X103.649 Y74.541
G1 F1350 X111.041 Y67.149 E0.3477
G0 F7500 X110.475 Y67.149
G1 F1350 X103.649 Y73.976 E0.3211
G0 F7500 X103.649 Y73.41
G1 F1350 X109.909 Y67.149 E0.29447
G0 F7500 X109.344 Y67.149
G1 F1350 X103.649 Y72.844 E0.26788
G0 F7500 X103.649 Y72.279
G1 F1350 X108.778 Y67.149 E0.24128
G0 F7500 X108.212 Y67.149
G1 F1350 X103.649 Y71.713 E0.21465
G0 F7500 X103.649 Y71.147
G1 F1350 X107.647 Y67.149 E0.18805
G0 F7500 X107.081 Y67.149
G1 F1350 X103.649 Y70.581 E0.16143
G0 F7500 X103.649 Y70.016
G1 F1350 X106.515 Y67.149 E0.13483
G0 F7500 X105.95 Y67.149
G1 F1350 X103.649 Y69.45 E0.10823
G0 F7500 X103.649 Y68.884
G1 F1350 X105.384 Y67.149 E0.08161
G0 F7500 X104.818 Y67.149
G1 F1350 X103.649 Y68.319 E0.05501
G0 F7500 X103.649 Y67.753
G1 F1350 X104.252 Y67.149 E0.02839
G0 F7500 X104.252 Y66.8
G1 F2700 E-5
;MESH:NONMESH
G0 F300 X104.252 Y66.8 Z0.6
G0 F7500 X104.252 Y66.71
G0 X131.718 Y66.782
G0 X131.9 Y78.4
;TIME_ELAPSED:109.870868
;LAYER:2
M106 S170
;TYPE:WALL-INNER
;MESH:adhesiontest_singlepart.STL
G1 F2700 E5
G1 F1500 X103.1 Y78.4 E0.95789
G1 X103.1 Y66.6 E0.39247
G1 X131.9 Y66.6 E0.95789
G1 X131.9 Y78.4 E0.39247
G0 F9000 X132.3 Y78.8
;TYPE:WALL-OUTER
G1 F1500 X102.7 Y78.8 E0.9845
G1 X102.7 Y66.2 E0.41908
G1 X132.3 Y66.2 E0.9845
G1 X132.3 Y78.8 E0.41908
G0 F9000 X132.03 Y78.53
G0 X131.79 Y78.01
G0 X131.51 Y78.01
;TYPE:SKIN
G1 F1500 X103.49 Y78.01 E0.93195
G1 X103.49 Y66.99 E0.36653
G1 X131.51 Y66.99 E0.93195
G1 X131.51 Y78.01 E0.36653
G0 F9000 X131.79 Y78.01
G0 X131.79 Y67.426
G0 X131.349 Y67.426
G1 F1500 X131.072 Y67.149 E0.01303
G0 F9000 X130.506 Y67.149
G1 F1500 X131.349 Y67.992 E0.03965
G0 F9000 X131.349 Y68.558
G1 F1500 X129.94 Y67.149 E0.06628
G0 F9000 X129.375 Y67.149
G1 F1500 X131.349 Y69.123 E0.09285
G0 F9000 X131.349 Y69.689
G1 F1500 X128.809 Y67.149 E0.11947
G0 F9000 X128.243 Y67.149
G1 F1500 X131.349 Y70.255 E0.1461
G0 F9000 X131.349 Y70.82
G1 F1500 X127.678 Y67.149 E0.17267
G0 F9000 X127.112 Y67.149
G1 F1500 X131.349 Y71.386 E0.1993
G0 F9000 X131.349 Y71.952
G1 F1500 X126.546 Y67.149 E0.22592
G0 F9000 X125.98 Y67.149
G1 F1500 X131.349 Y72.518 E0.25254
G0 F9000 X131.349 Y73.083
G1 F1500 X125.415 Y67.149 E0.27912
G0 F9000 X124.849 Y67.149
G1 F1500 X131.349 Y73.649 E0.30574
G0 F9000 X131.349 Y74.215
G1 F1500 X124.283 Y67.149 E0.33236
G0 F9000 X123.718 Y67.149
G1 F1500 X131.349 Y74.78 E0.35894
G0 F9000 X131.349 Y75.346
G1 F1500 X123.152 Y67.149 E0.38556
G0 F9000 X122.586 Y67.149
G1 F1500 X131.349 Y75.912 E0.41218
G0 F9000 X131.349 Y76.477
G1 F1500 X122.021 Y67.149 E0.43876
G0 F9000 X121.455 Y67.149
G1 F1500 X131.349 Y77.043 E0.46538
G0 F9000 X131.349 Y77.609
G1 F1500 X120.889 Y67.149 E0.49201
G0 F9000 X120.324 Y67.149
G1 F1500 X131.024 Y77.849 E0.5033
G0 F9000 X130.458 Y77.849
G1 F1500 X119.758 Y67.149 E0.5033
G0 F9000 X119.192 Y67.149
G1 F1500 X129.892 Y77.849 E0.5033
G0 F9000 X129.327 Y77.849
G1 F1500 X118.627 Y67.149 E0.5033
G0 F9000 X118.061 Y67.149
G1 F1500 X128.761 Y77.849 E0.5033
G0 F9000 X128.195 Y77.849
G1 F1500 X117.495 Y67.149 E0.5033
G0 F9000 X116.93 Y67.149
G1 F1500 X127.629 Y77.849 E0.50327
G0 F9000 X127.064 Y77.849
G1 F1500 X116.364 Y67.149 E0.5033
G0 F9000 X115.798 Y67.149
G1 F1500 X126.498 Y77.849 E0.5033
G0 F9000 X125.932 Y77.849
G1 F1500 X115.232 Y67.149 E0.5033
G0 F9000 X114.667 Y67.149
G1 F1500 X125.367 Y77.849 E0.5033
G0 F9000 X124.801 Y77.849
G1 F1500 X114.101 Y67.149 E0.5033
G0 F9000 X113.535 Y67.149
G1 F1500 X124.235 Y77.849 E0.5033
G0 F9000 X123.67 Y77.849
G1 F1500 X112.97 Y67.149 E0.5033
G0 F9000 X112.404 Y67.149
G1 F1500 X123.104 Y77.849 E0.5033
G0 F9000 X122.538 Y77.849
G1 F1500 X111.838 Y67.149 E0.5033
G0 F9000 X111.273 Y67.149
G1 F1500 X121.973 Y77.849 E0.5033
G0 F9000 X121.407 Y77.849
G1 F1500 X110.707 Y67.149 E0.5033
G0 F9000 X110.141 Y67.149
G1 F1500 X120.841 Y77.849 E0.5033
G0 F9000 X120.276 Y77.849
G1 F1500 X109.576 Y67.149 E0.5033
G0 F9000 X109.01 Y67.149
G1 F1500 X119.71 Y77.849 E0.5033
G0 F9000 X119.144 Y77.849
G1 F1500 X108.444 Y67.149 E0.5033
G0 F9000 X107.879 Y67.149
G1 F1500 X118.578 Y77.849 E0.50327
G0 F9000 X118.013 Y77.849
G1 F1500 X107.313 Y67.149 E0.5033
G0 F9000 X106.747 Y67.149
G1 F1500 X117.447 Y77.849 E0.5033
G0 F9000 X116.881 Y77.849
G1 F1500 X106.181 Y67.149 E0.5033
G0 F9000 X105.616 Y67.149
G1 F1500 X116.316 Y77.849 E0.5033
G0 F9000 X115.75 Y77.849
G1 F1500 X105.05 Y67.149 E0.5033
G0 F9000 X104.484 Y67.149
G1 F1500 X115.184 Y77.849 E0.5033
G0 F9000 X114.619 Y77.849
G1 F1500 X103.919 Y67.149 E0.5033
G0 F9000 X103.649 Y67.445
G1 F1500 X114.053 Y77.849 E0.48937
G0 F9000 X113.487 Y77.849
G1 F1500 X103.649 Y68.01 E0.46277
G0 F9000 X103.649 Y68.576
G1 F1500 X112.922 Y77.849 E0.43617
G0 F9000 X112.356 Y77.849
G1 F1500 X103.649 Y69.142 E0.40955
G0 F9000 X103.649 Y69.708
G1 F1500 X111.79 Y77.849 E0.38293
G0 F9000 X111.225 Y77.849
G1 F1500 X103.649 Y70.273 E0.35635
G0 F9000 X103.649 Y70.839
G1 F1500 X110.659 Y77.849 E0.32973
G0 F9000 X110.093 Y77.849
G1 F1500 X103.649 Y71.405 E0.30311
G0 F9000 X103.649 Y71.97
G1 F1500 X109.528 Y77.849 E0.27653
G0 F9000 X108.962 Y77.849
G1 F1500 X103.649 Y72.536 E0.24991
G0 F9000 X103.649 Y73.102
G1 F1500 X108.396 Y77.849 E0.22328
G0 F9000 X107.83 Y77.849
G1 F1500 X103.649 Y73.667 E0.19668
G0 F9000 X103.649 Y74.233
G1 F1500 X107.265 Y77.849 E0.17009
G0 F9000 X106.699 Y77.849
G1 F1500 X103.649 Y74.799 E0.14346
G0 F9000 X103.649 Y75.364
G1 F1500 X106.133 Y77.849 E0.11686
G0 F9000 X105.568 Y77.849
G1 F1500 X103.649 Y75.93 E0.09026
G0 F9000 X103.649 Y76.496
G1 F1500 X105.002 Y77.849 E0.06364
G0 F9000 X104.436 Y77.849
G1 F1500 X103.649 Y77.061 E0.03704
G0 F9000 X103.649 Y77.627
G1 F1500 X103.871 Y77.849 E0.01044
G0 F9000 X103.871 Y78.2
;MESH:NONMESH
G0 F300 X103.871 Y78.2 Z0.8
G0 F9000 X103.871 Y78.29
G0 X131.9 Y78.4
;TIME_ELAPSED:156.214316
;LAYER:3
M106 S255
;TYPE:WALL-INNER
;MESH:adhesiontest_singlepart.STL
G1 F1500 X103.1 Y78.4 E0.95789
G1 X103.1 Y66.6 E0.39247
G1 X131.9 Y66.6 E0.95789
G1 X131.9 Y78.4 E0.39247
G0 F9000 X132.3 Y78.8
;TYPE:WALL-OUTER
G1 F1500 X102.7 Y78.8 E0.9845
G1 X102.7 Y66.2 E0.41908
G1 X132.3 Y66.2 E0.9845
G1 X132.3 Y78.8 E0.41908
G0 F9000 X132.03 Y78.53
G0 X131.79 Y78.01
G0 X131.51 Y78.01
;TYPE:SKIN
G1 F1500 X103.49 Y78.01 E0.93195
G1 X103.49 Y66.99 E0.36653
G1 X131.51 Y66.99 E0.93195
G1 X131.51 Y78.01 E0.36653
G0 F9000 X130.888 Y77.849
G1 F1500 X131.349 Y77.388 E0.02168
G0 F9000 X131.349 Y76.822
G1 F1500 X130.322 Y77.849 E0.04831
G0 F9000 X129.756 Y77.849
G1 F1500 X131.349 Y76.257 E0.07491
G0 F9000 X131.349 Y75.691
G1 F1500 X129.191 Y77.849 E0.10151
G0 F9000 X128.625 Y77.849
G1 F1500 X131.349 Y75.125 E0.12813
G0 F9000 X131.349 Y74.56
G1 F1500 X128.059 Y77.849 E0.15473
