;FLAVOR:Marlin
;TIME:944
;Filament used: 1.43246m
;Layer height: 0.4
;MINX:96.5
;MINY:96.5
;MINZ:0.2
;MAXX:138.5
;MAXY:138.5
;MAXZ:19.8
;Generated with Cura_SteamEngine 4.7.1
M140 S50
M105
M190 S50
M104 S200
M105
M109 S200
M82 ;absolute extrusion mode
; Ender 3 Custom Start G-code
G92 E0 ; Reset Extruder
G28 ; Home all axes
G1 Z2.0 F3000 ; Move Z Axis up little to prevent scratching of Heat Bed
G1 X0.1 Y20 Z0.3 F5000.0 ; Move to start position
G1 X0.1 Y200.0 Z0.3 F1500.0 E15 ; Draw the first line
G1 X0.4 Y200.0 Z0.3 F5000.0 ; Move to side a little
G1 X0.4 Y20 Z0.3 F1500.0 E30 ; Draw the second line
G92 E0 ; Reset Extruder
G1 Z2.0 F3000 ; Move Z Axis up little to prevent scratching of Heat Bed
G1 X5 Y20 Z0.3 F5000.0 ; Move over to prevent blob squish
M83 ;relative extrusion mode
G1 F2700 E-5
;LAYER_COUNT:50
;LAYER:0
M107
G0 F6000 X99.698 Y99.764 Z0.2
;TYPE:SKIRT
G1 F2700 E5
G1 F1200 X100.386 Y99.127 E0.03119
G1 X101.126 Y98.551 E0.03119
G1 X101.912 Y98.039 E0.0312
G1 X102.739 Y97.597 E0.03119
G1 X103.601 Y97.227 E0.0312
G1 X104.491 Y96.931 E0.0312
G1 X105.403 Y96.713 E0.03119
G1 X106.33 Y96.572 E0.03119
G1 X107.201 Y96.513 E0.02904
G1 X107.522 Y96.504 E0.01068
G1 X107.83 Y96.5 E0.01024
G1 X126.951 Y96.501 E0.63597
G1 X127.649 Y96.511 E0.02322
G1 X128.585 Y96.565 E0.03118
G1 X129.513 Y96.697 E0.03118
G1 X130.427 Y96.909 E0.03121
G1 X131.319 Y97.198 E0.03119
G1 X132.184 Y97.561 E0.0312
G1 X133.014 Y97.997 E0.03118
G1 X133.805 Y98.502 E0.03121
G1 X134.549 Y99.073 E0.03119
G1 X135.242 Y99.705 E0.03119
G1 X135.879 Y100.393 E0.03119
G1 X136.454 Y101.134 E0.0312
G1 X136.965 Y101.92 E0.03118
G1 X137.407 Y102.748 E0.03122
G1 X137.776 Y103.61 E0.03119
G1 X138.071 Y104.5 E0.03119
G1 X138.289 Y105.412 E0.03119
G1 X138.429 Y106.34 E0.03121
G1 X138.487 Y107.201 E0.0287
G1 X138.496 Y107.521 E0.01065
G1 X138.5 Y107.83 E0.01028
G1 X138.499 Y126.9 E0.63427
G1 X138.49 Y127.627 E0.02418
G1 X138.439 Y128.564 E0.03121
G1 X138.307 Y129.492 E0.03118
G1 X138.098 Y130.406 E0.03118
G1 X137.811 Y131.299 E0.0312
G1 X137.449 Y132.165 E0.03122
G1 X137.015 Y132.996 E0.03118
G1 X136.511 Y133.787 E0.0312
G1 X135.942 Y134.532 E0.03118
G1 X135.311 Y135.227 E0.03122
G1 X134.624 Y135.865 E0.03118
G1 X133.885 Y136.442 E0.03118
G1 X133.099 Y136.954 E0.0312
G1 X132.273 Y137.397 E0.03117
G1 X131.411 Y137.769 E0.03123
G1 X130.522 Y138.065 E0.03116
G1 X129.61 Y138.285 E0.0312
G1 X128.683 Y138.426 E0.03119
G1 X127.799 Y138.487 E0.02947
G1 X127.478 Y138.496 E0.01068
G1 X127.17 Y138.5 E0.01024
G1 X108.065 Y138.499 E0.63543
G1 X107.367 Y138.49 E0.02322
G1 X106.431 Y138.438 E0.03118
G1 X105.502 Y138.306 E0.03121
G1 X104.588 Y138.096 E0.03119
G1 X103.695 Y137.809 E0.0312
G1 X102.83 Y137.446 E0.0312
G1 X101.999 Y137.012 E0.03118
G1 X101.208 Y136.508 E0.0312
G1 X100.463 Y135.938 E0.0312
G1 X99.769 Y135.307 E0.0312
G1 X99.132 Y134.62 E0.03116
G1 X98.555 Y133.88 E0.03121
G1 X98.043 Y133.094 E0.0312
G1 X97.6 Y132.267 E0.0312
G1 X97.229 Y131.406 E0.03118
G1 X96.933 Y130.516 E0.0312
G1 X96.714 Y129.604 E0.0312
G1 X96.573 Y128.677 E0.03119
G1 X96.513 Y127.788 E0.02964
G1 X96.504 Y127.455 E0.01108
G1 X96.5 Y127.158 E0.00988
G1 X96.501 Y108.025 E0.63637
G1 X96.51 Y107.36 E0.02212
G1 X96.563 Y106.424 E0.03118
G1 X96.695 Y105.495 E0.03121
G1 X96.906 Y104.581 E0.0312
G1 X97.194 Y103.689 E0.03118
G1 X97.557 Y102.824 E0.0312
G1 X97.992 Y101.993 E0.0312
G1 X98.496 Y101.203 E0.03117
G1 X99.066 Y100.458 E0.0312
G1 X99.698 Y99.764 E0.03122
G0 F6000 X100.089 Y99.939
G1 F1200 X100.774 Y99.323 E0.03064
G1 X101.51 Y98.77 E0.03062
G1 X102.291 Y98.282 E0.03063
G1 X103.111 Y97.864 E0.03061
G1 X103.965 Y97.519 E0.03063
G1 X104.845 Y97.249 E0.03062
G1 X105.745 Y97.057 E0.03061
G1 X106.659 Y96.943 E0.03064
G1 X107.212 Y96.913 E0.01842
G1 X107.533 Y96.904 E0.01068
G1 X107.83 Y96.9 E0.00988
G1 X126.793 Y96.9 E0.63071
G1 X127.643 Y96.911 E0.02827
G1 X128.562 Y96.964 E0.03062
G1 X129.473 Y97.097 E0.03062
G1 X130.369 Y97.308 E0.03062
G1 X131.243 Y97.596 E0.03061
G1 X132.09 Y97.959 E0.03065
G1 X132.901 Y98.394 E0.03061
G1 X133.671 Y98.898 E0.03061
G1 X134.395 Y99.467 E0.03063
G1 X135.067 Y100.097 E0.03064
G1 X135.682 Y100.782 E0.03062
G1 X136.235 Y101.518 E0.03062
G1 X136.722 Y102.299 E0.03061
G1 X137.139 Y103.12 E0.03063
G1 X137.484 Y103.974 E0.03063
G1 X137.753 Y104.854 E0.03061
G1 X137.945 Y105.755 E0.03064
G1 X138.058 Y106.668 E0.0306
G1 X138.087 Y107.212 E0.01812
G1 X138.096 Y107.532 E0.01065
G1 X138.1 Y107.83 E0.00991
G1 X138.099 Y126.895 E0.6341
G1 X138.09 Y127.622 E0.02418
G1 X138.039 Y128.541 E0.03061
G1 X137.908 Y129.453 E0.03064
G1 X137.698 Y130.349 E0.03061
G1 X137.412 Y131.224 E0.03062
G1 X137.051 Y132.071 E0.03062
G1 X136.617 Y132.883 E0.03062
G1 X136.115 Y133.655 E0.03063
G1 X135.547 Y134.38 E0.03063
G1 X134.919 Y135.053 E0.03062
G1 X134.235 Y135.669 E0.03062
G1 X133.5 Y136.223 E0.03061
G1 X132.72 Y136.712 E0.03062
G1 X131.9 Y137.131 E0.03063
G1 X131.047 Y137.477 E0.03062
G1 X130.167 Y137.748 E0.03063
G1 X129.267 Y137.941 E0.03061
G1 X128.353 Y138.056 E0.03064
G1 X127.788 Y138.087 E0.01882
G1 X127.467 Y138.096 E0.01068
G1 X127.17 Y138.1 E0.00988
G1 X108.07 Y138.099 E0.63527
G1 X107.372 Y138.09 E0.02322
G1 X106.453 Y138.038 E0.03061
G1 X105.542 Y137.907 E0.03061
G1 X104.646 Y137.697 E0.03061
G1 X103.771 Y137.41 E0.03063
G1 X102.924 Y137.048 E0.03064
G1 X102.112 Y136.614 E0.03062
G1 X101.341 Y136.112 E0.0306
G1 X100.616 Y135.544 E0.03063
G1 X99.943 Y134.915 E0.03064
G1 X99.328 Y134.231 E0.03059
G1 X98.774 Y133.496 E0.03061
G1 X98.286 Y132.715 E0.03063
G1 X97.867 Y131.895 E0.03063
G1 X97.521 Y131.042 E0.03062
G1 X97.251 Y130.162 E0.03062
G1 X97.058 Y129.261 E0.03065
G1 X96.944 Y128.348 E0.0306
G1 X96.913 Y127.777 E0.01902
G1 X96.904 Y127.444 E0.01108
G1 X96.9 Y127.158 E0.00951
G1 X96.901 Y108.031 E0.63617
G1 X96.91 Y107.366 E0.02212
G1 X96.962 Y106.446 E0.03065
G1 X97.094 Y105.535 E0.03062
G1 X97.305 Y104.639 E0.03062
G1 X97.592 Y103.764 E0.03063
G1 X97.955 Y102.918 E0.03062
G1 X98.389 Y102.106 E0.03062
G1 X98.892 Y101.335 E0.03062
G1 X99.461 Y100.611 E0.03063
G1 X100.089 Y99.939 E0.03059
G0 F6000 X100.481 Y100.117
G1 F1200 X101.162 Y99.524 E0.03003
G1 X101.894 Y98.994 E0.03006
G1 X102.669 Y98.531 E0.03003
G1 X103.482 Y98.138 E0.03003
G1 X104.327 Y97.818 E0.03005
G1 X105.196 Y97.575 E0.03001
G1 X106.084 Y97.409 E0.03005
G1 X107.223 Y97.313 E0.03802
G1 X107.544 Y97.304 E0.01068
G1 X107.83 Y97.3 E0.00951
G1 X126.793 Y97.3 E0.63071
G1 X127.637 Y97.311 E0.02807
G1 X128.539 Y97.364 E0.03005
G1 X129.432 Y97.496 E0.03002
G1 X130.31 Y97.707 E0.03003
G1 X131.166 Y97.995 E0.03004
G1 X131.993 Y98.357 E0.03003
G1 X132.785 Y98.792 E0.03005
G1 X133.536 Y99.294 E0.03004
G1 X134.239 Y99.861 E0.03004
G1 X134.889 Y100.488 E0.03004
G1 X135.481 Y101.17 E0.03004
G1 X136.011 Y101.901 E0.03003
G1 X136.473 Y102.677 E0.03004
G1 X136.866 Y103.49 E0.03003
G1 X137.184 Y104.335 E0.03003
G1 X137.427 Y105.205 E0.03004
G1 X137.592 Y106.093 E0.03004
G1 X137.687 Y107.223 E0.03772
G1 X137.696 Y107.543 E0.01065
G1 X137.7 Y107.83 E0.00955
G1 X137.699 Y126.89 E0.63394
G1 X137.69 Y127.617 E0.02418
G1 X137.639 Y128.519 E0.03005
G1 X137.508 Y129.413 E0.03005
G1 X137.299 Y130.291 E0.03002
G1 X137.013 Y131.148 E0.03005
G1 X136.652 Y131.976 E0.03004
G1 X136.22 Y132.768 E0.03001
G1 X135.719 Y133.52 E0.03005
G1 X135.153 Y134.224 E0.03004
G1 X134.528 Y134.875 E0.03002
G1 X133.847 Y135.469 E0.03006
G1 X133.116 Y136 E0.03005
G1 X132.342 Y136.464 E0.03001
G1 X131.529 Y136.858 E0.03005
G1 X130.685 Y137.178 E0.03002
G1 X129.815 Y137.423 E0.03006
G1 X128.928 Y137.589 E0.03001
G1 X127.777 Y137.687 E0.03842
G1 X127.456 Y137.696 E0.01068
G1 X127.17 Y137.7 E0.00951
G1 X108.075 Y137.699 E0.6351
G1 X107.377 Y137.69 E0.02322
G1 X106.476 Y137.639 E0.03002
G1 X105.582 Y137.507 E0.03006
G1 X104.704 Y137.298 E0.03002
G1 X103.847 Y137.011 E0.03006
G1 X103.02 Y136.65 E0.03001
G1 X102.227 Y136.217 E0.03005
G1 X101.476 Y135.716 E0.03003
G1 X100.772 Y135.15 E0.03004
G1 X100.121 Y134.524 E0.03004
G1 X99.528 Y133.843 E0.03003
G1 X98.998 Y133.112 E0.03003
G1 X98.534 Y132.337 E0.03004
G1 X98.14 Y131.524 E0.03005
G1 X97.82 Y130.68 E0.03002
G1 X97.576 Y129.81 E0.03005
G1 X97.41 Y128.922 E0.03005
G1 X97.313 Y127.767 E0.03855
G1 X97.304 Y127.434 E0.01108
G1 X97.3 Y127.158 E0.00918
G1 X97.301 Y108.036 E0.636
G1 X97.31 Y107.371 E0.02212
G1 X97.362 Y106.469 E0.03005
G1 X97.494 Y105.576 E0.03002
G1 X97.704 Y104.698 E0.03003
G1 X97.991 Y103.841 E0.03006
G1 X98.353 Y103.014 E0.03003
G1 X98.786 Y102.222 E0.03002
G1 X99.288 Y101.471 E0.03004
G1 X99.855 Y100.767 E0.03007
G1 X100.481 Y100.117 E0.03001
G1 F2700 E-5
;MESH:CE3_cube.3mf
G0 F6000 X107.914 Y106.835
G0 X107.914 Y107.914
G0 X126.718 Y108.282
G0 X126.9 Y126.9
;TYPE:WALL-INNER
G1 F2700 E5
G1 F1200 X108.1 Y126.9 E0.62529
G1 X108.1 Y108.1 E0.62529
G1 X126.9 Y108.1 E0.62529
G1 X126.9 Y126.9 E0.62529
G0 F6000 X127.3 Y127.3
;TYPE:WALL-OUTER
G1 F1200 X107.7 Y127.3 E0.6519
G1 X107.7 Y107.7 E0.6519
G1 X127.3 Y107.7 E0.6519
G1 X127.3 Y127.3 E0.6519
G0 F6000 X127.03 Y127.03
G0 X126.79 Y126.51
G0 X126.51 Y126.51
;TYPE:SKIN
G1 F1200 X108.49 Y126.51 E0.59935
G1 X108.49 Y108.49 E0.59935
G1 X126.51 Y108.49 E0.59935
G1 X126.51 Y126.51 E0.59935
G0 F6000 X126.79 Y126.51
G0 X126.79 Y108.813
G0 X126.349 Y108.813
G1 F1200 X126.186 Y108.65 E0.00767
G0 F6000 X125.621 Y108.65
G1 F1200 X126.349 Y109.378 E0.03424
G0 F6000 X126.349 Y109.944
G1 F1200 X125.055 Y108.65 E0.06087
G0 F6000 X124.489 Y108.65
G1 F1200 X126.349 Y110.51 E0.08749
G0 F6000 X126.349 Y111.075
G1 F1200 X123.923 Y108.65 E0.11409
G0 F6000 X123.358 Y108.65
G1 F1200 X126.349 Y111.641 E0.14069
G0 F6000 X126.349 Y112.207
G1 F1200 X122.792 Y108.65 E0.16731
G0 F6000 X122.226 Y108.65
G1 F1200 X126.349 Y112.772 E0.19391
G0 F6000 X126.349 Y113.338
G1 F1200 X121.661 Y108.65 E0.22051
G0 F6000 X121.095 Y108.65
G1 F1200 X126.349 Y113.904 E0.24713
G0 F6000 X126.349 Y114.469
G1 F1200 X120.529 Y108.65 E0.27373
G0 F6000 X119.964 Y108.65
G1 F1200 X126.349 Y115.035 E0.30033
G0 F6000 X126.349 Y115.601
G1 F1200 X119.398 Y108.65 E0.32695
G0 F6000 X118.832 Y108.65
G1 F1200 X126.349 Y116.167 E0.35358
G0 F6000 X126.349 Y116.732
G1 F1200 X118.267 Y108.65 E0.38015
G0 F6000 X117.701 Y108.65
G1 F1200 X126.349 Y117.298 E0.40678
G0 F6000 X126.349 Y117.864
G1 F1200 X117.135 Y108.65 E0.4334
G0 F6000 X116.57 Y108.65
G1 F1200 X126.349 Y118.429 E0.45997
G0 F6000 X126.349 Y118.995
G1 F1200 X116.004 Y108.65 E0.4866
G0 F6000 X115.438 Y108.65
G1 F1200 X126.349 Y119.561 E0.51322
G0 F6000 X126.349 Y120.126
G1 F1200 X114.873 Y108.65 E0.5398
G0 F6000 X114.307 Y108.65
G1 F1200 X126.349 Y120.692 E0.56642
G0 F6000 X126.349 Y121.258
G1 F1200 X113.741 Y108.65 E0.59304
G0 F6000 X113.175 Y108.65
G1 F1200 X126.349 Y121.823 E0.61964
G0 F6000 X126.349 Y122.389
G1 F1200 X112.61 Y108.65 E0.64624
G0 F6000 X112.044 Y108.65
G1 F1200 X126.349 Y122.955 E0.67286
G0 F6000 X126.349 Y123.52
G1 F1200 X111.478 Y108.65 E0.69946
G0 F6000 X110.913 Y108.65
G1 F1200 X126.349 Y124.086 E0.72606
G0 F6000 X126.349 Y124.652
G1 F1200 X110.347 Y108.65 E0.75269
G0 F6000 X109.781 Y108.65
G1 F1200 X126.349 Y125.218 E0.77931
G0 F6000 X126.349 Y125.783
G1 F1200 X109.216 Y108.65 E0.80588
G0 F6000 X108.649 Y108.649
G1 F1200 X126.349 Y126.349 E0.83255
G0 F6000 X125.783 Y126.349
G1 F1200 X108.649 Y109.215 E0.80593
G0 F6000 X108.649 Y109.781
G1 F1200 X125.218 Y126.349 E0.77933
G0 F6000 X124.652 Y126.349
G1 F1200 X108.649 Y110.346 E0.75273
G0 F6000 X108.649 Y110.912
G1 F1200 X124.086 Y126.349 E0.72611
G0 F6000 X123.52 Y126.349
G1 F1200 X108.649 Y111.478 E0.69949
G0 F6000 X108.649 Y112.043
G1 F1200 X122.955 Y126.349 E0.67291
G0 F6000 X122.389 Y126.349
G1 F1200 X108.649 Y112.609 E0.64629
G0 F6000 X108.649 Y113.175
G1 F1200 X121.823 Y126.349 E0.61966
G0 F6000 X121.258 Y126.349
G1 F1200 X108.649 Y113.74 E0.59309
G0 F6000 X108.649 Y114.306
G1 F1200 X120.692 Y126.349 E0.56647
G0 F6000 X120.126 Y126.349
G1 F1200 X108.649 Y114.872 E0.53984
G0 F6000 X108.649 Y115.438
G1 F1200 X119.561 Y126.349 E0.51324
G0 F6000 X118.995 Y126.349
G1 F1200 X108.649 Y116.003 E0.48664
G0 F6000 X108.649 Y116.569
G1 F1200 X118.429 Y126.349 E0.46002
G0 F6000 X117.864 Y126.349
G1 F1200 X108.649 Y117.135 E0.43342
G0 F6000 X108.649 Y117.7
G1 F1200 X117.298 Y126.349 E0.40682
G0 F6000 X116.732 Y126.349
G1 F1200 X108.649 Y118.266 E0.3802
G0 F6000 X108.649 Y118.832
G1 F1200 X116.167 Y126.349 E0.3536
G0 F6000 X115.601 Y126.349
G1 F1200 X108.649 Y119.397 E0.327
G0 F6000 X108.649 Y119.963
G1 F1200 X115.035 Y126.349 E0.30038
G0 F6000 X114.469 Y126.349
G1 F1200 X108.649 Y120.529 E0.27375
G0 F6000 X108.649 Y121.094
G1 F1200 X113.904 Y126.349 E0.24718
G0 F6000 X113.338 Y126.349
G1 F1200 X108.649 Y121.66 E0.22056
G0 F6000 X108.649 Y122.226
G1 F1200 X112.772 Y126.349 E0.19393
G0 F6000 X112.207 Y126.349
G1 F1200 X108.649 Y122.791 E0.16736
G0 F6000 X108.649 Y123.357
G1 F1200 X111.641 Y126.349 E0.14073
G0 F6000 X111.075 Y126.349
G1 F1200 X108.649 Y123.923 E0.11411
G0 F6000 X108.649 Y124.488
G1 F1200 X110.51 Y126.349 E0.08754
G0 F6000 X109.944 Y126.349
G1 F1200 X108.649 Y125.054 E0.06091
G0 F6000 X108.649 Y125.62
G1 F1200 X109.378 Y126.349 E0.03429
G0 F6000 X108.813 Y126.349
G1 F1200 X108.649 Y126.186 E0.00769
G0 F6000 X108.3 Y126.186
;MESH:NONMESH
G0 F300 X108.3 Y126.186 Z0.6
G0 F6000 X108.21 Y126.186
G0 X108.282 Y126.718
G0 X126.9 Y126.9
;TIME_ELAPSED:84.068886
;LAYER:1
M106 S85
;TYPE:WALL-INNER
;MESH:CE3_cube.3mf
G1 F1350 X108.1 Y126.9 E1.25058
G1 X108.1 Y108.1 E1.25058
G1 X126.9 Y108.1 E1.25058
G1 X126.9 Y126.9 E1.25058
G0 F7500 X127.3 Y127.3
;TYPE:WALL-OUTER
G1 F1350 X107.7 Y127.3 E1.3038
G1 X107.7 Y107.7 E1.3038
G1 X127.3 Y107.7 E1.3038
G1 X127.3 Y127.3 E1.3038
G0 F7500 X127.03 Y127.03
G0 X126.79 Y126.51
G0 X126.51 Y126.51
;TYPE:SKIN
G1 F1350 X108.49 Y126.51 E1.1987
G1 X108.49 Y108.49 E1.1987
G1 X126.51 Y108.49 E1.1987
G1 X126.51 Y126.51 E1.1987
G0 F7500 X125.946 Y126.349
G1 F1350 X126.349 Y125.946 E0.03791
G0 F7500 X126.349 Y125.38
G1 F1350 X125.38 Y126.349 E0.09116
G0 F7500 X124.814 Y126.349
G1 F1350 X126.349 Y124.814 E0.1444
G0 F7500 X126.349 Y124.249
G1 F1350 X124.249 Y126.349 E0.19756
G0 F7500 X123.683 Y126.349
G1 F1350 X126.349 Y123.683 E0.2508
G0 F7500 X126.349 Y123.117
G1 F1350 X123.117 Y126.349 E0.30405
G0 F7500 X122.552 Y126.349
G1 F1350 X126.349 Y122.552 E0.3572
G0 F7500 X126.349 Y121.986
G1 F1350 X121.986 Y126.349 E0.41044
G0 F7500 X121.42 Y126.349
G1 F1350 X126.349 Y121.42 E0.46369
G0 F7500 X126.349 Y120.855
G1 F1350 X120.855 Y126.349 E0.51684
G0 F7500 X120.289 Y126.349
G1 F1350 X126.349 Y120.289 E0.57009
G0 F7500 X126.349 Y119.723
G1 F1350 X119.723 Y126.349 E0.62333
G0 F7500 X119.158 Y126.349
G1 F1350 X126.349 Y119.158 E0.67649
G0 F7500 X126.349 Y118.592
G1 F1350 X118.592 Y126.349 E0.72973
G0 F7500 X118.026 Y126.349
G1 F1350 X126.349 Y118.026 E0.78298
G0 F7500 X126.349 Y117.461
G1 F1350 X117.461 Y126.349 E0.83613
G0 F7500 X116.895 Y126.349
G1 F1350 X126.349 Y116.895 E0.88937
G0 F7500 X126.349 Y116.329
G1 F1350 X116.329 Y126.349 E0.94262
G0 F7500 X115.763 Y126.349
G1 F1350 X126.349 Y115.763 E0.99587
G0 F7500 X126.349 Y115.198
G1 F1350 X115.198 Y126.349 E1.04902
G0 F7500 X114.632 Y126.349
G1 F1350 X126.349 Y114.632 E1.10226
G0 F7500 X126.349 Y114.066
G1 F1350 X114.066 Y126.349 E1.15551
G0 F7500 X113.501 Y126.349
G1 F1350 X126.349 Y113.501 E1.20866
G0 F7500 X126.349 Y112.935
G1 F1350 X112.935 Y126.349 E1.26191
G0 F7500 X112.369 Y126.349
G1 F1350 X126.349 Y112.369 E1.31515
G0 F7500 X126.349 Y111.804
G1 F1350 X111.804 Y126.349 E1.3683
G0 F7500 X111.238 Y126.349
G1 F1350 X126.349 Y111.238 E1.42155
G0 F7500 X126.349 Y110.672
G1 F1350 X110.672 Y126.349 E1.4748
G0 F7500 X110.107 Y126.349
G1 F1350 X126.349 Y110.107 E1.52795
G0 F7500 X126.349 Y109.541
G1 F1350 X109.541 Y126.349 E1.58119
G0 F7500 X108.975 Y126.349
G1 F1350 X126.349 Y108.975 E1.63444
G0 F7500 X126.109 Y108.649
G1 F1350 X108.65 Y126.108 E1.64244
G0 F7500 X108.65 Y125.543
G1 F1350 X125.543 Y108.649 E1.58924
G0 F7500 X124.978 Y108.649
G1 F1350 X108.65 Y124.977 E1.53604
G0 F7500 X108.65 Y124.411
G1 F1350 X124.412 Y108.649 E1.48279
G0 F7500 X123.846 Y108.649
G1 F1350 X108.65 Y123.846 E1.42959
G0 F7500 X108.65 Y123.28
