;FLAVOR:Marlin
;TIME:3115
;Filament used: 2.87293m
;Layer height: 0.2
;MINX:91.515
;MINY:91.5
;MINZ:0.2
;MAXX:143.485
;MAXY:143.5
;MAXZ:30
;Generated with Cura_SteamEngine 4.7.1
M140 S60
M105
M190 S60
M104 S220
M105
M109 S220
M82 ;absolute extrusion mode
; Ender 3 Custom Start G-code
G92 E0 ; Reset Extruder
G28 ; Home all axes
G1 Z2.0 F3000 ; Move Z Axis up little to prevent scratching of Heat Bed
G1 X0.1 Y20 Z0.3 F5000.0 ; Move to start position
G1 X0.1 Y200.0 Z0.3 F1500.0 E15 ; Draw the first line
G1 X0.4 Y200.0 Z0.3 F5000.0 ; Move to side a little
G1 X0.4 Y20 Z0.3 F1500.0 E30 ; Draw the second line
G92 E0 ; Reset Extruder
G1 Z2.0 F3000 ; Move Z Axis up little to prevent scratching of Heat Bed
G1 X5 Y20 Z0.3 F5000.0 ; Move over to prevent blob squish
M83 ;relative extrusion mode
G1 F2700 E-5
;LAYER_COUNT:150
;LAYER:0
M107
G0 F6000 X99.332 Y98.897 Z0.2
;TYPE:SKIRT
G1 F2700 E5
G1 F1200 X99.996 Y98.234 E0.03121
G1 X100.764 Y97.592 E0.03329
G1 X101.616 Y96.943 E0.03562
G1 X101.794 Y96.81 E0.00739
G1 X102.925 Y95.984 E0.04658
G1 X103.594 Y95.509 E0.02729
G1 X104.381 Y94.999 E0.03119
G1 X105.259 Y94.535 E0.03303
G1 X106.25 Y94.067 E0.03645
G1 X106.455 Y93.973 E0.0075
G1 X107.812 Y93.367 E0.04943
G1 X108.456 Y93.089 E0.02333
G1 X109.333 Y92.754 E0.03122
G1 X110.303 Y92.479 E0.03353
G1 X111.36 Y92.231 E0.03611
G1 X111.575 Y92.183 E0.00733
G1 X113.104 Y91.857 E0.052
G1 X113.702 Y91.737 E0.02029
G1 X114.628 Y91.592 E0.03117
G1 X115.644 Y91.524 E0.03387
G1 X116.733 Y91.502 E0.03623
G1 X116.955 Y91.5 E0.00738
G1 X118.361 Y91.5 E0.04676
G1 X119.156 Y91.51 E0.02644
G1 X120.092 Y91.563 E0.03118
G1 X121.079 Y91.707 E0.03318
G1 X122.155 Y91.914 E0.03644
G1 X122.379 Y91.959 E0.0076
G1 X123.753 Y92.253 E0.04673
G1 X124.532 Y92.431 E0.02658
G1 X125.437 Y92.679 E0.03121
G1 X126.367 Y93.025 E0.033
G1 X127.358 Y93.445 E0.0358
G1 X127.554 Y93.53 E0.00711
G1 X128.987 Y94.171 E0.05221
G1 X129.566 Y94.439 E0.02122
G1 X130.399 Y94.869 E0.03118
G1 X131.267 Y95.42 E0.0342
G1 X132.11 Y96.012 E0.03426
G1 X132.273 Y96.129 E0.00667
G1 X133.581 Y97.085 E0.05389
G1 X134.088 Y97.466 E0.02109
G1 X134.813 Y98.061 E0.03119
G1 X135.485 Y98.716 E0.03121
G1 X135.518 Y98.753 E0.00165
G1 X136.268 Y99.556 E0.03655
G1 X136.425 Y99.727 E0.00772
G1 X137.419 Y100.839 E0.04961
G1 X137.898 Y101.39 E0.02428
G1 X138.482 Y102.124 E0.0312
G1 X139.026 Y102.943 E0.0327
G1 X139.551 Y103.817 E0.03391
G1 X139.661 Y104.006 E0.00727
G1 X140.459 Y105.397 E0.05334
G1 X140.779 Y105.972 E0.02189
G1 X141.2 Y106.81 E0.03119
G1 X141.564 Y107.729 E0.03288
G1 X141.906 Y108.719 E0.03484
G1 X141.976 Y108.927 E0.0073
G1 X142.417 Y110.291 E0.04768
G1 X142.665 Y111.097 E0.02805
G1 X142.901 Y112.005 E0.0312
G1 X143.065 Y112.972 E0.03262
G1 X143.191 Y113.992 E0.03418
G1 X143.215 Y114.199 E0.00693
G1 X143.361 Y115.598 E0.04678
G1 X143.439 Y116.452 E0.02852
G1 X143.485 Y117.389 E0.0312
G1 X143.446 Y118.38 E0.03299
G1 X143.36 Y119.396 E0.03391
G1 X143.339 Y119.614 E0.00728
G1 X143.173 Y121.189 E0.05267
G1 X143.09 Y121.887 E0.02338
G1 X142.94 Y122.813 E0.0312
G1 X142.697 Y123.768 E0.03278
G1 X142.405 Y124.735 E0.0336
G1 X142.342 Y124.937 E0.00704
G1 X141.887 Y126.345 E0.04921
G1 X141.63 Y127.106 E0.02672
G1 X141.292 Y127.981 E0.0312
G1 X140.86 Y128.861 E0.03261
G1 X140.36 Y129.774 E0.03462
G1 X140.251 Y129.968 E0.0074
G1 X139.528 Y131.227 E0.04829
G1 X139.108 Y131.936 E0.02741
G1 X138.595 Y132.721 E0.03119
G1 X137.988 Y133.493 E0.03266
G1 X137.313 Y134.277 E0.03441
G1 X137.174 Y134.435 E0.007
G1 X136.147 Y135.582 E0.05121
G1 X135.668 Y136.103 E0.02354
G1 X135.004 Y136.766 E0.03121
G1 X134.236 Y137.408 E0.03329
G1 X133.384 Y138.057 E0.03562
G1 X133.206 Y138.19 E0.00739
G1 X132.075 Y139.016 E0.04658
G1 X131.406 Y139.491 E0.02729
G1 X130.619 Y140.001 E0.03119
G1 X129.741 Y140.465 E0.03303
G1 X128.75 Y140.933 E0.03645
G1 X128.545 Y141.027 E0.0075
G1 X127.188 Y141.633 E0.04943
G1 X126.544 Y141.911 E0.02333
G1 X125.667 Y142.246 E0.03122
G1 X124.697 Y142.521 E0.03353
G1 X123.64 Y142.769 E0.03611
G1 X123.421 Y142.818 E0.00746
G1 X121.909 Y143.14 E0.05142
G1 X121.309 Y143.261 E0.02036
G1 X120.382 Y143.407 E0.03121
G1 X119.356 Y143.476 E0.0342
G1 X118.267 Y143.498 E0.03623
G1 X118.045 Y143.5 E0.00738
G1 X116.484 Y143.499 E0.05192
G1 X115.844 Y143.49 E0.02129
G1 X114.908 Y143.437 E0.03118
G1 X113.921 Y143.293 E0.03318
G1 X112.845 Y143.086 E0.03644
G1 X112.621 Y143.041 E0.0076
G1 X111.247 Y142.747 E0.04673
G1 X110.468 Y142.569 E0.02658
G1 X109.563 Y142.321 E0.03121
G1 X108.633 Y141.975 E0.033
G1 X107.642 Y141.555 E0.0358
G1 X107.446 Y141.47 E0.00711
G1 X106.013 Y140.829 E0.05221
G1 X105.434 Y140.561 E0.02122
G1 X104.601 Y140.131 E0.03118
G1 X103.733 Y139.58 E0.0342
G1 X102.89 Y138.988 E0.03426
G1 X102.727 Y138.871 E0.00667
G1 X101.419 Y137.915 E0.05389
G1 X100.912 Y137.534 E0.02109
G1 X100.187 Y136.939 E0.03119
G1 X99.515 Y136.284 E0.03121
G1 X99.482 Y136.247 E0.00165
G1 X98.732 Y135.444 E0.03655
G1 X98.575 Y135.273 E0.00772
G1 X97.581 Y134.161 E0.04961
G1 X97.102 Y133.61 E0.02428
G1 X96.518 Y132.876 E0.0312
G1 X95.974 Y132.057 E0.0327
G1 X95.449 Y131.183 E0.03391
G1 X95.339 Y130.994 E0.00727
G1 X94.541 Y129.603 E0.05334
G1 X94.221 Y129.028 E0.02189
G1 X93.8 Y128.19 E0.03119
G1 X93.436 Y127.271 E0.03288
G1 X93.094 Y126.281 E0.03484
G1 X93.024 Y126.073 E0.0073
G1 X92.583 Y124.709 E0.04768
G1 X92.335 Y123.903 E0.02805
G1 X92.099 Y122.995 E0.0312
G1 X91.935 Y122.028 E0.03262
G1 X91.809 Y121.008 E0.03418
G1 X91.785 Y120.801 E0.00693
G1 X91.639 Y119.402 E0.04678
G1 X91.561 Y118.548 E0.02852
G1 X91.515 Y117.611 E0.0312
G1 X91.554 Y116.62 E0.03299
G1 X91.64 Y115.604 E0.03391
G1 X91.661 Y115.386 E0.00728
G1 X91.81 Y113.964 E0.04755
G1 X91.91 Y113.114 E0.02847
G1 X92.06 Y112.188 E0.0312
G1 X92.304 Y111.228 E0.03294
G1 X92.596 Y110.262 E0.03357
G1 X92.658 Y110.063 E0.00693
G1 X93.113 Y108.655 E0.04921
G1 X93.37 Y107.894 E0.02672
G1 X93.708 Y107.019 E0.0312
G1 X94.14 Y106.139 E0.03261
G1 X94.64 Y105.226 E0.03462
G1 X94.749 Y105.032 E0.0074
G1 X95.472 Y103.773 E0.04829
G1 X95.892 Y103.064 E0.02741
G1 X96.405 Y102.279 E0.03119
G1 X97.012 Y101.507 E0.03266
G1 X97.687 Y100.723 E0.03441
G1 X97.826 Y100.565 E0.007
G1 X98.853 Y99.418 E0.05121
G1 X99.332 Y98.897 E0.02354
G0 F6000 X99.627 Y99.168
G1 F1200 X100.279 Y98.518 E0.03062
G1 X101.007 Y97.91 E0.03155
G1 X101.859 Y97.261 E0.03562
G1 X102.03 Y97.133 E0.0071
G1 X103.282 Y96.22 E0.05154
G1 X103.825 Y95.835 E0.02214
G1 X104.598 Y95.336 E0.0306
G1 X105.43 Y94.897 E0.03129
G1 X106.421 Y94.429 E0.03645
G1 X106.618 Y94.338 E0.00722
G1 X107.843 Y93.79 E0.04463
G1 X108.615 Y93.456 E0.02798
G1 X109.475 Y93.128 E0.03061
G1 X110.395 Y92.868 E0.0318
G1 X111.452 Y92.62 E0.03611
G1 X111.659 Y92.574 E0.00705
G1 X113.182 Y92.249 E0.0518
G1 X113.78 Y92.129 E0.02029
G1 X114.69 Y91.987 E0.03063
G1 X115.652 Y91.924 E0.03206
G1 X116.741 Y91.902 E0.03623
G1 X116.955 Y91.9 E0.00712
G1 X118.361 Y91.9 E0.04676
G1 X119.15 Y91.91 E0.02624
G1 X120.069 Y91.963 E0.03062
G1 X121.003 Y92.1 E0.0314
G1 X122.079 Y92.307 E0.03644
G1 X122.295 Y92.351 E0.00733
G1 X123.819 Y92.678 E0.05184
G1 X124.443 Y92.821 E0.02129
G1 X125.33 Y93.065 E0.0306
G1 X126.211 Y93.393 E0.03127
G1 X127.202 Y93.813 E0.0358
G1 X127.391 Y93.896 E0.00687
G1 X128.819 Y94.534 E0.05202
G1 X129.398 Y94.802 E0.02122
G1 X130.215 Y95.225 E0.0306
G1 X131.037 Y95.747 E0.03239
G1 X131.88 Y96.339 E0.03426
G1 X132.038 Y96.452 E0.00646
G1 X133.223 Y97.317 E0.0488
G1 X133.848 Y97.786 E0.02599
G1 X134.559 Y98.371 E0.03062
G1 X135.217 Y99.015 E0.03062
G1 X135.976 Y99.829 E0.03702
G1 X136.127 Y99.994 E0.00744
G1 X137.015 Y100.986 E0.04428
G1 X137.596 Y101.653 E0.02942
G1 X138.169 Y102.373 E0.03061
G1 X138.683 Y103.149 E0.03096
G1 X139.208 Y104.023 E0.03391
G1 X139.315 Y104.205 E0.00702
G1 X140.041 Y105.47 E0.04851
G1 X140.429 Y106.166 E0.0265
G1 X140.842 Y106.989 E0.03063
G1 X141.186 Y107.86 E0.03115
G1 X141.528 Y108.85 E0.03484
G1 X141.595 Y109.05 E0.00702
G1 X142.085 Y110.569 E0.05309
G1 X142.283 Y111.215 E0.02247
G1 X142.514 Y112.106 E0.03061
G1 X142.668 Y113.021 E0.03086
G1 X142.794 Y114.041 E0.03418
G1 X142.817 Y114.241 E0.0067
G1 X142.963 Y115.64 E0.04678
G1 X143.041 Y116.488 E0.02832
G1 X143.085 Y117.408 E0.03063
G1 X143.047 Y118.346 E0.03122
G1 X142.961 Y119.362 E0.03391
G1 X142.941 Y119.573 E0.00705
G1 X142.776 Y121.142 E0.05247
G1 X142.693 Y121.84 E0.02338
G1 X142.545 Y122.748 E0.0306
G1 X142.314 Y123.652 E0.03103
G1 X142.022 Y124.619 E0.0336
G1 X141.961 Y124.814 E0.0068
G1 X141.46 Y126.364 E0.05418
G1 X141.252 Y126.978 E0.02156
G1 X140.919 Y127.836 E0.03061
G1 X140.509 Y128.669 E0.03088
G1 X140.009 Y129.582 E0.03462
G1 X139.904 Y129.769 E0.00713
G1 X139.181 Y131.028 E0.04829
G1 X138.764 Y131.732 E0.02721
G1 X138.26 Y132.502 E0.03061
G1 X137.685 Y133.232 E0.03091
G1 X137.01 Y134.016 E0.03441
G1 X136.876 Y134.169 E0.00676
G1 X135.948 Y135.206 E0.04628
G1 X135.373 Y135.832 E0.02827
G1 X134.721 Y136.482 E0.03062
G1 X133.993 Y137.09 E0.03155
G1 X133.141 Y137.739 E0.03562
G1 X132.97 Y137.867 E0.0071
G1 X131.718 Y138.78 E0.05154
G1 X131.175 Y139.165 E0.02214
G1 X130.402 Y139.664 E0.0306
G1 X129.57 Y140.103 E0.03129
G1 X128.579 Y140.571 E0.03645
G1 X128.382 Y140.662 E0.00722
G1 X127.157 Y141.21 E0.04463
G1 X126.385 Y141.544 E0.02798
G1 X125.525 Y141.872 E0.03061
G1 X124.605 Y142.132 E0.0318
G1 X123.548 Y142.38 E0.03611
G1 X123.337 Y142.427 E0.00719
G1 X121.829 Y142.748 E0.05128
G1 X121.229 Y142.869 E0.02036
G1 X120.32 Y143.011 E0.0306
G1 X119.348 Y143.076 E0.0324
G1 X118.259 Y143.098 E0.03623
G1 X118.045 Y143.1 E0.00712
G1 X116.49 Y143.099 E0.05172
G1 X115.85 Y143.09 E0.02129
G1 X114.931 Y143.037 E0.03062
G1 X113.997 Y142.9 E0.0314
G1 X112.921 Y142.693 E0.03644
G1 X112.705 Y142.649 E0.00733
G1 X111.181 Y142.322 E0.05184
G1 X110.557 Y142.179 E0.02129
G1 X109.67 Y141.935 E0.0306
G1 X108.789 Y141.607 E0.03127
G1 X107.798 Y141.187 E0.0358
G1 X107.609 Y141.104 E0.00687
G1 X106.181 Y140.466 E0.05202
G1 X105.602 Y140.198 E0.02122
G1 X104.785 Y139.775 E0.0306
G1 X103.963 Y139.253 E0.03239
G1 X103.12 Y138.661 E0.03426
G1 X102.962 Y138.548 E0.00646
G1 X101.777 Y137.683 E0.0488
G1 X101.152 Y137.214 E0.02599
G1 X100.441 Y136.629 E0.03062
G1 X99.783 Y135.985 E0.03062
G1 X99.024 Y135.171 E0.03702
G1 X98.873 Y135.006 E0.00744
G1 X97.985 Y134.014 E0.04428
G1 X97.404 Y133.347 E0.02942
G1 X96.831 Y132.627 E0.03061
G1 X96.317 Y131.851 E0.03096
G1 X95.792 Y130.977 E0.03391
G1 X95.685 Y130.795 E0.00702
G1 X94.959 Y129.53 E0.04851
G1 X94.571 Y128.834 E0.0265
G1 X94.158 Y128.011 E0.03063
G1 X93.814 Y127.14 E0.03115
G1 X93.472 Y126.15 E0.03484
G1 X93.405 Y125.95 E0.00702
G1 X92.915 Y124.431 E0.05309
G1 X92.717 Y123.785 E0.02247
G1 X92.486 Y122.894 E0.03061
G1 X92.332 Y121.979 E0.03086
G1 X92.206 Y120.959 E0.03418
G1 X92.183 Y120.759 E0.0067
G1 X92.037 Y119.36 E0.04678
G1 X91.959 Y118.512 E0.02832
G1 X91.915 Y117.592 E0.03063
G1 X91.953 Y116.654 E0.03122
G1 X92.039 Y115.638 E0.03391
G1 X92.059 Y115.427 E0.00705
G1 X92.224 Y113.86 E0.05241
G1 X92.307 Y113.161 E0.02341
G1 X92.455 Y112.252 E0.03063
G1 X92.686 Y111.344 E0.03116
G1 X92.978 Y110.378 E0.03357
G1 X93.54 Y108.636 E0.06088
G1 X93.748 Y108.022 E0.02156
G1 X94.081 Y107.164 E0.03061
G1 X94.491 Y106.331 E0.03088
G1 X94.991 Y105.418 E0.03462
G1 X95.096 Y105.231 E0.00713
G1 X95.819 Y103.972 E0.04829
G1 X96.236 Y103.268 E0.02721
G1 X96.74 Y102.498 E0.03061
G1 X97.315 Y101.768 E0.03091
G1 X97.99 Y100.984 E0.03441
G1 X98.124 Y100.831 E0.00676
G1 X99.052 Y99.794 E0.04628
G1 X99.627 Y99.168 E0.02827
G0 F6000 X99.921 Y99.439
G1 F1200 X100.561 Y98.801 E0.03006
G1 X101.249 Y98.228 E0.02978
G1 X102.101 Y97.579 E0.03562
G1 X102.266 Y97.456 E0.00684
G1 X103.513 Y96.546 E0.05134
G1 X104.056 Y96.161 E0.02214
G1 X104.816 Y95.672 E0.03006
G1 X105.6 Y95.259 E0.02947
G1 X106.591 Y94.791 E0.03645
G1 X106.782 Y94.703 E0.00699
G1 X108.129 Y94.101 E0.04907
G1 X108.773 Y93.823 E0.02333
G1 X109.618 Y93.502 E0.03006
G1 X110.486 Y93.258 E0.02999
G1 X111.543 Y93.01 E0.03611
G1 X111.742 Y92.965 E0.00679
G1 X113.261 Y92.641 E0.05166
G1 X113.859 Y92.521 E0.02029
G1 X114.752 Y92.383 E0.03005
G1 X115.66 Y92.324 E0.03026
G1 X116.749 Y92.302 E0.03623
G1 X116.955 Y92.3 E0.00685
G1 X118.361 Y92.3 E0.04676
G1 X119.144 Y92.31 E0.02604
G1 X120.046 Y92.363 E0.03005
G1 X120.928 Y92.493 E0.02965
G1 X122.004 Y92.7 E0.03644
G1 X122.211 Y92.742 E0.00703
G1 X123.585 Y93.036 E0.04673
G1 X124.353 Y93.211 E0.0262
G1 X125.224 Y93.451 E0.03005
G1 X126.055 Y93.762 E0.02951
G1 X127.046 Y94.182 E0.0358
G1 X127.228 Y94.261 E0.0066
G1 X128.651 Y94.897 E0.05184
G1 X129.23 Y95.165 E0.02122
G1 X130.032 Y95.581 E0.03005
G1 X130.807 Y96.075 E0.03057
G1 X131.802 Y96.775 E0.04046
G1 X132.987 Y97.64 E0.0488
G1 X133.608 Y98.106 E0.02582
G1 X134.305 Y98.68 E0.03003
G1 X134.949 Y99.313 E0.03003
G1 X134.979 Y99.348 E0.00153
G1 X135.683 Y100.102 E0.03431
G1 X135.829 Y100.261 E0.00718
G1 X136.815 Y101.364 E0.04921
G1 X137.294 Y101.915 E0.02428
G1 X137.856 Y102.622 E0.03004
G1 X138.34 Y103.355 E0.02921
G1 X138.865 Y104.229 E0.03391
G1 X138.968 Y104.404 E0.00675
G1 X139.76 Y105.786 E0.05298
G1 X140.08 Y106.361 E0.02189
G1 X140.484 Y107.169 E0.03005
G1 X140.808 Y107.99 E0.02936
G1 X141.15 Y108.98 E0.03484
G1 X141.214 Y109.173 E0.00676
G1 X141.655 Y110.537 E0.04768
G1 X141.702 Y110.686 E0.0052
G1 X141.9 Y111.332 E0.02247
G1 X142.126 Y112.206 E0.03003
G1 X142.271 Y113.071 E0.02917
G1 X142.397 Y114.091 E0.03418
G1 X142.419 Y114.282 E0.00639
G1 X142.578 Y115.813 E0.0512
G1 X142.643 Y116.525 E0.02378
G1 X142.685 Y117.427 E0.03003
G1 X142.649 Y118.312 E0.02946
G1 X142.563 Y119.328 E0.03391
G1 X142.543 Y119.531 E0.00678
G1 X142.379 Y121.094 E0.05227
G1 X142.296 Y121.792 E0.02338
G1 X142.149 Y122.684 E0.03007
G1 X141.932 Y123.537 E0.02927
G1 X141.64 Y124.504 E0.0336
G1 X141.581 Y124.691 E0.00652
G1 X141.081 Y126.236 E0.05401
G1 X140.873 Y126.85 E0.02156
G1 X140.545 Y127.691 E0.03002
G1 X140.158 Y128.476 E0.02911
G1 X139.658 Y129.389 E0.03462
G1 X139.557 Y129.57 E0.00689
G1 X138.834 Y130.829 E0.04829
G1 X138.42 Y131.527 E0.02699
G1 X137.925 Y132.283 E0.03006
G1 X137.382 Y132.971 E0.02915
G1 X136.707 Y133.755 E0.03441
G1 X136.578 Y133.902 E0.0065
G1 X135.65 Y134.939 E0.04628
G1 X135.079 Y135.561 E0.02808
G1 X134.439 Y136.199 E0.03006
G1 X133.751 Y136.772 E0.02978
G1 X132.899 Y137.421 E0.03562
G1 X132.734 Y137.544 E0.00684
G1 X131.487 Y138.454 E0.05134
G1 X130.944 Y138.839 E0.02214
G1 X130.184 Y139.328 E0.03006
G1 X129.4 Y139.741 E0.02947
G1 X128.409 Y140.209 E0.03645
G1 X128.218 Y140.297 E0.00699
G1 X126.871 Y140.899 E0.04907
G1 X126.227 Y141.177 E0.02333
G1 X125.382 Y141.498 E0.03006
G1 X124.514 Y141.742 E0.02999
G1 X123.457 Y141.99 E0.03611
G1 X123.254 Y142.036 E0.00692
G1 X121.75 Y142.356 E0.05114
G1 X121.15 Y142.477 E0.02036
G1 X120.258 Y142.616 E0.03003
G1 X119.34 Y142.676 E0.0306
G1 X118.251 Y142.698 E0.03623
G1 X118.045 Y142.7 E0.00685
G1 X116.496 Y142.699 E0.05152
G1 X115.856 Y142.69 E0.02129
G1 X114.954 Y142.637 E0.03005
G1 X114.072 Y142.507 E0.02965
G1 X112.996 Y142.3 E0.03644
G1 X112.789 Y142.258 E0.00703
G1 X111.415 Y141.964 E0.04673
G1 X110.647 Y141.789 E0.0262
G1 X109.776 Y141.549 E0.03005
G1 X108.945 Y141.238 E0.02951
G1 X107.954 Y140.818 E0.0358
G1 X107.772 Y140.739 E0.0066
G1 X106.349 Y140.103 E0.05184
G1 X105.77 Y139.835 E0.02122
G1 X104.968 Y139.419 E0.03005
G1 X104.193 Y138.925 E0.03057
G1 X103.198 Y138.225 E0.04046
G1 X102.013 Y137.36 E0.0488
G1 X101.392 Y136.894 E0.02582
G1 X100.695 Y136.32 E0.03003
G1 X100.051 Y135.687 E0.03003
G1 X100.021 Y135.652 E0.00153
G1 X99.317 Y134.898 E0.03431
G1 X99.171 Y134.739 E0.00718
G1 X98.185 Y133.636 E0.04921
G1 X97.706 Y133.085 E0.02428
G1 X97.144 Y132.378 E0.03004
G1 X96.66 Y131.645 E0.02921
G1 X96.135 Y130.771 E0.03391
G1 X96.032 Y130.596 E0.00675
G1 X95.24 Y129.214 E0.05298
G1 X94.92 Y128.639 E0.02189
G1 X94.516 Y127.831 E0.03005
G1 X94.192 Y127.01 E0.02936
G1 X93.85 Y126.02 E0.03484
G1 X93.786 Y125.827 E0.00676
G1 X93.345 Y124.463 E0.04768
G1 X93.298 Y124.314 E0.0052
G1 X93.1 Y123.668 E0.02247
G1 X92.874 Y122.794 E0.03003
G1 X92.729 Y121.929 E0.02917
G1 X92.603 Y120.909 E0.03418
G1 X92.581 Y120.718 E0.00639
