;FLAVOR:Marlin
;TIME:1169
;Filament used: 0.678566m
;Layer height: 0.2
;MINX:97.217
;MINY:97.417
;MINZ:0.2
;MAXX:137.794
;MAXY:137.584
;MAXZ:3
;Generated with Cura_SteamEngine 4.8.0
M140 S60
M105
M190 S60
M104 S210
M105
M109 S210
M82 ;absolute extrusion mode
; Ender 3 Custom Start G-code
G92 E0 ; Reset Extruder
G28 ; Home all axes
G1 Z2.0 F3000 ; Move Z Axis up little to prevent scratching of Heat Bed
G1 X0.1 Y20 Z0.3 F5000.0 ; Move to start position
G1 X0.1 Y200.0 Z0.3 F1500.0 E15 ; Draw the first line
G1 X0.4 Y200.0 Z0.3 F5000.0 ; Move to side a little
G1 X0.4 Y20 Z0.3 F1500.0 E30 ; Draw the second line
G92 E0 ; Reset Extruder
G1 Z2.0 F3000 ; Move Z Axis up little to prevent scratching of Heat Bed
G1 X5 Y20 Z0.3 F5000.0 ; Move over to prevent blob squish
M83 ;relative extrusion mode
G1 F2700 E-5
;LAYER_COUNT:15
;LAYER:0
M107
M205 X8 Y8
;MESH:Flexy_Flip_Flop_-_Left_Type_2.stl
G0 F6000 X133.169 Y108.508 Z0.2
;TYPE:WALL-INNER
G1 F2700 E5
G1 F1200 X133.136 Y108.675 E0.00566
G1 X133.385 Y109.196 E0.01921
G1 X133.852 Y109.453 E0.01773
G1 X133.82 Y109.619 E0.00562
G1 X134.07 Y110.141 E0.01925
G1 X134.537 Y110.393 E0.01765
G1 X134.504 Y110.56 E0.00566
G1 X134.753 Y111.081 E0.01921
G1 X135.233 Y111.345 E0.01822
G1 X135.201 Y111.518 E0.00585
G1 X135.446 Y112.037 E0.01909
G1 X135.951 Y112.312 E0.01913
G1 X136.227 Y112.278 E0.00925
G1 X136.191 Y112.389
G1 X135.992 Y113.003 E0.02147
G1 X135.837 Y113.577 E0.01978
G1 X135.787 Y113.749 E0.00596
G1 X135.612 Y114.504 E0.02578
G1 X135.469 Y115.263 E0.02569
G1 X135.358 Y116.028 E0.02571
G1 X135.279 Y116.797 E0.02571
G1 X135.231 Y117.568 E0.02569
G1 X135.216 Y118.34 E0.02568
G1 X135.231 Y119.112 E0.02568
G1 X135.252 Y119.428 E0.01053
G1 X135.281 Y119.885 E0.01523
G1 X135.307 Y120.134 E0.00833
G1 X135.328 Y120.332 E0.00662
G1 X135.226 Y120.143 E0.00106
G1 X135.128 Y119.977 E0.00153
G1 X134.894 Y119.584 E0.01112
G1 X134.835 Y119.485 E0.00383
G1 X134.421 Y118.843 E0.02541
G1 X134.066 Y118.326 E0.02086
G1 X133.696 Y117.819 E0.02088
G1 X133.316 Y117.324 E0.02076
G1 X133.004 Y116.933 E0.01664
G1 X133.213 Y116.517 E0.01548
G1 X133.393 Y116.121 E0.01447
G1 X133.553 Y115.738 E0.01381
G1 X133.704 Y115.297 E0.0155
G1 X133.807 Y114.929 E0.01271
G1 X133.869 Y114.649 E0.00954
G1 X133.924 Y114.293 E0.01198
G1 X133.949 Y113.922 E0.01237
G1 X133.942 Y113.554 E0.01224
G1 X133.892 Y113.193 E0.01212
G1 X133.8 Y112.845 E0.01197
G1 X133.612 Y112.426 E0.01527
G1 X133.312 Y112.016 E0.0169
G1 X133.044 Y111.763 E0.01226
G1 X132.651 Y111.506 E0.01562
G1 X132.319 Y111.354 E0.01214
G1 X132.002 Y111.25 E0.0111
G1 X131.668 Y111.174 E0.01139
G1 X131.329 Y111.127 E0.01138
G1 X131.259 Y111.12 E0.00234
G1 X130.921 Y111.1 E0.01126
G1 X130.813 Y111.099 E0.00359
G1 X130.509 Y111.103 E0.01011
G1 X130.095 Y111.132 E0.0138
G1 X129.979 Y111.144 E0.00388
G1 X129.649 Y111.187 E0.01107
G1 X129.532 Y111.206 E0.00394
G1 X129.119 Y111.282 E0.01397
G1 X128.804 Y111.351 E0.01073
G1 X128.411 Y111.451 E0.01349
G1 X128.159 Y111.519 E0.00868
G1 X127.521 Y111.712 E0.02217
G1 X125.511 Y110.222 E0.08322
G1 X125.292 Y110.056 E0.00914
G1 X125.19 Y109.979 E0.00425
G1 X125.09 Y109.903 E0.00418
G1 X125.036 Y109.862 E0.00226
G1 X124.809 Y109.685 E0.00957
G1 X124.628 Y109.545 E0.00761
G1 X124.868 Y109.608 E0.00143
G1 X125.079 Y109.652 E0.00218
G1 X125.252 Y109.688 E0.0043
G1 X125.391 Y109.713 E0.00364
G1 X125.517 Y109.731 E0.00389
G1 X125.775 Y109.769 E0.00867
G1 X125.918 Y109.787 E0.00479
G1 X126.307 Y109.82 E0.01298
G1 X126.45 Y109.828 E0.00476
G1 X126.838 Y109.836 E0.01291
G1 X126.979 Y109.836 E0.00469
G1 X127.373 Y109.821 E0.01311
G1 X127.515 Y109.81 E0.00474
G1 X127.903 Y109.772 E0.01297
G1 X128.045 Y109.752 E0.00477
G1 X128.427 Y109.69 E0.01287
G1 X128.567 Y109.662 E0.00475
G1 X128.948 Y109.576 E0.01299
G1 X129.086 Y109.539 E0.00475
G1 X129.461 Y109.429 E0.013
G1 X129.596 Y109.384 E0.00473
G1 X129.961 Y109.251 E0.01292
G1 X130.094 Y109.199 E0.00475
G1 X130.453 Y109.042 E0.01303
G1 X130.581 Y108.981 E0.00472
G1 X130.928 Y108.804 E0.01296
G1 X131.053 Y108.735 E0.00475
G1 X131.452 Y108.498 E0.01544
G1 X131.885 Y108.203 E0.01743
G1 X132.28 Y107.917 E0.01622
G1 X132.473 Y107.777 E0.00793
G1 X132.575 Y107.992 E0.00486
G1 X132.576 Y107.993 E0.00005
G1 X132.702 Y108.256 E0.0097
G1 X133.169 Y108.508 E0.01765
G0 F6000 X133.283 Y108.115
;TYPE:WALL-OUTER
G1 F1200 X133.595 Y108.076 E0.01046
G1 X133.825 Y107.858 E0.01054
G1 X133.882 Y107.549 E0.01045
G1 X133.748 Y107.265 E0.01044
G1 X133.471 Y107.113 E0.01051
G1 X133.158 Y107.154 E0.0105
G1 X132.93 Y107.37 E0.01045
G1 X132.87 Y107.68 E0.0105
G1 X133.007 Y107.966 E0.01055
G1 X133.283 Y108.115 E0.01043
G0 F6000 X133.123 Y108.532
G0 X133.967 Y109.059
G1 F1200 X134.279 Y109.018 E0.01047
G1 X134.509 Y108.802 E0.01049
G1 X134.566 Y108.492 E0.01048
G1 X134.432 Y108.207 E0.01047
G1 X134.155 Y108.055 E0.01051
G1 X133.843 Y108.096 E0.01047
G1 X133.614 Y108.312 E0.01047
G1 X133.554 Y108.622 E0.0105
G1 X133.69 Y108.907 E0.0105
G1 X133.967 Y109.059 E0.01051
G0 F6000 X133.807 Y109.476
G0 X134.651 Y110
G1 F1200 X134.963 Y109.961 E0.01046
G1 X135.192 Y109.744 E0.01049
G1 X135.252 Y109.434 E0.0105
G1 X135.115 Y109.149 E0.01052
G1 X134.839 Y108.999 E0.01045
G1 X134.527 Y109.038 E0.01046
G1 X134.298 Y109.255 E0.01049
G1 X134.238 Y109.565 E0.0105
G1 X134.375 Y109.851 E0.01055
G1 X134.651 Y110 E0.01043
G0 F6000 X134.491 Y110.417
G0 X135.335 Y110.944
G1 F1200 X135.647 Y110.903 E0.01047
G1 X135.876 Y110.687 E0.01047
G1 X135.936 Y110.377 E0.0105
G1 X135.8 Y110.092 E0.0105
G1 X135.523 Y109.94 E0.01051
G1 X135.211 Y109.981 E0.01047
G1 X134.982 Y110.197 E0.01047
G1 X134.922 Y110.507 E0.0105
G1 X135.058 Y110.792 E0.0105
G1 X135.335 Y110.944 E0.01051
G0 F6000 X135.19 Y111.364
G0 X136.029 Y111.899
G1 F1200 X136.342 Y111.86 E0.01049
G1 X136.57 Y111.642 E0.01049
G1 X136.63 Y111.333 E0.01047
G1 X136.494 Y111.049 E0.01047
G1 X136.219 Y110.898 E0.01043
G1 X135.905 Y110.937 E0.01052
G1 X135.675 Y111.155 E0.01054
G1 X135.618 Y111.464 E0.01045
G1 X135.752 Y111.748 E0.01044
G1 X136.029 Y111.899 E0.01049
G0 F6000 X135.947 Y112.331
G1 F2700 E-5
G0 F6000 X135.051 Y119.456
G0 X132.652 Y116.825
G0 X132.581 Y116.883
G1 F2700 E5
G1 F1200 X132.852 Y116.344 E0.02007
G1 X133.026 Y115.961 E0.01399
G1 X133.179 Y115.596 E0.01316
G1 X133.322 Y115.178 E0.01469
G1 X133.419 Y114.832 E0.01195
G1 X133.476 Y114.575 E0.00876
G1 X133.526 Y114.249 E0.01097
G1 X133.549 Y113.912 E0.01123
G1 X133.543 Y113.586 E0.01084
G1 X133.499 Y113.272 E0.01055
G1 X133.422 Y112.979 E0.01008
G1 X133.264 Y112.628 E0.0128
G1 X133.011 Y112.282 E0.01426
G1 X132.795 Y112.078 E0.00988
G1 X132.457 Y111.857 E0.01343
G1 X132.173 Y111.727 E0.01039
G1 X131.895 Y111.636 E0.00973
G1 X131.596 Y111.568 E0.0102
G1 X131.283 Y111.524 E0.01051
G1 X131.229 Y111.519 E0.0018
G1 X130.907 Y111.5 E0.01073
G1 X130.814 Y111.499 E0.00309
G1 X130.526 Y111.503 E0.00958
G1 X130.128 Y111.531 E0.01327
G1 X130.025 Y111.541 E0.00344
G1 X129.707 Y111.583 E0.01067
G1 X129.6 Y111.6 E0.0036
G1 X129.198 Y111.674 E0.0136
G1 X128.896 Y111.74 E0.01028
G1 X128.513 Y111.838 E0.01315
G1 X128.269 Y111.904 E0.00841
G1 X127.817 Y112.041 E0.01571
G1 X127.772 Y112.278 E0.00802
G1 X128.586 Y112.928 E0.03465
G1 X129.276 Y113.515 E0.03013
G1 X129.859 Y114.036 E0.02601
G1 X130.409 Y114.558 E0.02522
G1 X130.934 Y115.078 E0.02458
G1 X131.452 Y115.617 E0.02486
G1 X131.918 Y116.126 E0.02295
G1 X132.581 Y116.883 E0.03347
G0 F6000 X133.081 Y116.966
G1 F2700 E-5
G0 F6000 X131.675 Y116.275
G0 X132.362 Y115.356
G0 X115.812 Y124.553
G0 X116.845 Y124.018
G0 X115.374 Y122.236
G0 X114.709 Y121.132
G0 X111.655 Y117.787
G0 X110.287 Y116.574
G0 X109.983 Y116.373
G0 X110.58 Y121.392
G0 X107.951 Y125.764
G0 X100.143 Y131.476
G0 X100.281 Y132.314
;TYPE:WALL-INNER
G1 F2700 E5
G1 F1200 X100.308 Y132.165 E0.00504
G1 X100.063 Y131.647 E0.01906
G1 X99.791 Y131.497 E0.01033
G1 X99.897 Y131.42 E0.00022
G1 X107.447 Y125.94 E0.31029
G1 X107.841 Y125.633 E0.01661
G1 X108.219 Y125.296 E0.01684
G1 X108.576 Y124.932 E0.01696
G1 X108.906 Y124.546 E0.01689
G1 X109.211 Y124.14 E0.01689
G1 X109.489 Y123.712 E0.01697
G1 X109.735 Y123.268 E0.01688
G1 X109.952 Y122.81 E0.01686
G1 X110.139 Y122.336 E0.01695
G1 X110.292 Y121.851 E0.01691
G1 X110.413 Y121.357 E0.01692
G1 X110.5 Y120.858 E0.01685
G1 X110.556 Y120.353 E0.0169
G1 X110.575 Y119.845 E0.01691
G1 X110.567 Y119.47 E0.01248
G1 X110.561 Y119.333 E0.00456
G1 X110.528 Y118.963 E0.01236
G1 X110.512 Y118.824 E0.00465
G1 X110.433 Y118.327 E0.01674
G1 X110.318 Y117.835 E0.01681
G1 X110.211 Y117.476 E0.01246
G1 X110.169 Y117.342 E0.00467
G1 X109.991 Y116.871 E0.01675
G1 X109.816 Y116.489 E0.01398
G1 X109.779 Y116.409 E0.00293
G1 X109.68 Y116.224 E0.00698
G1 X109.539 Y115.96 E0.00995
G1 X109.499 Y115.897 E0.00248
G1 X109.336 Y115.639 E0.01015
G1 X109.602 Y115.831 E0.00216
G1 X109.623 Y115.846
G1 X109.941 Y116.084 E0.00809
G1 X109.999 Y116.129 E0.00159
G1 X110.068 Y116.184 E0.00278
G1 X110.396 Y116.443 E0.0139
G1 X110.854 Y116.823 E0.01979
G1 X111.274 Y117.193 E0.01862
G1 X111.778 Y117.668 E0.02303
G1 X112.275 Y118.173 E0.02357
G1 X112.731 Y118.672 E0.02248
G1 X113.177 Y119.201 E0.02301
G1 X113.607 Y119.75 E0.02319
G1 X114.005 Y120.299 E0.02255
G1 X114.379 Y120.854 E0.02226
G1 X114.465 Y120.991 E0.00538
G1 X114.145 Y121.384 E0.01686
G1 X113.817 Y121.804 E0.01772
G1 X113.626 Y122.058 E0.01057
G1 X113.382 Y122.394 E0.01381
G1 X113.029 Y122.914 E0.0209
G1 X112.755 Y123.349 E0.0171
G1 X112.505 Y123.777 E0.01649
G1 X112.302 Y124.154 E0.01424
G1 X112.234 Y124.287 E0.00497
G1 X112.005 Y124.776 E0.01796
G1 X111.811 Y125.256 E0.01722
G1 X111.692 Y125.62 E0.01274
G1 X111.61 Y125.9 E0.0097
G1 X111.544 Y126.18 E0.00957
G1 X111.48 Y126.546 E0.01236
G1 X111.449 Y126.905 E0.01198
G1 X111.448 Y127.252 E0.01154
G1 X111.482 Y127.589 E0.01127
G1 X111.555 Y127.929 E0.01157
G1 X111.75 Y128.412 E0.01732
G1 X111.957 Y128.738 E0.01284
G1 X112.298 Y129.091 E0.01632
G1 X112.603 Y129.316 E0.01261
G1 X113.02 Y129.524 E0.0155
G1 X113.331 Y129.637 E0.01101
G1 X113.704 Y129.724 E0.01274
G1 X114.038 Y129.774 E0.01123
G1 X114.342 Y129.799 E0.01015
G1 X114.459 Y129.802 E0.00389
G1 X114.774 Y129.804 E0.01048
G1 X114.896 Y129.8 E0.00406
G1 X115.229 Y129.779 E0.0111
G1 X115.354 Y129.767 E0.00418
G1 X115.708 Y129.723 E0.01186
G1 X116.201 Y129.639 E0.01663
G1 X116.709 Y129.525 E0.01732
G1 X117.113 Y129.421 E0.01388
G1 X117.365 Y129.347 E0.00874
G1 X117.792 Y129.214 E0.01488
G1 X118.233 Y129.061 E0.01553
G1 X118.854 Y128.825 E0.0221
G1 X119.184 Y129.327 E0.01998
G1 X119.665 Y130.011 E0.02781
G1 X120.17 Y130.682 E0.02793
G1 X120.695 Y131.337 E0.02792
G1 X121.235 Y131.968 E0.02762
G1 X121.794 Y132.585 E0.02769
G1 X122.373 Y133.185 E0.02773
G1 X122.761 Y133.562 E0.01799
G1 X122.97 Y133.766 E0.00971
G1 X123.19 Y133.965 E0.00987
G1 X123.452 Y134.201 E0.01173
G1 X123.09 Y134.077 E0.00299
G1 X122.892 Y134.015 E0.00291
G1 X122.613 Y133.927 E0.00808
G1 X122.449 Y133.875 E0.00572
G1 X122.226 Y133.809 E0.00774
G1 X121.578 Y133.632 E0.02234
G1 X121.353 Y133.573 E0.00774
G1 X120.699 Y133.417 E0.02236
G1 X120.472 Y133.367 E0.00773
G1 X119.812 Y133.235 E0.02239
G1 X119.584 Y133.193 E0.00771
G1 X118.92 Y133.084 E0.02238
G1 X118.691 Y133.05 E0.0077
G1 X118.023 Y132.964 E0.0224
G1 X117.791 Y132.938 E0.00776
G1 X117.123 Y132.877 E0.02231
G1 X116.891 Y132.859 E0.00774
G1 X116.22 Y132.821 E0.02235
G1 X115.989 Y132.811 E0.00769
G1 X115.316 Y132.797 E0.02239
G1 X115.085 Y132.795 E0.00768
G1 X114.409 Y132.804 E0.02249
G1 X114.178 Y132.811 E0.00769
G1 X113.505 Y132.844 E0.02241
G1 X113.274 Y132.86 E0.0077
G1 X112.606 Y132.917 E0.0223
G1 X112.374 Y132.939 E0.00775
G1 X111.704 Y133.02 E0.02245
G1 X111.475 Y133.052 E0.00769
G1 X110.81 Y133.156 E0.02239
G1 X110.582 Y133.196 E0.0077
G1 X109.922 Y133.324 E0.02236
G1 X109.694 Y133.371 E0.00774
G1 X109.038 Y133.522 E0.02239
G1 X108.814 Y133.578 E0.00768
G1 X108.164 Y133.75 E0.02236
G1 X107.939 Y133.814 E0.00778
G1 X107.297 Y134.011 E0.02234
G1 X107.076 Y134.083 E0.00773
G1 X106.439 Y134.302 E0.0224
G1 X106.222 Y134.381 E0.00768
G1 X105.595 Y134.623 E0.02235
G1 X105.379 Y134.709 E0.00773
G1 X104.76 Y134.973 E0.02238
G1 X104.547 Y135.068 E0.00776
G1 X103.82 Y135.41 E0.02672
G1 X103.161 Y135.748 E0.02463
G1 X103.011 Y135.825 E0.00561
G1 X102.974 Y135.845 E0.0014
G1 X102.934 Y135.868 E0.00153
G1 X102.944 Y135.813 E0.00039
G1 X102.947 Y135.798
G1 X102.874 Y135.646 E0.00561
G1 X102.699 Y135.28 E0.01349
G1 X102.269 Y135.044 E0.01631
G1 X102.295 Y134.903 E0.00477
G1 X102.051 Y134.384 E0.01907
G1 X101.606 Y134.139 E0.0169
G1 X101.634 Y133.989 E0.00508
G1 X101.386 Y133.471 E0.0191
G1 X100.944 Y133.228 E0.01678
G1 X100.973 Y133.079 E0.00505
G1 X100.725 Y132.559 E0.01916
G1 X100.281 Y132.314 E0.01687
G0 F6000 X99.604 Y132.746
;TYPE:WALL-OUTER
G1 F1200 X99.834 Y132.528 E0.01054
G1 X99.891 Y132.219 E0.01045
G1 X99.757 Y131.935 E0.01044
G1 X99.48 Y131.783 E0.01051
G1 X99.167 Y131.824 E0.0105
G1 X98.939 Y132.04 E0.01045
G1 X98.879 Y132.35 E0.0105
G1 X99.015 Y132.636 E0.01053
G1 X99.291 Y132.785 E0.01043
G1 X99.604 Y132.746 E0.01049
G0 F6000 X99.469 Y132.893
G0 X99.399 Y133.279
G0 X99.571 Y133.646
G0 X99.859 Y133.802
G0 X100.135 Y133.806
G0 X100.267 Y133.658
G1 F1200 X100.495 Y133.442 E0.01045
G1 X100.555 Y133.132 E0.0105
G1 X100.419 Y132.847 E0.0105
G1 X100.143 Y132.695 E0.01048
G1 X99.83 Y132.736 E0.0105
G1 X99.6 Y132.952 E0.01049
G1 X99.543 Y133.262 E0.01048
G1 X99.677 Y133.547 E0.01047
G1 X99.954 Y133.699 E0.01051
G1 X100.267 Y133.658 E0.0105
G0 F6000 X100.135 Y133.806
G0 X100.061 Y134.194
G0 X100.234 Y134.559
G0 X100.521 Y134.714
G0 X100.794 Y134.718
G0 X100.929 Y134.571
G1 F1200 X101.159 Y134.353 E0.01054
G1 X101.217 Y134.044 E0.01046
G1 X101.081 Y133.76 E0.01047
G1 X100.806 Y133.609 E0.01043
G1 X100.492 Y133.648 E0.01052
G1 X100.262 Y133.866 E0.01054
G1 X100.205 Y134.175 E0.01045
G1 X100.339 Y134.459 E0.01044
G1 X100.616 Y134.61 E0.01049
G1 X100.929 Y134.571 E0.01049
G0 F6000 X100.794 Y134.718
G0 X100.723 Y135.104
G0 X100.861 Y135.401
G0 X101.181 Y135.698
G0 X101.278 Y135.524
G1 F1200 X101.591 Y135.483 E0.0105
G1 X101.821 Y135.267 E0.01049
G1 X101.878 Y134.957 E0.01048
G1 X101.744 Y134.672 E0.01047
G1 X101.467 Y134.52 E0.01051
G1 X101.154 Y134.561 E0.0105
G1 X100.924 Y134.777 E0.01049
G1 X100.867 Y135.087 E0.01048
G1 X101.001 Y135.372 E0.01047
G1 X101.278 Y135.524 E0.01051
G0 F6000 X101.181 Y135.698
G0 X101.547 Y136.369
G0 X101.903 Y136.561
G0 X102.188 Y136.514
G0 X102.242 Y136.38
G1 F1200 X102.472 Y136.162 E0.01054
G1 X102.53 Y135.853 E0.01046
G1 X102.394 Y135.569 E0.01047
G1 X102.119 Y135.418 E0.01043
G1 X101.805 Y135.457 E0.01052
G1 X101.575 Y135.675 E0.01054
G1 X101.518 Y135.984 E0.01045
G1 X101.652 Y136.27 E0.0105
G1 X101.929 Y136.419 E0.01046
G1 X102.242 Y136.38 E0.01049
G1 F2700 E-5
G0 F6000 X102.266 Y136.578
G0 X108.762 Y133.383
G0 X118.044 Y132.794
G0 X122.639 Y133.724
G0 X118.83 Y128.433
G0 X118.913 Y128.375
G1 F2700 E5
G1 F1200 X118.446 Y127.606 E0.02992
G1 X118.104 Y127.018 E0.02262
G1 X117.734 Y126.353 E0.02531
G1 X117.492 Y125.906 E0.01691
G1 X117.019 Y125.006 E0.03382
G1 X116.316 Y123.648 E0.05086
G1 X115.959 Y122.969 E0.02551
G1 X115.513 Y122.155 E0.03087
G1 X115.274 Y121.737 E0.01601
G1 X114.895 Y121.097 E0.02474
G1 X114.458 Y121.634 E0.02303
G1 X114.134 Y122.047 E0.01746
G1 X113.948 Y122.295 E0.01031
G1 X113.71 Y122.624 E0.01351
G1 X113.364 Y123.133 E0.02047
G1 X113.097 Y123.557 E0.01667
G1 X112.854 Y123.973 E0.01602
G1 X112.656 Y124.341 E0.0139
G1 X112.593 Y124.463 E0.00457
G1 X112.372 Y124.936 E0.01736
G1 X112.187 Y125.393 E0.0164
G1 X112.074 Y125.738 E0.01207
G1 X111.997 Y126.002 E0.00915
G1 X111.936 Y126.26 E0.00882
G1 X111.877 Y126.598 E0.01141
G1 X111.849 Y126.923 E0.01085
G1 X111.848 Y127.232 E0.01028
G1 X111.878 Y127.527 E0.00986
G1 X111.939 Y127.811 E0.00966
G1 X112.107 Y128.228 E0.01495
G1 X112.273 Y128.489 E0.01029
G1 X112.563 Y128.789 E0.01388
G1 X112.813 Y128.974 E0.01034
G1 X113.178 Y129.156 E0.01357
G1 X113.445 Y129.253 E0.00945
G1 X113.779 Y129.331 E0.01141
G1 X114.084 Y129.376 E0.01025
G1 X114.364 Y129.399 E0.00934
G1 X114.466 Y129.402 E0.00339
G1 X114.768 Y129.404 E0.01004
G1 X114.876 Y129.4 E0.00359
