;FLAVOR:Marlin
;TIME:15563
;Filament used: 13.3235m
;Layer height: 0.2
;MINX:57.153
;MINY:91.76
;MINZ:0.2
;MAXX:177.847
;MAXY:143.24
;MAXZ:25
;Generated with Cura_SteamEngine 4.8.0
M140 S85
M105
M190 S85
M104 S235
M105
M109 S235
M82 ;absolute extrusion mode
; Ender 3 Custom Start G-code
G92 E0 ; Reset Extruder
G28 ; Home all axes
G1 Z2.0 F3000 ; Move Z Axis up little to prevent scratching of Heat Bed
G1 X0.1 Y20 Z0.3 F5000.0 ; Move to start position
G1 X0.1 Y200.0 Z0.3 F1500.0 E15 ; Draw the first line
G1 X0.4 Y200.0 Z0.3 F5000.0 ; Move to side a little
G1 X0.4 Y20 Z0.3 F1500.0 E30 ; Draw the second line
G92 E0 ; Reset Extruder
G1 Z2.0 F3000 ; Move Z Axis up little to prevent scratching of Heat Bed
G1 X5 Y20 Z0.3 F5000.0 ; Move over to prevent blob squish
M83 ;relative extrusion mode
G1 F2700 E-5
;LAYER_COUNT:125
;LAYER:0
M107
M205 X8 Y8
G0 F6000 X58.065 Y91.995 Z0.2
;TYPE:SKIRT
G1 F2700 E5
G1 F1200 X58.412 Y91.843 E0.0126
G1 X58.953 Y91.76 E0.0182
G1 X176.047 Y91.76 E3.89456
G1 X176.424 Y91.8 E0.01261
G1 X176.784 Y91.918 E0.0126
G1 X177.111 Y92.108 E0.01258
G1 X177.392 Y92.363 E0.01262
G1 X177.612 Y92.672 E0.01262
G1 X177.764 Y93.019 E0.0126
G1 X177.847 Y93.56 E0.0182
G1 X177.847 Y141.44 E1.5925
G1 X177.807 Y141.817 E0.01261
G1 X177.689 Y142.177 E0.0126
G1 X177.499 Y142.504 E0.01258
G1 X177.244 Y142.785 E0.01262
G1 X176.935 Y143.005 E0.01262
G1 X176.588 Y143.157 E0.0126
G1 X176.047 Y143.24 E0.0182
G1 X58.953 Y143.24 E3.89456
G1 X58.576 Y143.2 E0.01261
G1 X58.216 Y143.082 E0.0126
G1 X57.889 Y142.892 E0.01258
G1 X57.608 Y142.637 E0.01262
G1 X57.388 Y142.328 E0.01262
G1 X57.236 Y141.981 E0.0126
G1 X57.153 Y141.44 E0.0182
G1 X57.153 Y93.56 E1.5925
G1 X57.193 Y93.183 E0.01261
G1 X57.311 Y92.823 E0.0126
G1 X57.501 Y92.496 E0.01258
G1 X57.756 Y92.215 E0.01262
G1 X58.065 Y91.995 E0.01262
G0 F6000 X58.146 Y92.416
G1 F1200 X58.44 Y92.257 E0.01112
G1 X58.764 Y92.173 E0.01113
G1 X58.953 Y92.16 E0.0063
G1 X176.047 Y92.16 E3.89456
G1 X176.379 Y92.2 E0.01112
G1 X176.691 Y92.317 E0.01108
G1 X176.968 Y92.505 E0.01113
G1 X177.191 Y92.753 E0.01109
G1 X177.35 Y93.047 E0.01112
G1 X177.434 Y93.371 E0.01113
G1 X177.447 Y93.56 E0.0063
G1 X177.447 Y141.44 E1.5925
G1 X177.407 Y141.772 E0.01112
G1 X177.29 Y142.084 E0.01108
G1 X177.102 Y142.361 E0.01113
G1 X176.854 Y142.584 E0.01109
G1 X176.56 Y142.743 E0.01112
G1 X176.236 Y142.827 E0.01113
G1 X176.047 Y142.84 E0.0063
G1 X58.953 Y142.84 E3.89456
G1 X58.621 Y142.8 E0.01112
G1 X58.309 Y142.683 E0.01108
G1 X58.032 Y142.495 E0.01113
G1 X57.809 Y142.247 E0.01109
G1 X57.65 Y141.953 E0.01112
G1 X57.566 Y141.629 E0.01113
G1 X57.553 Y141.44 E0.0063
G1 X57.553 Y93.56 E1.5925
G1 X57.593 Y93.228 E0.01112
G1 X57.71 Y92.916 E0.01108
G1 X57.898 Y92.639 E0.01113
G1 X58.146 Y92.416 E0.01109
G0 F6000 X58.528 Y92.655
G1 F1200 X58.798 Y92.572 E0.00939
G1 X58.953 Y92.56 E0.00517
G1 X176.047 Y92.56 E3.89456
G1 X176.326 Y92.6 E0.00937
G1 X176.583 Y92.716 E0.00938
G1 X176.798 Y92.899 E0.00939
G1 X176.952 Y93.135 E0.00937
G1 X177.035 Y93.405 E0.00939
G1 X177.047 Y93.56 E0.00517
G1 X177.047 Y141.44 E1.5925
G1 X177.007 Y141.719 E0.00937
G1 X176.891 Y141.976 E0.00938
G1 X176.708 Y142.191 E0.00939
G1 X176.472 Y142.345 E0.00937
G1 X176.202 Y142.428 E0.00939
G1 X176.047 Y142.44 E0.00517
G1 X58.953 Y142.44 E3.89456
G1 X58.674 Y142.4 E0.00937
G1 X58.417 Y142.284 E0.00938
G1 X58.202 Y142.101 E0.00939
G1 X58.048 Y141.865 E0.00937
G1 X57.965 Y141.595 E0.00939
G1 X57.953 Y141.44 E0.00517
G1 X57.953 Y93.56 E1.5925
G1 X57.993 Y93.281 E0.00937
G1 X58.109 Y93.024 E0.00938
G1 X58.292 Y92.809 E0.00939
G1 X58.528 Y92.655 E0.00937
G0 F6000 X58.679 Y93.026
G1 F1200 X58.953 Y92.96 E0.00937
G1 X176.047 Y92.96 E3.89456
G1 X176.262 Y93 E0.00727
G1 X176.448 Y93.113 E0.00724
G1 X176.581 Y93.286 E0.00726
G1 X176.647 Y93.56 E0.00937
G1 X176.647 Y141.44 E1.5925
G1 X176.607 Y141.655 E0.00727
G1 X176.494 Y141.841 E0.00724
G1 X176.321 Y141.974 E0.00726
G1 X176.047 Y142.04 E0.00937
G1 X58.953 Y142.04 E3.89456
G1 X58.738 Y142 E0.00727
G1 X58.552 Y141.887 E0.00724
G1 X58.419 Y141.714 E0.00726
G1 X58.353 Y141.44 E0.00937
G1 X58.353 Y93.56 E1.5925
G1 X58.393 Y93.345 E0.00727
G1 X58.506 Y93.159 E0.00724
G1 X58.679 Y93.026 E0.00726
G0 F6000 X58.792 Y93.441
G1 F1200 X58.953 Y93.36 E0.00599
G1 X176.047 Y93.36 E3.89456
G1 X176.166 Y93.399 E0.00417
G1 X176.247 Y93.56 E0.00599
G1 X176.247 Y141.44 E1.5925
G1 X176.208 Y141.559 E0.00417
G1 X176.047 Y141.64 E0.00599
G1 X58.953 Y141.64 E3.89456
G1 X58.834 Y141.601 E0.00417
G1 X58.753 Y141.44 E0.00599
G1 X58.753 Y93.56 E1.5925
G1 X58.792 Y93.441 E0.00417
G1 F2700 E-5
;MESH:Brick.stl
G0 F6000 X59.763 Y94.37
G0 X59.735 Y140.658
G0 X175.547 Y140.97
G0 X175.847 Y141.24
;TYPE:WALL-OUTER
G1 F2700 E5
G1 F1200 X59.153 Y141.24 E3.88126
G1 X59.153 Y93.76 E1.57919
G1 X175.847 Y93.76 E3.88126
G1 X175.847 Y141.24 E1.57919
G1 F2700 E-5
G0 F6000 X175.547 Y140.97
G0 X88.719 Y140.63
G0 X88.719 Y142.105
G0 X87.083 Y128.183
G0 X87.276 Y129.645
G0 X88.719 Y129.133
G0 X88.606 Y128.855
G1 F2700 E5
G1 F1200 X91.258 Y127.756 E0.09548
G1 X93.536 Y126.009 E0.09548
G1 X95.283 Y123.731 E0.09548
G1 X96.382 Y121.078 E0.09551
G1 X96.757 Y118.233 E0.09544
G1 X96.382 Y115.387 E0.09548
G1 X95.283 Y112.734 E0.09551
G1 X93.536 Y110.456 E0.09548
G1 X91.258 Y108.709 E0.09548
G1 X88.606 Y107.61 E0.09548
G1 X85.76 Y107.236 E0.09547
G1 X82.914 Y107.61 E0.09547
G1 X80.261 Y108.709 E0.09551
G1 X77.983 Y110.456 E0.09548
G1 X76.236 Y112.734 E0.09548
G1 X75.137 Y115.387 E0.09551
G1 X74.763 Y118.233 E0.09547
G1 X75.137 Y121.078 E0.09544
G1 X76.236 Y123.731 E0.09551
G1 X77.983 Y126.009 E0.09548
G1 X80.261 Y127.756 E0.09548
G1 X82.914 Y128.855 E0.09551
G1 X85.76 Y129.23 E0.09548
G1 X88.606 Y128.855 E0.09548
G0 F6000 X88.71 Y129.245
;TYPE:WALL-INNER
G1 F1200 X91.46 Y128.105 E0.09901
G1 X93.821 Y126.294 E0.09897
G1 X95.632 Y123.933 E0.09897
G1 X96.772 Y121.182 E0.09904
G1 X97.16 Y118.233 E0.09893
G1 X96.772 Y115.283 E0.09896
G1 X95.632 Y112.532 E0.09904
G1 X93.821 Y110.171 E0.09897
G1 X91.46 Y108.36 E0.09897
G1 X88.71 Y107.22 E0.09901
G1 X85.76 Y106.833 E0.09896
G1 X82.81 Y107.22 E0.09896
G1 X80.059 Y108.36 E0.09904
G1 X77.698 Y110.171 E0.09897
G1 X75.887 Y112.532 E0.09897
G1 X74.747 Y115.283 E0.09904
G1 X74.36 Y118.233 E0.09896
G1 X74.747 Y121.182 E0.09893
G1 X75.887 Y123.933 E0.09904
G1 X77.698 Y126.294 E0.09897
G1 X80.059 Y128.105 E0.09897
G1 X82.81 Y129.245 E0.09904
G1 X85.76 Y129.633 E0.09896
G1 X88.71 Y129.245 E0.09896
G1 F2700 E-5
G0 F6000 X91.556 Y128.271
G0 X90.821 Y127.002
G0 X113.359 Y127.002
G0 X123.587 Y127.002
G0 X145.34 Y127.002
G0 X144.606 Y128.271
G0 X147.441 Y129.131
G0 X147.557 Y128.855
;TYPE:WALL-OUTER
G1 F2700 E5
G1 F1200 X150.403 Y129.23 E0.09548
G1 X153.249 Y128.855 E0.09548
G1 X155.901 Y127.756 E0.09548
G1 X158.179 Y126.009 E0.09548
G1 X159.926 Y123.731 E0.09548
G1 X161.025 Y121.078 E0.09551
G1 X161.4 Y118.233 E0.09544
G1 X161.025 Y115.387 E0.09548
G1 X159.926 Y112.734 E0.09551
G1 X158.179 Y110.456 E0.09548
G1 X155.901 Y108.709 E0.09548
G1 X153.249 Y107.61 E0.09548
G1 X150.403 Y107.236 E0.09547
G1 X147.557 Y107.61 E0.09547
G1 X144.904 Y108.709 E0.09551
G1 X142.626 Y110.456 E0.09548
G1 X140.879 Y112.734 E0.09548
G1 X139.78 Y115.387 E0.09551
G1 X139.406 Y118.233 E0.09547
G1 X139.78 Y121.078 E0.09544
G1 X140.879 Y123.731 E0.09551
G1 X142.626 Y126.009 E0.09548
G1 X144.904 Y127.756 E0.09548
G1 X147.557 Y128.855 E0.09551
G0 F6000 X147.453 Y129.245
;TYPE:WALL-INNER
G1 F1200 X150.403 Y129.633 E0.09896
G1 X153.353 Y129.245 E0.09896
G1 X156.103 Y128.105 E0.09901
G1 X158.464 Y126.294 E0.09897
G1 X160.275 Y123.933 E0.09897
G1 X161.415 Y121.182 E0.09904
G1 X161.803 Y118.233 E0.09893
G1 X161.415 Y115.283 E0.09896
G1 X160.275 Y112.532 E0.09904
G1 X158.464 Y110.171 E0.09897
G1 X156.103 Y108.36 E0.09897
G1 X153.353 Y107.22 E0.09901
G1 X150.403 Y106.833 E0.09896
G1 X147.453 Y107.22 E0.09896
G1 X144.702 Y108.36 E0.09904
G1 X142.341 Y110.171 E0.09897
G1 X140.53 Y112.532 E0.09897
G1 X139.39 Y115.283 E0.09904
G1 X139.003 Y118.233 E0.09896
G1 X139.39 Y121.182 E0.09893
G1 X140.53 Y123.933 E0.09904
G1 X142.341 Y126.294 E0.09897
G1 X144.702 Y128.105 E0.09897
G1 X147.453 Y129.245 E0.09904
G1 F2700 E-5
G0 F6000 X144.606 Y128.271
G0 X145.34 Y127.002
G0 X123.587 Y127.002
G0 X124.322 Y128.271
G0 X121.723 Y129.006
G0 X118.485 Y129.527
G0 X118.526 Y129.23
;TYPE:WALL-OUTER
G1 F2700 E5
G1 F1200 X121.372 Y128.855 E0.09548
G1 X124.024 Y127.756 E0.09548
G1 X126.302 Y126.009 E0.09548
G1 X128.049 Y123.731 E0.09548
G1 X129.148 Y121.078 E0.09551
G1 X129.523 Y118.233 E0.09544
G1 X129.148 Y115.387 E0.09548
G1 X128.049 Y112.734 E0.09551
G1 X126.302 Y110.456 E0.09548
G1 X124.024 Y108.709 E0.09548
G1 X121.372 Y107.61 E0.09548
G1 X118.526 Y107.236 E0.09547
G1 X115.68 Y107.61 E0.09547
G1 X113.027 Y108.709 E0.09551
G1 X110.77 Y110.44 E0.0946
G1 X110.734 Y110.476 E0.00169
G1 X109.002 Y112.734 E0.09465
G1 X107.903 Y115.387 E0.09551
G1 X107.529 Y118.233 E0.09547
G1 X107.903 Y121.078 E0.09544
G1 X109.002 Y123.731 E0.09551
G1 X110.749 Y126.009 E0.09548
G1 X113.027 Y127.756 E0.09548
G1 X115.68 Y128.855 E0.09551
G1 X118.526 Y129.23 E0.09548
G0 F6000 X118.526 Y129.633
;TYPE:WALL-INNER
G1 F1200 X121.476 Y129.245 E0.09896
G1 X124.226 Y128.105 E0.09901
G1 X126.587 Y126.294 E0.09897
G1 X128.398 Y123.933 E0.09897
G1 X129.538 Y121.182 E0.09904
G1 X129.926 Y118.233 E0.09893
G1 X129.538 Y115.283 E0.09896
G1 X128.398 Y112.532 E0.09904
G1 X126.587 Y110.171 E0.09897
G1 X124.226 Y108.36 E0.09897
G1 X121.476 Y107.22 E0.09901
G1 X118.526 Y106.833 E0.09896
G1 X115.576 Y107.22 E0.09896
G1 X112.825 Y108.36 E0.09904
G1 X110.506 Y110.139 E0.09721
G1 X110.433 Y110.212 E0.00343
G1 X108.653 Y112.532 E0.09726
G1 X107.513 Y115.283 E0.09904
G1 X107.126 Y118.233 E0.09896
G1 X107.513 Y121.182 E0.09893
G1 X108.653 Y123.933 E0.09904
G1 X110.464 Y126.294 E0.09897
G1 X112.825 Y128.105 E0.09897
G1 X115.576 Y129.245 E0.09904
G1 X118.526 Y129.633 E0.09896
G1 F2700 E-5
G0 F6000 X121.526 Y129.431
G0 X121.15 Y128.012
G0 X121.526 Y142.105
G0 X121.526 Y140.63
G0 X175.447 Y140.84
G1 F2700 E5
G1 F1200 X59.553 Y140.84 E3.85465
G1 X59.553 Y94.16 E1.55258
G1 X175.447 Y94.16 E3.85465
G1 X175.447 Y140.84 E1.55258
G0 F6000 X175.057 Y140.45
;TYPE:SKIN
G1 F1200 X59.943 Y140.45 E3.82871
G1 X59.943 Y94.55 E1.52664
G1 X175.057 Y94.55 E3.82871
G1 X175.057 Y140.45 E1.52664
G1 F2700 E-5
G0 F6000 X175.337 Y140.45
G0 X158.544 Y140.63
G0 X158.544 Y142.105
G0 X155.464 Y127.002
G0 X156.199 Y128.271
G0 X158.544 Y126.372
G0 X158.743 Y126.573
G1 F2700 E5
G1 F1200 X160.616 Y124.13 E0.10239
G1 X161.795 Y121.284 E0.10246
G1 X162.197 Y118.233 E0.10235
G1 X161.795 Y115.181 E0.10239
G1 X160.616 Y112.335 E0.10246
G1 X158.743 Y109.892 E0.10239
G1 X156.3 Y108.019 E0.10239
G1 X153.455 Y106.84 E0.10243
G1 X150.403 Y106.439 E0.10238
G1 X147.351 Y106.84 E0.10238
G1 X144.505 Y108.019 E0.10246
G1 X142.062 Y109.892 E0.10239
G1 X140.189 Y112.335 E0.10239
G1 X139.01 Y115.181 E0.10246
G1 X138.609 Y118.233 E0.10238
G1 X139.01 Y121.284 E0.10235
G1 X140.189 Y124.13 E0.10246
G1 X142.062 Y126.573 E0.10239
G1 X144.505 Y128.446 E0.10239
G1 X147.351 Y129.625 E0.10246
G1 X150.403 Y130.027 E0.10239
G1 X153.455 Y129.625 E0.10239
G1 X156.3 Y128.446 E0.10243
G1 X158.743 Y126.573 E0.10239
G1 F2700 E-5
G0 F6000 X158.544 Y126.372
G0 X156.021 Y127.965
G0 X153.311 Y129.088
G0 X150.403 Y129.472
G0 X147.495 Y129.088
G0 X144.784 Y127.965
G0 X142.455 Y126.18
G0 X140.849 Y124.084
G0 X139.204 Y121.232
G0 X140.623 Y120.856
G0 X128.441 Y119.816
G0 X129.886 Y120.006
G0 X129.646 Y121.211
G0 X129.918 Y121.284
G1 F2700 E5
G1 F1200 X130.32 Y118.233 E0.10235
G1 X129.918 Y115.181 E0.10239
G1 X128.739 Y112.335 E0.10246
G1 X126.866 Y109.892 E0.10239
G1 X124.423 Y108.019 E0.10239
G1 X121.578 Y106.84 E0.10243
G1 X118.526 Y106.439 E0.10238
G1 X115.474 Y106.84 E0.10238
G1 X112.628 Y108.019 E0.10246
G1 X110.248 Y109.845 E0.09977
G1 X110.139 Y109.954 E0.00513
G1 X108.312 Y112.335 E0.09982
G1 X107.133 Y115.181 E0.10246
G1 X106.732 Y118.233 E0.10238
G1 X107.133 Y121.284 E0.10235
G1 X108.312 Y124.13 E0.10246
G1 X110.185 Y126.573 E0.10239
G1 X112.628 Y128.446 E0.10239
G1 X115.474 Y129.625 E0.10246
G1 X118.526 Y130.027 E0.10239
G1 X121.578 Y129.625 E0.10239
G1 X124.423 Y128.446 E0.10243
G1 X126.866 Y126.573 E0.10239
G1 X128.739 Y124.13 E0.10239
G1 X129.918 Y121.284 E0.10246
G1 F2700 E-5
G0 F6000 X129.646 Y121.211
G0 X128.258 Y123.851
G0 X126.473 Y126.18
G0 X124.144 Y127.965
G0 X121.434 Y129.088
G0 X118.526 Y129.472
G0 X115.618 Y129.088
G0 X112.907 Y127.965
G0 X110.578 Y126.18
G0 X108.793 Y123.851
G0 X107.67 Y121.14
G0 X107.52 Y120.015
G0 X107.129 Y119.867
G0 X108.591 Y119.674
G0 X95.864 Y118.385
G0 X97.308 Y118.575
G0 X96.88 Y121.211
G0 X97.152 Y121.284
G1 F2700 E5
G1 F1200 X97.554 Y118.233 E0.10235
G1 X97.152 Y115.181 E0.10239
G1 X95.973 Y112.335 E0.10246
G1 X94.1 Y109.892 E0.10239
G1 X91.657 Y108.019 E0.10239
G1 X88.812 Y106.84 E0.10243
G1 X85.76 Y106.439 E0.10238
G1 X82.708 Y106.84 E0.10238
G1 X79.862 Y108.019 E0.10246
G1 X77.419 Y109.892 E0.10239
G1 X75.546 Y112.335 E0.10239
G1 X74.367 Y115.181 E0.10246
G1 X73.966 Y118.233 E0.10238
G1 X74.367 Y121.284 E0.10235
G1 X75.546 Y124.13 E0.10246
G1 X77.419 Y126.573 E0.10239
G1 X79.862 Y128.446 E0.10239
G1 X82.708 Y129.625 E0.10246
G1 X85.76 Y130.027 E0.10239
G1 X88.812 Y129.625 E0.10239
G1 X91.657 Y128.446 E0.10243
G1 X94.1 Y126.573 E0.10239
G1 X95.973 Y124.13 E0.10239
G1 X97.152 Y121.284 E0.10246
G1 F2700 E-5
G0 F6000 X96.88 Y121.211
G0 X95.492 Y123.851
G0 X93.707 Y126.18
G0 X91.378 Y127.965
G0 X88.668 Y129.088
G0 X85.76 Y129.472
G0 X83.143 Y129.127
G0 X79.963 Y128.271
G0 X80.697 Y127.002
G0 X79.963 Y142.105
G0 X79.963 Y140.63
G0 X60.527 Y140.73
G0 X60.527 Y140.289
G1 F2700 E5
G1 F1200 X60.103 Y139.865 E0.01994
G0 F6000 X60.103 Y139.299
G1 F1200 X61.093 Y140.289 E0.04657
G0 F6000 X61.659 Y140.289
G1 F1200 X60.103 Y138.733 E0.07319
G0 F6000 X60.103 Y138.167
G1 F1200 X62.224 Y140.289 E0.09979
G0 F6000 X62.79 Y140.289
G1 F1200 X60.103 Y137.602 E0.12639
G0 F6000 X60.103 Y137.036
G1 F1200 X63.356 Y140.289 E0.15301
G0 F6000 X63.921 Y140.289
G1 F1200 X60.103 Y136.47 E0.17961
G0 F6000 X60.103 Y135.905
G1 F1200 X64.487 Y140.289 E0.20621
G0 F6000 X65.053 Y140.289
G1 F1200 X60.103 Y135.339 E0.23283
G0 F6000 X60.103 Y134.773
G1 F1200 X65.618 Y140.289 E0.25943
G0 F6000 X66.184 Y140.289
G1 F1200 X60.103 Y134.208 E0.28603
G0 F6000 X60.103 Y133.642
G1 F1200 X66.75 Y140.289 E0.31265
G0 F6000 X67.315 Y140.289
G1 F1200 X60.103 Y133.076 E0.33925
G0 F6000 X60.103 Y132.511
G1 F1200 X67.881 Y140.289 E0.36585
G0 F6000 X68.447 Y140.289
G1 F1200 X60.103 Y131.945 E0.39248
G0 F6000 X60.103 Y131.379
G1 F1200 X69.012 Y140.289 E0.41908
G0 F6000 X69.578 Y140.289
G1 F1200 X60.103 Y130.814 E0.44567
G0 F6000 X60.103 Y130.248
G1 F1200 X70.144 Y140.289 E0.4723
G0 F6000 X70.709 Y140.289
G1 F1200 X60.103 Y129.682 E0.4989
G0 F6000 X60.103 Y129.116
G1 F1200 X71.275 Y140.289 E0.52552
G0 F6000 X71.841 Y140.289
G1 F1200 X60.103 Y128.551 E0.55212
G0 F6000 X60.103 Y127.985
G1 F1200 X72.407 Y140.289 E0.57874
G0 F6000 X72.972 Y140.289
G1 F1200 X60.103 Y127.419 E0.60534
G0 F6000 X60.103 Y126.854
G1 F1200 X73.538 Y140.289 E0.63194
G0 F6000 X74.104 Y140.289
G1 F1200 X60.103 Y126.288 E0.65856
G0 F6000 X60.103 Y125.722
G1 F1200 X74.669 Y140.289 E0.68516
G0 F6000 X75.235 Y140.289
G1 F1200 X60.103 Y125.157 E0.71176
G0 F6000 X60.103 Y124.591
G1 F1200 X75.801 Y140.289 E0.73839
G0 F6000 X76.366 Y140.289
G1 F1200 X60.103 Y124.025 E0.76499
G0 F6000 X60.103 Y123.46
G1 F1200 X76.932 Y140.289 E0.79158
G0 F6000 X77.498 Y140.289
G1 F1200 X60.103 Y122.894 E0.81821
G0 F6000 X60.103 Y122.328
G1 F1200 X78.063 Y140.289 E0.84481
G0 F6000 X78.629 Y140.289
G1 F1200 X60.103 Y121.763 E0.87141
G0 F6000 X60.103 Y121.197
G1 F1200 X79.195 Y140.289 E0.89803
G0 F6000 X79.76 Y140.289
G1 F1200 X60.103 Y120.631 E0.92463
G0 F6000 X60.103 Y120.066
G1 F1200 X80.326 Y140.289 E0.95123
G0 F6000 X80.892 Y140.289
G1 F1200 X60.103 Y119.5 E0.97785
G0 F6000 X60.103 Y118.934
G1 F1200 X81.457 Y140.289 E1.00445
G0 F6000 X82.023 Y140.289
G1 F1200 X60.103 Y118.368 E1.03107
G0 F6000 X60.103 Y117.803
G1 F1200 X82.589 Y140.289 E1.05767
