;FLAVOR:Marlin
;TIME:16479
;Filament used: 10.3807m
;Layer height: 0.2
;MINX:89.35
;MINY:109.35
;MINZ:0.2
;MAXX:145.65
;MAXY:125.65
;MAXZ:50.8
;Generated with Cura_SteamEngine 4.8.0
M140 S85
M105
M190 S85
M104 S235
M105
M109 S235
M82 ;absolute extrusion mode
; Ender 3 Custom Start G-code
G92 E0 ; Reset Extruder
G28 ; Home all axes
G1 Z2.0 F3000 ; Move Z Axis up little to prevent scratching of Heat Bed
G1 X0.1 Y20 Z0.3 F5000.0 ; Move to start position
G1 X0.1 Y200.0 Z0.3 F1500.0 E15 ; Draw the first line
G1 X0.4 Y200.0 Z0.3 F5000.0 ; Move to side a little
G1 X0.4 Y20 Z0.3 F1500.0 E30 ; Draw the second line
G92 E0 ; Reset Extruder
G1 Z2.0 F3000 ; Move Z Axis up little to prevent scratching of Heat Bed
G1 X5 Y20 Z0.3 F5000.0 ; Move over to prevent blob squish
M83 ;relative extrusion mode
G1 F2700 E-5
;LAYER_COUNT:254
;LAYER:0
M107
M205 X8 Y8
G0 F6000 X89.953 Y109.805 Z0.2
;TYPE:SKIRT
G1 F2700 E5
G1 F1200 X90.262 Y109.585 E0.01262
G1 X90.609 Y109.433 E0.0126
G1 X91.15 Y109.35 E0.0182
G1 X103.85 Y109.35 E0.4224
G1 X104.227 Y109.39 E0.01261
G1 X104.587 Y109.508 E0.0126
G1 X104.914 Y109.698 E0.01258
G1 X105.195 Y109.953 E0.01262
G1 X105.415 Y110.262 E0.01262
G1 X105.567 Y110.609 E0.0126
G1 X105.65 Y111.15 E0.0182
G1 X105.65 Y123.85 E0.4224
G1 X105.61 Y124.227 E0.01261
G1 X105.492 Y124.587 E0.0126
G1 X105.302 Y124.914 E0.01258
G1 X105.047 Y125.195 E0.01262
G1 X104.738 Y125.415 E0.01262
G1 X104.391 Y125.567 E0.0126
G1 X103.85 Y125.65 E0.0182
G1 X91.15 Y125.65 E0.4224
G1 X90.773 Y125.61 E0.01261
G1 X90.413 Y125.492 E0.0126
G1 X90.086 Y125.302 E0.01258
G1 X89.805 Y125.047 E0.01262
G1 X89.585 Y124.738 E0.01262
G1 X89.433 Y124.391 E0.0126
G1 X89.35 Y123.85 E0.0182
G1 X89.35 Y111.15 E0.4224
G1 X89.39 Y110.773 E0.01261
G1 X89.508 Y110.413 E0.0126
G1 X89.698 Y110.086 E0.01258
G1 X89.953 Y109.805 E0.01262
G0 F6000 X90.343 Y110.006
G1 F1200 X90.637 Y109.847 E0.01112
G1 X90.961 Y109.763 E0.01113
G1 X91.15 Y109.75 E0.0063
G1 X103.85 Y109.75 E0.4224
G1 X104.182 Y109.79 E0.01112
G1 X104.494 Y109.907 E0.01108
G1 X104.771 Y110.095 E0.01113
G1 X104.994 Y110.343 E0.01109
G1 X105.153 Y110.637 E0.01112
G1 X105.237 Y110.961 E0.01113
G1 X105.25 Y111.15 E0.0063
G1 X105.25 Y123.85 E0.4224
G1 X105.21 Y124.182 E0.01112
G1 X105.093 Y124.494 E0.01108
G1 X104.905 Y124.771 E0.01113
G1 X104.657 Y124.994 E0.01109
G1 X104.363 Y125.153 E0.01112
G1 X104.039 Y125.237 E0.01113
G1 X103.85 Y125.25 E0.0063
G1 X91.15 Y125.25 E0.4224
G1 X90.818 Y125.21 E0.01112
G1 X90.506 Y125.093 E0.01108
G1 X90.229 Y124.905 E0.01113
G1 X90.006 Y124.657 E0.01109
G1 X89.847 Y124.363 E0.01112
G1 X89.763 Y124.039 E0.01113
G1 X89.75 Y123.85 E0.0063
G1 X89.75 Y111.15 E0.4224
G1 X89.79 Y110.818 E0.01112
G1 X89.907 Y110.506 E0.01108
G1 X90.095 Y110.229 E0.01113
G1 X90.343 Y110.006 E0.01109
G0 F6000 X90.489 Y110.399
G1 F1200 X90.725 Y110.245 E0.00937
G1 X90.995 Y110.162 E0.00939
G1 X91.15 Y110.15 E0.00517
G1 X103.85 Y110.15 E0.4224
G1 X104.129 Y110.19 E0.00937
G1 X104.386 Y110.306 E0.00938
G1 X104.601 Y110.489 E0.00939
G1 X104.755 Y110.725 E0.00937
G1 X104.838 Y110.995 E0.00939
G1 X104.85 Y111.15 E0.00517
G1 X104.85 Y123.85 E0.4224
G1 X104.81 Y124.129 E0.00937
G1 X104.694 Y124.386 E0.00938
G1 X104.511 Y124.601 E0.00939
G1 X104.275 Y124.755 E0.00937
G1 X104.005 Y124.838 E0.00939
G1 X103.85 Y124.85 E0.00517
G1 X91.15 Y124.85 E0.4224
G1 X90.871 Y124.81 E0.00937
G1 X90.614 Y124.694 E0.00938
G1 X90.399 Y124.511 E0.00939
G1 X90.245 Y124.275 E0.00937
G1 X90.162 Y124.005 E0.00939
G1 X90.15 Y123.85 E0.00517
G1 X90.15 Y111.15 E0.4224
G1 X90.19 Y110.871 E0.00937
G1 X90.306 Y110.614 E0.00938
G1 X90.489 Y110.399 E0.00939
G0 F6000 X90.703 Y110.749
G1 F1200 X90.876 Y110.616 E0.00726
G1 X91.15 Y110.55 E0.00937
G1 X103.85 Y110.55 E0.4224
G1 X104.065 Y110.59 E0.00727
G1 X104.251 Y110.703 E0.00724
G1 X104.384 Y110.876 E0.00726
G1 X104.45 Y111.15 E0.00937
G1 X104.45 Y123.85 E0.4224
G1 X104.41 Y124.065 E0.00727
G1 X104.297 Y124.251 E0.00724
G1 X104.124 Y124.384 E0.00726
G1 X103.85 Y124.45 E0.00937
G1 X91.15 Y124.45 E0.4224
G1 X90.935 Y124.41 E0.00727
G1 X90.749 Y124.297 E0.00724
G1 X90.616 Y124.124 E0.00726
G1 X90.55 Y123.85 E0.00937
G1 X90.55 Y111.15 E0.4224
G1 X90.59 Y110.935 E0.00727
G1 X90.703 Y110.749 E0.00724
G0 F6000 X90.989 Y111.031
G1 F1200 X91.15 Y110.95 E0.00599
G1 X103.85 Y110.95 E0.4224
G1 X103.969 Y110.989 E0.00417
G1 X104.05 Y111.15 E0.00599
G1 X104.05 Y123.85 E0.4224
G1 X104.011 Y123.969 E0.00417
G1 X103.85 Y124.05 E0.00599
G1 X91.15 Y124.05 E0.4224
G1 X91.031 Y124.011 E0.00417
G1 X90.95 Y123.85 E0.00599
G1 X90.95 Y111.15 E0.4224
G1 X90.989 Y111.031 E0.00417
G1 F2700 E-5
G0 F6000 X90.989 Y110.485
G0 X104.503 Y110.497
G0 X109.35 Y111.15
G1 F2700 E5
G1 F1200 X109.39 Y110.773 E0.01261
G1 X109.508 Y110.413 E0.0126
G1 X109.698 Y110.086 E0.01258
G1 X109.953 Y109.805 E0.01262
G1 X110.262 Y109.585 E0.01262
G1 X110.609 Y109.433 E0.0126
G1 X111.15 Y109.35 E0.0182
G1 X123.85 Y109.35 E0.4224
G1 X124.227 Y109.39 E0.01261
G1 X124.587 Y109.508 E0.0126
G1 X124.914 Y109.698 E0.01258
G1 X125.195 Y109.953 E0.01262
G1 X125.415 Y110.262 E0.01262
G1 X125.567 Y110.609 E0.0126
G1 X125.65 Y111.15 E0.0182
G1 X125.65 Y123.85 E0.4224
G1 X125.61 Y124.227 E0.01261
G1 X125.492 Y124.587 E0.0126
G1 X125.302 Y124.914 E0.01258
G1 X125.047 Y125.195 E0.01262
G1 X124.738 Y125.415 E0.01262
G1 X124.391 Y125.567 E0.0126
G1 X123.85 Y125.65 E0.0182
G1 X111.15 Y125.65 E0.4224
G1 X110.773 Y125.61 E0.01261
G1 X110.413 Y125.492 E0.0126
G1 X110.086 Y125.302 E0.01258
G1 X109.805 Y125.047 E0.01262
G1 X109.585 Y124.738 E0.01262
G1 X109.433 Y124.391 E0.0126
G1 X109.35 Y123.85 E0.0182
G1 X109.35 Y111.15 E0.4224
G0 F6000 X109.75 Y111.15
G1 F1200 X109.79 Y110.818 E0.01112
G1 X109.907 Y110.506 E0.01108
G1 X110.095 Y110.229 E0.01113
G1 X110.343 Y110.006 E0.01109
G1 X110.637 Y109.847 E0.01112
G1 X110.961 Y109.763 E0.01113
G1 X111.15 Y109.75 E0.0063
G1 X123.85 Y109.75 E0.4224
G1 X124.182 Y109.79 E0.01112
G1 X124.494 Y109.907 E0.01108
G1 X124.771 Y110.095 E0.01113
G1 X124.994 Y110.343 E0.01109
G1 X125.153 Y110.637 E0.01112
G1 X125.237 Y110.961 E0.01113
G1 X125.25 Y111.15 E0.0063
G1 X125.25 Y123.85 E0.4224
G1 X125.21 Y124.182 E0.01112
G1 X125.093 Y124.494 E0.01108
G1 X124.905 Y124.771 E0.01113
G1 X124.657 Y124.994 E0.01109
G1 X124.363 Y125.153 E0.01112
G1 X124.039 Y125.237 E0.01113
G1 X123.85 Y125.25 E0.0063
G1 X111.15 Y125.25 E0.4224
G1 X110.818 Y125.21 E0.01112
G1 X110.506 Y125.093 E0.01108
G1 X110.229 Y124.905 E0.01113
G1 X110.006 Y124.657 E0.01109
G1 X109.847 Y124.363 E0.01112
G1 X109.763 Y124.039 E0.01113
G1 X109.75 Y123.85 E0.0063
G1 X109.75 Y111.15 E0.4224
G0 F6000 X110.15 Y111.15
G1 F1200 X110.19 Y110.871 E0.00937
G1 X110.306 Y110.614 E0.00938
G1 X110.489 Y110.399 E0.00939
G1 X110.725 Y110.245 E0.00937
G1 X110.995 Y110.162 E0.00939
G1 X111.15 Y110.15 E0.00517
G1 X123.85 Y110.15 E0.4224
G1 X124.129 Y110.19 E0.00937
G1 X124.386 Y110.306 E0.00938
G1 X124.601 Y110.489 E0.00939
G1 X124.755 Y110.725 E0.00937
G1 X124.838 Y110.995 E0.00939
G1 X124.85 Y111.15 E0.00517
G1 X124.85 Y123.85 E0.4224
G1 X124.81 Y124.129 E0.00937
G1 X124.694 Y124.386 E0.00938
G1 X124.511 Y124.601 E0.00939
G1 X124.275 Y124.755 E0.00937
G1 X124.005 Y124.838 E0.00939
G1 X123.85 Y124.85 E0.00517
G1 X111.15 Y124.85 E0.4224
G1 X110.871 Y124.81 E0.00937
G1 X110.614 Y124.694 E0.00938
G1 X110.399 Y124.511 E0.00939
G1 X110.245 Y124.275 E0.00937
G1 X110.162 Y124.005 E0.00939
G1 X110.15 Y123.85 E0.00517
G1 X110.15 Y111.15 E0.4224
G0 F6000 X110.55 Y111.15
G1 F1200 X110.59 Y110.935 E0.00727
G1 X110.703 Y110.749 E0.00724
G1 X110.876 Y110.616 E0.00726
G1 X111.15 Y110.55 E0.00937
G1 X123.85 Y110.55 E0.4224
G1 X124.065 Y110.59 E0.00727
G1 X124.251 Y110.703 E0.00724
G1 X124.384 Y110.876 E0.00726
G1 X124.45 Y111.15 E0.00937
G1 X124.45 Y123.85 E0.4224
G1 X124.41 Y124.065 E0.00727
G1 X124.297 Y124.251 E0.00724
G1 X124.124 Y124.384 E0.00726
G1 X123.85 Y124.45 E0.00937
G1 X111.15 Y124.45 E0.4224
G1 X110.935 Y124.41 E0.00727
G1 X110.749 Y124.297 E0.00724
G1 X110.616 Y124.124 E0.00726
G1 X110.55 Y123.85 E0.00937
G1 X110.55 Y111.15 E0.4224
G0 F6000 X110.95 Y111.15
G1 F1200 X110.989 Y111.031 E0.00417
G1 X111.15 Y110.95 E0.00599
G1 X123.85 Y110.95 E0.4224
G1 X123.969 Y110.989 E0.00417
G1 X124.05 Y111.15 E0.00599
G1 X124.05 Y123.85 E0.4224
G1 X124.011 Y123.969 E0.00417
G1 X123.85 Y124.05 E0.00599
G1 X111.15 Y124.05 E0.4224
G1 X111.031 Y124.011 E0.00417
G1 X110.95 Y123.85 E0.00599
G1 X110.95 Y111.15 E0.4224
G1 F2700 E-5
G0 F6000 X110.95 Y110.485
G0 X124.503 Y110.497
G0 X129.35 Y111.15
G1 F2700 E5
G1 F1200 X129.39 Y110.773 E0.01261
G1 X129.508 Y110.413 E0.0126
G1 X129.698 Y110.086 E0.01258
G1 X129.953 Y109.805 E0.01262
G1 X130.262 Y109.585 E0.01262
G1 X130.609 Y109.433 E0.0126
G1 X131.15 Y109.35 E0.0182
G1 X143.85 Y109.35 E0.4224
G1 X144.227 Y109.39 E0.01261
G1 X144.587 Y109.508 E0.0126
G1 X144.914 Y109.698 E0.01258
G1 X145.195 Y109.953 E0.01262
G1 X145.415 Y110.262 E0.01262
G1 X145.567 Y110.609 E0.0126
G1 X145.65 Y111.15 E0.0182
G1 X145.65 Y123.85 E0.4224
G1 X145.61 Y124.227 E0.01261
G1 X145.492 Y124.587 E0.0126
G1 X145.302 Y124.914 E0.01258
G1 X145.047 Y125.195 E0.01262
G1 X144.738 Y125.415 E0.01262
G1 X144.391 Y125.567 E0.0126
G1 X143.85 Y125.65 E0.0182
G1 X131.15 Y125.65 E0.4224
G1 X130.773 Y125.61 E0.01261
G1 X130.413 Y125.492 E0.0126
G1 X130.086 Y125.302 E0.01258
G1 X129.805 Y125.047 E0.01262
G1 X129.585 Y124.738 E0.01262
G1 X129.433 Y124.391 E0.0126
G1 X129.35 Y123.85 E0.0182
G1 X129.35 Y111.15 E0.4224
G0 F6000 X129.75 Y111.15
G1 F1200 X129.79 Y110.818 E0.01112
G1 X129.907 Y110.506 E0.01108
G1 X130.095 Y110.229 E0.01113
G1 X130.343 Y110.006 E0.01109
G1 X130.637 Y109.847 E0.01112
G1 X130.961 Y109.763 E0.01113
G1 X131.15 Y109.75 E0.0063
G1 X143.85 Y109.75 E0.4224
G1 X144.182 Y109.79 E0.01112
G1 X144.494 Y109.907 E0.01108
G1 X144.771 Y110.095 E0.01113
G1 X144.994 Y110.343 E0.01109
G1 X145.153 Y110.637 E0.01112
G1 X145.237 Y110.961 E0.01113
G1 X145.25 Y111.15 E0.0063
G1 X145.25 Y123.85 E0.4224
G1 X145.21 Y124.182 E0.01112
G1 X145.093 Y124.494 E0.01108
G1 X144.905 Y124.771 E0.01113
G1 X144.657 Y124.994 E0.01109
G1 X144.363 Y125.153 E0.01112
G1 X144.039 Y125.237 E0.01113
G1 X143.85 Y125.25 E0.0063
G1 X131.15 Y125.25 E0.4224
G1 X130.818 Y125.21 E0.01112
G1 X130.506 Y125.093 E0.01108
G1 X130.229 Y124.905 E0.01113
G1 X130.006 Y124.657 E0.01109
G1 X129.847 Y124.363 E0.01112
G1 X129.763 Y124.039 E0.01113
G1 X129.75 Y123.85 E0.0063
G1 X129.75 Y111.15 E0.4224
G0 F6000 X130.15 Y111.15
G1 F1200 X130.19 Y110.871 E0.00937
G1 X130.306 Y110.614 E0.00938
G1 X130.489 Y110.399 E0.00939
G1 X130.725 Y110.245 E0.00937
G1 X130.995 Y110.162 E0.00939
G1 X131.15 Y110.15 E0.00517
G1 X143.85 Y110.15 E0.4224
G1 X144.129 Y110.19 E0.00937
G1 X144.386 Y110.306 E0.00938
G1 X144.601 Y110.489 E0.00939
G1 X144.755 Y110.725 E0.00937
G1 X144.838 Y110.995 E0.00939
G1 X144.85 Y111.15 E0.00517
G1 X144.85 Y123.85 E0.4224
G1 X144.81 Y124.129 E0.00937
G1 X144.694 Y124.386 E0.00938
G1 X144.511 Y124.601 E0.00939
G1 X144.275 Y124.755 E0.00937
G1 X144.005 Y124.838 E0.00939
G1 X143.85 Y124.85 E0.00517
G1 X131.15 Y124.85 E0.4224
G1 X130.871 Y124.81 E0.00937
G1 X130.614 Y124.694 E0.00938
G1 X130.399 Y124.511 E0.00939
G1 X130.245 Y124.275 E0.00937
G1 X130.162 Y124.005 E0.00939
G1 X130.15 Y123.85 E0.00517
G1 X130.15 Y111.15 E0.4224
G0 F6000 X130.55 Y111.15
G1 F1200 X130.59 Y110.935 E0.00727
G1 X130.703 Y110.749 E0.00724
G1 X130.876 Y110.616 E0.00726
G1 X131.15 Y110.55 E0.00937
G1 X143.85 Y110.55 E0.4224
G1 X144.065 Y110.59 E0.00727
G1 X144.251 Y110.703 E0.00724
G1 X144.384 Y110.876 E0.00726
G1 X144.45 Y111.15 E0.00937
G1 X144.45 Y123.85 E0.4224
G1 X144.41 Y124.065 E0.00727
G1 X144.297 Y124.251 E0.00724
G1 X144.124 Y124.384 E0.00726
G1 X143.85 Y124.45 E0.00937
G1 X131.15 Y124.45 E0.4224
G1 X130.935 Y124.41 E0.00727
G1 X130.749 Y124.297 E0.00724
G1 X130.616 Y124.124 E0.00726
G1 X130.55 Y123.85 E0.00937
G1 X130.55 Y111.15 E0.4224
G0 F6000 X130.95 Y111.15
G1 F1200 X130.989 Y111.031 E0.00417
G1 X131.15 Y110.95 E0.00599
G1 X143.85 Y110.95 E0.4224
G1 X143.969 Y110.989 E0.00417
G1 X144.05 Y111.15 E0.00599
G1 X144.05 Y123.85 E0.4224
G1 X144.011 Y123.969 E0.00417
G1 X143.85 Y124.05 E0.00599
G1 X131.15 Y124.05 E0.4224
G1 X131.031 Y124.011 E0.00417
G1 X130.95 Y123.85 E0.00599
G1 X130.95 Y111.15 E0.4224
G1 F2700 E-5
;MESH:CE3_final_3_center.3mf(1)
G0 F6000 X130.485 Y111.15
G0 X124.503 Y110.497
G0 X110.497 Y110.497
G0 X104.515 Y111.564
G0 X103.436 Y111.564
G0 X103.35 Y123.38
G0 X103.65 Y123.65
;TYPE:WALL-OUTER
G1 F2700 E5
G1 F1200 X91.35 Y123.65 E0.4091
G1 X91.35 Y111.35 E0.4091
G1 X103.65 Y111.35 E0.4091
G1 X103.65 Y123.65 E0.4091
G0 F6000 X103.25 Y123.25
;TYPE:WALL-INNER
G1 F1200 X91.75 Y123.25 E0.38249
G1 X91.75 Y111.75 E0.38249
G1 X103.25 Y111.75 E0.38249
G1 X103.25 Y123.25 E0.38249
G0 F6000 X102.86 Y122.86
;TYPE:SKIN
G1 F1200 X92.14 Y122.86 E0.35655
G1 X92.14 Y112.14 E0.35655
G1 X102.86 Y112.14 E0.35655
G1 X102.86 Y122.86 E0.35655
G0 F6000 X103.14 Y122.86
G0 X103.14 Y112.881
G0 X102.699 Y112.881
G1 F1200 X102.117 Y112.299 E0.02738
G0 F6000 X101.551 Y112.299
G1 F1200 X102.699 Y113.447 E0.054
G0 F6000 X102.699 Y114.013
G1 F1200 X100.986 Y112.299 E0.0806
G0 F6000 X100.42 Y112.299
G1 F1200 X102.699 Y114.578 E0.1072
G0 F6000 X102.699 Y115.144
G1 F1200 X99.854 Y112.299 E0.13382
G0 F6000 X99.289 Y112.299
G1 F1200 X102.699 Y115.71 E0.16042
G0 F6000 X102.699 Y116.275
G1 F1200 X98.723 Y112.299 E0.18702
G0 F6000 X98.157 Y112.299
G1 F1200 X102.699 Y116.841 E0.21364
G0 F6000 X102.699 Y117.407
G1 F1200 X97.592 Y112.299 E0.24024
G0 F6000 X97.026 Y112.299
G1 F1200 X102.699 Y117.972 E0.26684
G0 F6000 X102.699 Y118.538
G1 F1200 X96.46 Y112.299 E0.29346
G0 F6000 X95.894 Y112.299
G1 F1200 X102.699 Y119.104 E0.32009
G0 F6000 X102.699 Y119.67
G1 F1200 X95.329 Y112.299 E0.34669
G0 F6000 X94.763 Y112.299
G1 F1200 X102.699 Y120.235 E0.37329
G0 F6000 X102.699 Y120.801
G1 F1200 X94.197 Y112.299 E0.39991
G0 F6000 X93.632 Y112.299
G1 F1200 X102.699 Y121.367 E0.42651
G0 F6000 X102.699 Y121.932
G1 F1200 X93.066 Y112.299 E0.45311
G0 F6000 X92.5 Y112.299
G1 F1200 X102.699 Y122.498 E0.47973
G0 F6000 X102.334 Y122.699
G1 F1200 X92.299 Y112.664 E0.47202
G0 F6000 X92.299 Y113.229
G1 F1200 X101.768 Y122.699 E0.44542
G0 F6000 X101.203 Y122.699
G1 F1200 X92.299 Y113.795 E0.41882
G0 F6000 X92.299 Y114.361
G1 F1200 X100.637 Y122.699 E0.39219
G0 F6000 X100.071 Y122.699
G1 F1200 X92.299 Y114.926 E0.36559
G0 F6000 X92.299 Y115.492
G1 F1200 X99.506 Y122.699 E0.339
G0 F6000 X98.94 Y122.699
G1 F1200 X92.299 Y116.058 E0.31237
G0 F6000 X92.299 Y116.623
G1 F1200 X98.374 Y122.699 E0.28577
G0 F6000 X97.809 Y122.699
G1 F1200 X92.299 Y117.189 E0.25917
G0 F6000 X92.299 Y117.755
G1 F1200 X97.243 Y122.699 E0.23255
G0 F6000 X96.677 Y122.699
G1 F1200 X92.299 Y118.32 E0.20595
G0 F6000 X92.299 Y118.886
G1 F1200 X96.112 Y122.699 E0.17935
G0 F6000 X95.546 Y122.699
G1 F1200 X92.299 Y119.452 E0.15273
G0 F6000 X92.299 Y120.017
G1 F1200 X94.98 Y122.699 E0.12613
G0 F6000 X94.415 Y122.699
G1 F1200 X92.299 Y120.583 E0.09953
G0 F6000 X92.299 Y121.149
G1 F1200 X93.849 Y122.699 E0.07291
G0 F6000 X93.283 Y122.699
G1 F1200 X92.299 Y121.714 E0.04631
G0 F6000 X92.299 Y122.28
G1 F1200 X92.717 Y122.699 E0.01968
G0 F6000 X92.717 Y123.05
G1 F2700 E-5
;MESH:CE3_final_3_center.3mf
G0 F6000 X92.717 Y123.14
G0 X103.43 Y123.38
G0 X104.515 Y123.38
G0 X110.485 Y123.38
G0 X111.57 Y123.38
G0 X123.35 Y123.38
G0 X123.65 Y123.65
;TYPE:WALL-OUTER
G1 F2700 E5
G1 F1200 X111.35 Y123.65 E0.4091
G1 X111.35 Y111.35 E0.4091
G1 X123.65 Y111.35 E0.4091
G1 X123.65 Y123.65 E0.4091
G0 F6000 X123.25 Y123.25
;TYPE:WALL-INNER
G1 F1200 X111.75 Y123.25 E0.38249
G1 X111.75 Y111.75 E0.38249
G1 X123.25 Y111.75 E0.38249
G1 X123.25 Y123.25 E0.38249
G0 F6000 X122.86 Y122.86
;TYPE:SKIN
G1 F1200 X112.14 Y122.86 E0.35655
G1 X112.14 Y112.14 E0.35655
G1 X122.86 Y112.14 E0.35655
G1 X122.86 Y122.86 E0.35655
G0 F6000 X123.14 Y122.86
G0 X123.14 Y112.517
G0 X122.699 Y112.517
G1 F1200 X122.482 Y112.3 E0.01021
G0 F6000 X121.917 Y112.3
G1 F1200 X122.699 Y113.083 E0.03681
G0 F6000 X122.699 Y113.649
G1 F1200 X121.351 Y112.3 E0.06343
G0 F6000 X120.785 Y112.3
