;FLAVOR:Marlin
;TIME:27607
;Filament used: 17.2541m
;Layer height: 0.2
;MINX:89.13
;MINY:89.039
;MINZ:0.2
;MAXX:142.27
;MAXY:149.981
;MAXZ:50.8
;Generated with Cura_SteamEngine 4.8.0
M140 S60
M105
M190 S60
M104 S210
M105
M109 S210
M82 ;absolute extrusion mode
; Ender 3 Custom Start G-code
G92 E0 ; Reset Extruder
G28 ; Home all axes
G1 Z2.0 F3000 ; Move Z Axis up little to prevent scratching of Heat Bed
G1 X0.1 Y20 Z0.3 F5000.0 ; Move to start position
G1 X0.1 Y200.0 Z0.3 F1500.0 E15 ; Draw the first line
G1 X0.4 Y200.0 Z0.3 F5000.0 ; Move to side a little
G1 X0.4 Y20 Z0.3 F1500.0 E30 ; Draw the second line
G92 E0 ; Reset Extruder
G1 Z2.0 F3000 ; Move Z Axis up little to prevent scratching of Heat Bed
G1 X5 Y20 Z0.3 F5000.0 ; Move over to prevent blob squish
M83 ;relative extrusion mode
G1 F2700 E-5
;LAYER_COUNT:254
;LAYER:0
M107
M205 X8 Y8
;MESH:CE3_final_5_center.3mf
G0 F6000 X123.25 Y100.939 Z0.2
;TYPE:WALL-INNER
G1 F2700 E5
G1 F1200 X111.75 Y100.939 E0.38249
G1 X111.75 Y89.439 E0.38249
G1 X123.25 Y89.439 E0.38249
G1 X123.25 Y100.939 E0.38249
G0 F6000 X123.65 Y101.339
;TYPE:WALL-OUTER
G1 F1200 X111.35 Y101.339 E0.4091
G1 X111.35 Y89.039 E0.4091
G1 X123.65 Y89.039 E0.4091
G1 X123.65 Y101.339 E0.4091
G0 F6000 X123.38 Y101.069
G0 X123.14 Y100.549
G0 X122.86 Y100.549
;TYPE:SKIN
G1 F1200 X112.14 Y100.549 E0.35655
G1 X112.14 Y89.829 E0.35655
G1 X122.86 Y89.829 E0.35655
G1 X122.86 Y100.549 E0.35655
G0 F6000 X123.14 Y100.549
G0 X123.14 Y90.455
G0 X122.699 Y90.455
G1 F1200 X122.232 Y89.988 E0.02197
G0 F6000 X121.666 Y89.988
G1 F1200 X122.699 Y91.02 E0.04857
G0 F6000 X122.699 Y91.586
G1 F1200 X121.101 Y89.988 E0.07517
G0 F6000 X120.535 Y89.988
G1 F1200 X122.699 Y92.152 E0.10179
G0 F6000 X122.699 Y92.717
G1 F1200 X119.969 Y89.988 E0.12839
G0 F6000 X119.404 Y89.988
G1 F1200 X122.699 Y93.283 E0.15499
G0 F6000 X122.699 Y93.849
G1 F1200 X118.838 Y89.988 E0.18161
G0 F6000 X118.272 Y89.988
G1 F1200 X122.699 Y94.415 E0.20823
G0 F6000 X122.699 Y94.98
G1 F1200 X117.707 Y89.988 E0.23481
G0 F6000 X117.141 Y89.988
G1 F1200 X122.699 Y95.546 E0.26143
G0 F6000 X122.699 Y96.112
G1 F1200 X116.575 Y89.988 E0.28805
G0 F6000 X116.01 Y89.988
G1 F1200 X122.699 Y96.677 E0.31463
G0 F6000 X122.699 Y97.243
G1 F1200 X115.444 Y89.988 E0.34125
G0 F6000 X114.878 Y89.988
G1 F1200 X122.699 Y97.809 E0.36788
G0 F6000 X122.699 Y98.374
G1 F1200 X114.313 Y89.988 E0.39445
G0 F6000 X113.747 Y89.988
G1 F1200 X122.699 Y98.94 E0.42107
G0 F6000 X122.699 Y99.506
G1 F1200 X113.181 Y89.988 E0.4477
G0 F6000 X112.615 Y89.988
G1 F1200 X122.699 Y100.071 E0.4743
G0 F6000 X122.45 Y100.388
G1 F1200 X112.299 Y90.237 E0.47747
G0 F6000 X112.299 Y90.803
G1 F1200 X121.884 Y100.388 E0.45085
G0 F6000 X121.319 Y100.388
G1 F1200 X112.299 Y91.368 E0.42427
G0 F6000 X112.299 Y91.934
G1 F1200 X120.753 Y100.388 E0.39765
G0 F6000 X120.187 Y100.388
G1 F1200 X112.299 Y92.5 E0.37103
G0 F6000 X112.299 Y93.065
G1 F1200 X119.621 Y100.388 E0.34443
G0 F6000 X119.056 Y100.388
G1 F1200 X112.299 Y93.631 E0.31783
G0 F6000 X112.299 Y94.197
G1 F1200 X118.49 Y100.388 E0.29121
G0 F6000 X117.924 Y100.388
G1 F1200 X112.299 Y94.762 E0.26461
G0 F6000 X112.299 Y95.328
G1 F1200 X117.359 Y100.388 E0.23801
G0 F6000 X116.793 Y100.388
G1 F1200 X112.299 Y95.894 E0.21138
G0 F6000 X112.299 Y96.459
G1 F1200 X116.227 Y100.388 E0.18478
G0 F6000 X115.662 Y100.388
G1 F1200 X112.299 Y97.025 E0.15819
G0 F6000 X112.299 Y97.591
G1 F1200 X115.096 Y100.388 E0.13156
G0 F6000 X114.53 Y100.388
G1 F1200 X112.299 Y98.157 E0.10494
G0 F6000 X112.299 Y98.722
G1 F1200 X113.965 Y100.388 E0.07836
G0 F6000 X113.399 Y100.388
G1 F1200 X112.299 Y99.288 E0.05174
G0 F6000 X112.299 Y99.854
G1 F1200 X112.833 Y100.388 E0.02512
G0 F6000 X112.833 Y100.739
G1 F2700 E-5
;MESH:CE3_final_5_center.3mf(2)
G0 F6000 X112.833 Y100.829
G0 X123.436 Y101.125
G0 X123.436 Y102.204
G0 X130.184 Y110.485
G0 X130.184 Y111.564
G0 X130.37 Y123.25
;TYPE:WALL-INNER
G1 F2700 E5
G1 F1200 X130.37 Y111.75 E0.38249
G1 X141.87 Y111.75 E0.38249
G1 X141.87 Y123.25 E0.38249
G1 X130.37 Y123.25 E0.38249
G0 F6000 X129.97 Y123.65
;TYPE:WALL-OUTER
G1 F1200 X129.97 Y111.35 E0.4091
G1 X142.27 Y111.35 E0.4091
G1 X142.27 Y123.65 E0.4091
G1 X129.97 Y123.65 E0.4091
G0 F6000 X130.24 Y123.38
G0 X130.48 Y122.86
G0 X130.76 Y122.86
;TYPE:SKIN
G1 F1200 X130.76 Y112.14 E0.35655
G1 X141.48 Y112.14 E0.35655
G1 X141.48 Y122.86 E0.35655
G1 X130.76 Y122.86 E0.35655
G0 F6000 X131.185 Y122.699
G1 F1200 X130.919 Y122.434 E0.01249
G0 F6000 X130.919 Y121.868
G1 F1200 X131.75 Y122.699 E0.03909
G0 F6000 X132.316 Y122.699
G1 F1200 X130.919 Y121.302 E0.06571
G0 F6000 X130.919 Y120.737
G1 F1200 X132.882 Y122.699 E0.09231
G0 F6000 X133.448 Y122.699
G1 F1200 X130.919 Y120.171 E0.11893
G0 F6000 X130.919 Y119.605
G1 F1200 X134.013 Y122.699 E0.14553
G0 F6000 X134.579 Y122.699
G1 F1200 X130.919 Y119.04 E0.17213
G0 F6000 X130.919 Y118.474
G1 F1200 X135.145 Y122.699 E0.19875
G0 F6000 X135.71 Y122.699
G1 F1200 X130.919 Y117.908 E0.22535
G0 F6000 X130.919 Y117.342
G1 F1200 X136.276 Y122.699 E0.25198
G0 F6000 X136.842 Y122.699
G1 F1200 X130.919 Y116.777 E0.27858
G0 F6000 X130.919 Y116.211
G1 F1200 X137.407 Y122.699 E0.30518
G0 F6000 X137.973 Y122.699
G1 F1200 X130.919 Y115.645 E0.3318
G0 F6000 X130.919 Y115.08
G1 F1200 X138.539 Y122.699 E0.3584
G0 F6000 X139.104 Y122.699
G1 F1200 X130.919 Y114.514 E0.385
G0 F6000 X130.919 Y113.948
G1 F1200 X139.67 Y122.699 E0.41162
G0 F6000 X140.236 Y122.699
G1 F1200 X130.919 Y113.383 E0.43822
G0 F6000 X130.919 Y112.817
G1 F1200 X140.801 Y122.699 E0.46482
G0 F6000 X141.319 Y122.651
G1 F1200 X130.967 Y112.299 E0.48693
G0 F6000 X131.533 Y112.299
G1 F1200 X141.319 Y122.086 E0.46033
G0 F6000 X141.319 Y121.52
G1 F1200 X132.098 Y112.299 E0.43373
G0 F6000 X132.664 Y112.299
G1 F1200 X141.319 Y120.954 E0.4071
G0 F6000 X141.319 Y120.389
G1 F1200 X133.23 Y112.299 E0.38051
G0 F6000 X133.795 Y112.299
G1 F1200 X141.319 Y119.823 E0.35391
G0 F6000 X141.319 Y119.257
G1 F1200 X134.361 Y112.299 E0.32728
G0 F6000 X134.927 Y112.299
G1 F1200 X141.319 Y118.692 E0.30068
G0 F6000 X141.319 Y118.126
G1 F1200 X135.492 Y112.299 E0.27408
G0 F6000 X136.058 Y112.299
G1 F1200 X141.319 Y117.56 E0.24746
G0 F6000 X141.319 Y116.995
G1 F1200 X136.624 Y112.299 E0.22086
G0 F6000 X137.19 Y112.299
G1 F1200 X141.319 Y116.429 E0.19424
G0 F6000 X141.319 Y115.863
G1 F1200 X137.755 Y112.299 E0.16764
G0 F6000 X138.321 Y112.299
G1 F1200 X141.319 Y115.298 E0.14104
G0 F6000 X141.319 Y114.732
G1 F1200 X138.887 Y112.299 E0.11442
G0 F6000 X139.452 Y112.299
G1 F1200 X141.319 Y114.166 E0.08782
G0 F6000 X141.319 Y113.6
G1 F1200 X140.018 Y112.299 E0.0612
G0 F6000 X140.584 Y112.299
G1 F1200 X141.319 Y113.035 E0.0346
G0 F6000 X141.319 Y112.469
G1 F1200 X141.149 Y112.299 E0.008
G0 F6000 X141.149 Y111.95
G1 F2700 E-5
;MESH:CE3_final_5_center.3mf(1)
G0 F6000 X141.149 Y111.86
G0 X130.552 Y111.932
G0 X130.184 Y123.436
G0 X130.184 Y124.515
G0 X130.184 Y136.044
G0 X130.184 Y137.129
G0 X128.682 Y137.491
G0 X128.5 Y148.809
;TYPE:WALL-INNER
G1 F2700 E5
G1 F1200 X128.5 Y137.309 E0.38249
G1 X140 Y137.309 E0.38249
G1 X140 Y148.809 E0.38249
G1 X128.5 Y148.809 E0.38249
G0 F6000 X128.1 Y149.209
;TYPE:WALL-OUTER
G1 F1200 X128.1 Y136.909 E0.4091
G1 X140.4 Y136.909 E0.4091
G1 X140.4 Y149.209 E0.4091
G1 X128.1 Y149.209 E0.4091
G0 F6000 X128.37 Y148.939
G0 X128.61 Y148.419
G0 X128.89 Y148.419
;TYPE:SKIN
G1 F1200 X128.89 Y137.699 E0.35655
G1 X139.61 Y137.699 E0.35655
G1 X139.61 Y148.419 E0.35655
G1 X128.89 Y148.419 E0.35655
G0 F6000 X129.59 Y148.257
G1 F1200 X129.05 Y147.718 E0.02538
G0 F6000 X129.05 Y147.152
G1 F1200 X130.155 Y148.257 E0.05198
G0 F6000 X130.721 Y148.257
G1 F1200 X129.05 Y146.586 E0.0786
G0 F6000 X129.05 Y146.021
G1 F1200 X131.287 Y148.257 E0.1052
G0 F6000 X131.852 Y148.257
G1 F1200 X129.05 Y145.455 E0.1318
G0 F6000 X129.05 Y144.889
G1 F1200 X132.418 Y148.257 E0.15842
G0 F6000 X132.984 Y148.257
G1 F1200 X129.05 Y144.324 E0.18502
G0 F6000 X129.05 Y143.758
G1 F1200 X133.549 Y148.257 E0.21162
G0 F6000 X134.115 Y148.257
G1 F1200 X129.05 Y143.192 E0.23824
G0 F6000 X129.05 Y142.626
G1 F1200 X134.681 Y148.257 E0.26486
G0 F6000 X135.246 Y148.257
G1 F1200 X129.05 Y142.061 E0.29144
G0 F6000 X129.05 Y141.495
G1 F1200 X135.812 Y148.257 E0.31806
G0 F6000 X136.378 Y148.257
G1 F1200 X129.05 Y140.929 E0.34469
G0 F6000 X129.05 Y140.364
G1 F1200 X136.943 Y148.257 E0.37126
G0 F6000 X137.509 Y148.257
G1 F1200 X129.05 Y139.798 E0.39789
G0 F6000 X129.05 Y139.232
G1 F1200 X138.075 Y148.257 E0.42451
G0 F6000 X138.641 Y148.257
G1 F1200 X129.05 Y138.667 E0.45111
G0 F6000 X129.05 Y138.101
G1 F1200 X139.206 Y148.257 E0.47771
G0 F6000 X139.449 Y147.935
G1 F1200 X129.373 Y137.858 E0.47397
G0 F6000 X129.939 Y137.858
G1 F1200 X139.449 Y147.369 E0.44734
G0 F6000 X139.449 Y146.803
G1 F1200 X130.505 Y137.858 E0.42072
G0 F6000 X131.07 Y137.858
G1 F1200 X139.449 Y146.238 E0.39415
G0 F6000 X139.449 Y145.672
G1 F1200 X131.636 Y137.858 E0.36752
G0 F6000 X132.202 Y137.858
G1 F1200 X139.449 Y145.106 E0.3409
G0 F6000 X139.449 Y144.541
G1 F1200 X132.767 Y137.858 E0.31432
G0 F6000 X133.333 Y137.858
G1 F1200 X139.449 Y143.975 E0.2877
G0 F6000 X139.449 Y143.409
G1 F1200 X133.899 Y137.858 E0.26108
G0 F6000 X134.464 Y137.858
G1 F1200 X139.449 Y142.844 E0.2345
G0 F6000 X139.449 Y142.278
G1 F1200 X135.03 Y137.858 E0.20788
G0 F6000 X135.596 Y137.858
G1 F1200 X139.449 Y141.712 E0.18126
G0 F6000 X139.449 Y141.146
G1 F1200 X136.161 Y137.858 E0.15466
G0 F6000 X136.727 Y137.858
G1 F1200 X139.449 Y140.581 E0.12806
G0 F6000 X139.449 Y140.015
G1 F1200 X137.293 Y137.858 E0.10144
G0 F6000 X137.858 Y137.858
G1 F1200 X139.449 Y139.449 E0.07484
G0 F6000 X139.449 Y138.884
G1 F1200 X138.424 Y137.858 E0.04824
G0 F6000 X138.99 Y137.858
G1 F1200 X139.449 Y138.318 E0.02161
G0 F6000 X139.8 Y138.318
G1 F2700 E-5
;MESH:CE3_final_5_center.3mf(4)
G0 F6000 X139.89 Y138.318
G0 X139.818 Y148.627
G0 X128.314 Y148.995
G0 X127.235 Y148.995
G0 X110.915 Y148.995
G0 X109.83 Y148.995
G0 X109.65 Y149.581
;TYPE:WALL-INNER
G1 F2700 E5
G1 F1200 X98.15 Y149.581 E0.38249
G1 X98.15 Y138.081 E0.38249
G1 X109.65 Y138.081 E0.38249
G1 X109.65 Y149.581 E0.38249
G0 F6000 X110.05 Y149.981
;TYPE:WALL-OUTER
G1 F1200 X97.75 Y149.981 E0.4091
G1 X97.75 Y137.681 E0.4091
G1 X110.05 Y137.681 E0.4091
G1 X110.05 Y149.981 E0.4091
G0 F6000 X109.78 Y149.711
G0 X109.54 Y149.191
G0 X109.26 Y149.191
;TYPE:SKIN
G1 F1200 X98.54 Y149.191 E0.35655
G1 X98.54 Y138.471 E0.35655
G1 X109.26 Y138.471 E0.35655
G1 X109.26 Y149.191 E0.35655
G0 F6000 X109.54 Y149.191
G0 X109.54 Y139.081
G0 X109.1 Y139.081
G1 F1200 X108.649 Y138.63 E0.02121
G0 F6000 X108.083 Y138.63
G1 F1200 X109.1 Y139.647 E0.04784
G0 F6000 X109.1 Y140.212
G1 F1200 X107.517 Y138.63 E0.07444
G0 F6000 X106.952 Y138.63
G1 F1200 X109.1 Y140.778 E0.10104
G0 F6000 X109.1 Y141.344
G1 F1200 X106.386 Y138.63 E0.12766
G0 F6000 X105.82 Y138.63
G1 F1200 X109.1 Y141.909 E0.15426
G0 F6000 X109.1 Y142.475
G1 F1200 X105.254 Y138.63 E0.18088
G0 F6000 X104.689 Y138.63
G1 F1200 X109.1 Y143.041 E0.20748
G0 F6000 X109.1 Y143.607
G1 F1200 X104.123 Y138.63 E0.2341
G0 F6000 X103.557 Y138.63
G1 F1200 X109.1 Y144.172 E0.2607
G0 F6000 X109.1 Y144.738
G1 F1200 X102.992 Y138.63 E0.2873
G0 F6000 X102.426 Y138.63
G1 F1200 X109.1 Y145.304 E0.31392
G0 F6000 X109.1 Y145.869
G1 F1200 X101.86 Y138.63 E0.34052
G0 F6000 X101.295 Y138.63
G1 F1200 X109.1 Y146.435 E0.36712
G0 F6000 X109.1 Y147.001
G1 F1200 X100.729 Y138.63 E0.39375
G0 F6000 X100.163 Y138.63
G1 F1200 X109.1 Y147.566 E0.42035
G0 F6000 X109.1 Y148.132
G1 F1200 X99.598 Y138.63 E0.44694
G0 F6000 X99.032 Y138.63
G1 F1200 X109.1 Y148.698 E0.47357
G0 F6000 X108.866 Y149.03
G1 F1200 X98.7 Y138.863 E0.4782
G0 F6000 X98.7 Y139.429
G1 F1200 X108.301 Y149.03 E0.4516
G0 F6000 X107.735 Y149.03
G1 F1200 X98.7 Y139.995 E0.42498
G0 F6000 X98.7 Y140.56
G1 F1200 X107.169 Y149.03 E0.39838
G0 F6000 X106.604 Y149.03
G1 F1200 X98.7 Y141.126 E0.37178
G0 F6000 X98.7 Y141.692
G1 F1200 X106.038 Y149.03 E0.34516
G0 F6000 X105.472 Y149.03
G1 F1200 X98.7 Y142.257 E0.31856
G0 F6000 X98.7 Y142.823
G1 F1200 X104.907 Y149.03 E0.29196
G0 F6000 X104.341 Y149.03
G1 F1200 X98.7 Y143.389 E0.26534
G0 F6000 X98.7 Y143.954
G1 F1200 X103.775 Y149.03 E0.23874
G0 F6000 X103.21 Y149.03
G1 F1200 X98.7 Y144.52 E0.21214
G0 F6000 X98.7 Y145.086
G1 F1200 X102.644 Y149.03 E0.18551
G0 F6000 X102.078 Y149.03
G1 F1200 X98.7 Y145.651 E0.15891
G0 F6000 X98.7 Y146.217
G1 F1200 X101.512 Y149.03 E0.13229
G0 F6000 X100.947 Y149.03
G1 F1200 X98.7 Y146.783 E0.10569
G0 F6000 X98.7 Y147.349
G1 F1200 X100.381 Y149.03 E0.07907
G0 F6000 X99.815 Y149.03
G1 F1200 X98.7 Y147.914 E0.05247
G0 F6000 X98.7 Y148.48
G1 F1200 X99.25 Y149.03 E0.02587
G0 F6000 X99.25 Y149.381
G1 F2700 E-5
;MESH:CE3_final_5_center.3mf(3)
G0 F6000 X99.25 Y149.471
G0 X98.332 Y149.399
G0 X98.332 Y138.263
G0 X101.03 Y137.901
G0 X101.03 Y136.816
G0 X101.03 Y124.515
G0 X101.03 Y123.43
G0 X101.03 Y123.25
;TYPE:WALL-INNER
G1 F2700 E5
G1 F1200 X89.53 Y123.25 E0.38249
G1 X89.53 Y111.75 E0.38249
G1 X101.03 Y111.75 E0.38249
G1 X101.03 Y123.25 E0.38249
G0 F6000 X101.43 Y123.65
;TYPE:WALL-OUTER
G1 F1200 X89.13 Y123.65 E0.4091
G1 X89.13 Y111.35 E0.4091
G1 X101.43 Y111.35 E0.4091
G1 X101.43 Y123.65 E0.4091
G0 F6000 X101.16 Y123.38
G0 X100.92 Y122.86
G0 X100.64 Y122.86
;TYPE:SKIN
G1 F1200 X89.92 Y122.86 E0.35655
G1 X89.92 Y112.14 E0.35655
G1 X100.64 Y112.14 E0.35655
G1 X100.64 Y122.86 E0.35655
G0 F6000 X100.92 Y122.86
G0 X100.92 Y112.359
G0 X100.48 Y112.359
G1 F1200 X100.42 Y112.299 E0.00282
G0 F6000 X99.854 Y112.299
G1 F1200 X100.48 Y112.925 E0.02945
G0 F6000 X100.48 Y113.491
G1 F1200 X99.289 Y112.299 E0.05604
G0 F6000 X98.723 Y112.299
G1 F1200 X100.48 Y114.057 E0.08267
G0 F6000 X100.48 Y114.622
G1 F1200 X98.157 Y112.299 E0.10927
G0 F6000 X97.592 Y112.299
G1 F1200 X100.48 Y115.188 E0.13587
G0 F6000 X100.48 Y115.754
G1 F1200 X97.026 Y112.299 E0.16249
G0 F6000 X96.46 Y112.299
G1 F1200 X100.48 Y116.319 E0.18909
G0 F6000 X100.48 Y116.885
G1 F1200 X95.894 Y112.299 E0.21571
G0 F6000 X95.329 Y112.299
G1 F1200 X100.48 Y117.451 E0.24231
G0 F6000 X100.48 Y118.016
G1 F1200 X94.763 Y112.299 E0.26891
G0 F6000 X94.197 Y112.299
G1 F1200 X100.48 Y118.582 E0.29553
G0 F6000 X100.48 Y119.148
G1 F1200 X93.632 Y112.299 E0.32213
G0 F6000 X93.066 Y112.299
G1 F1200 X100.48 Y119.713 E0.34873
G0 F6000 X100.48 Y120.279
G1 F1200 X92.5 Y112.299 E0.37535
G0 F6000 X91.935 Y112.299
G1 F1200 X100.48 Y120.845 E0.40195
G0 F6000 X100.48 Y121.41
G1 F1200 X91.369 Y112.299 E0.42855
G0 F6000 X90.803 Y112.299
G1 F1200 X100.48 Y121.976 E0.45518
G0 F6000 X100.48 Y122.542
G1 F1200 X90.238 Y112.299 E0.48178
G0 F6000 X90.08 Y112.707
G1 F1200 X100.071 Y122.699 E0.46997
G0 F6000 X99.506 Y122.699
G1 F1200 X90.08 Y113.273 E0.44337
G0 F6000 X90.08 Y113.839
G1 F1200 X98.94 Y122.699 E0.41675
G0 F6000 X98.374 Y122.699
G1 F1200 X90.08 Y114.404 E0.39015
G0 F6000 X90.08 Y114.97
G1 F1200 X97.809 Y122.699 E0.36355
G0 F6000 X97.243 Y122.699
G1 F1200 X90.08 Y115.536 E0.33693
G0 F6000 X90.08 Y116.101
G1 F1200 X96.677 Y122.699 E0.31033
G0 F6000 X96.112 Y122.699
G1 F1200 X90.08 Y116.667 E0.28373
G0 F6000 X90.08 Y117.233
G1 F1200 X95.546 Y122.699 E0.2571
G0 F6000 X94.98 Y122.699
G1 F1200 X90.08 Y117.799 E0.23048
G0 F6000 X90.08 Y118.364
G1 F1200 X94.415 Y122.699 E0.20391
G0 F6000 X93.849 Y122.699
G1 F1200 X90.08 Y118.93 E0.17728
G0 F6000 X90.08 Y119.496
G1 F1200 X93.283 Y122.699 E0.15066
G0 F6000 X92.717 Y122.699
G1 F1200 X90.08 Y120.061 E0.12406
G0 F6000 X90.08 Y120.627
G1 F1200 X92.152 Y122.699 E0.09746
G0 F6000 X91.586 Y122.699
G1 F1200 X90.08 Y121.193 E0.07084
G0 F6000 X90.08 Y121.758
G1 F1200 X91.02 Y122.699 E0.04424
G0 F6000 X90.455 Y122.699
G1 F1200 X90.08 Y122.324 E0.01764
G0 F6000 X89.73 Y122.324
G1 F2700 E-5
;MESH:NONMESH
G0 F300 X89.73 Y122.324 Z0.4
G0 F6000 X89.64 Y122.324
G0 X89.712 Y111.932
G0 X101.216 Y111.564
G0 X101.216 Y110.485
G0 X110.485 Y101.125
G0 X111.564 Y101.125
G0 X123.25 Y100.939
;TIME_ELAPSED:129.850557
;LAYER:1
M106 S85
;TYPE:WALL-INNER
;MESH:CE3_final_5_center.3mf
G1 F2700 E5
G1 F1350 X111.75 Y100.939 E0.38249
G1 X111.75 Y89.439 E0.38249
G1 X123.25 Y89.439 E0.38249
G1 X123.25 Y100.939 E0.38249
