;FLAVOR:Marlin
;TIME:3367
;Filament used: 2.39966m
;Layer height: 0.2
;MINX:86.427
;MINY:103.73
;MINZ:0.2
;MAXX:148.574
;MAXY:131.27
;MAXZ:12.4
;Generated with Cura_SteamEngine 4.8.0
M140 S85
M105
M190 S85
M104 S235
M105
M109 S235
M82 ;absolute extrusion mode
; Ender 3 Custom Start G-code
G92 E0 ; Reset Extruder
G28 ; Home all axes
G1 Z2.0 F3000 ; Move Z Axis up little to prevent scratching of Heat Bed
G1 X0.1 Y20 Z0.3 F5000.0 ; Move to start position
G1 X0.1 Y200.0 Z0.3 F1500.0 E15 ; Draw the first line
G1 X0.4 Y200.0 Z0.3 F5000.0 ; Move to side a little
G1 X0.4 Y20 Z0.3 F1500.0 E30 ; Draw the second line
G92 E0 ; Reset Extruder
G1 Z2.0 F3000 ; Move Z Axis up little to prevent scratching of Heat Bed
G1 X5 Y20 Z0.3 F5000.0 ; Move over to prevent blob squish
M83 ;relative extrusion mode
G1 F2700 E-5
;LAYER_COUNT:62
;LAYER:0
M107
M205 X8 Y8
G0 F6000 X87.03 Y104.185 Z0.2
;TYPE:SKIRT
G1 F2700 E5
G1 F1200 X87.339 Y103.965 E0.01262
G1 X87.686 Y103.813 E0.0126
G1 X88.227 Y103.73 E0.0182
G1 X146.774 Y103.73 E1.94728
G1 X147.151 Y103.77 E0.01261
G1 X147.511 Y103.888 E0.0126
G1 X147.838 Y104.078 E0.01258
G1 X148.119 Y104.333 E0.01262
G1 X148.339 Y104.642 E0.01262
G1 X148.491 Y104.989 E0.0126
G1 X148.574 Y105.53 E0.0182
G1 X148.574 Y129.47 E0.79625
G1 X148.534 Y129.847 E0.01261
G1 X148.416 Y130.207 E0.0126
G1 X148.226 Y130.534 E0.01258
G1 X147.971 Y130.815 E0.01262
G1 X147.662 Y131.035 E0.01262
G1 X147.315 Y131.187 E0.0126
G1 X146.774 Y131.27 E0.0182
G1 X88.227 Y131.27 E1.94728
G1 X87.85 Y131.23 E0.01261
G1 X87.49 Y131.112 E0.0126
G1 X87.163 Y130.922 E0.01258
G1 X86.882 Y130.667 E0.01262
G1 X86.662 Y130.358 E0.01262
G1 X86.51 Y130.011 E0.0126
G1 X86.427 Y129.47 E0.0182
G1 X86.427 Y105.53 E0.79625
G1 X86.467 Y105.153 E0.01261
G1 X86.585 Y104.793 E0.0126
G1 X86.775 Y104.466 E0.01258
G1 X87.03 Y104.185 E0.01262
G0 F6000 X87.42 Y104.386
G1 F1200 X87.714 Y104.227 E0.01112
G1 X88.038 Y104.143 E0.01113
G1 X88.227 Y104.13 E0.0063
G1 X146.774 Y104.13 E1.94728
G1 X147.106 Y104.17 E0.01112
G1 X147.418 Y104.287 E0.01108
G1 X147.695 Y104.475 E0.01113
G1 X147.918 Y104.723 E0.01109
G1 X148.077 Y105.017 E0.01112
G1 X148.161 Y105.341 E0.01113
G1 X148.174 Y105.53 E0.0063
G1 X148.174 Y129.47 E0.79625
G1 X148.134 Y129.802 E0.01112
G1 X148.017 Y130.114 E0.01108
G1 X147.829 Y130.391 E0.01113
G1 X147.581 Y130.614 E0.01109
G1 X147.287 Y130.773 E0.01112
G1 X146.963 Y130.857 E0.01113
G1 X146.774 Y130.87 E0.0063
G1 X88.227 Y130.87 E1.94728
G1 X87.895 Y130.83 E0.01112
G1 X87.583 Y130.713 E0.01108
G1 X87.306 Y130.525 E0.01113
G1 X87.083 Y130.277 E0.01109
G1 X86.924 Y129.983 E0.01112
G1 X86.84 Y129.659 E0.01113
G1 X86.827 Y129.47 E0.0063
G1 X86.827 Y105.53 E0.79625
G1 X86.867 Y105.198 E0.01112
G1 X86.984 Y104.886 E0.01108
G1 X87.172 Y104.609 E0.01113
G1 X87.42 Y104.386 E0.01109
G0 F6000 X87.566 Y104.779
G1 F1200 X87.802 Y104.625 E0.00937
G1 X88.072 Y104.542 E0.00939
G1 X88.227 Y104.53 E0.00517
G1 X146.774 Y104.53 E1.94728
G1 X147.053 Y104.57 E0.00937
G1 X147.31 Y104.686 E0.00938
G1 X147.525 Y104.869 E0.00939
G1 X147.679 Y105.105 E0.00937
G1 X147.762 Y105.375 E0.00939
G1 X147.774 Y105.53 E0.00517
G1 X147.774 Y129.47 E0.79625
G1 X147.734 Y129.749 E0.00937
G1 X147.618 Y130.006 E0.00938
G1 X147.435 Y130.221 E0.00939
G1 X147.199 Y130.375 E0.00937
G1 X146.929 Y130.458 E0.00939
G1 X146.774 Y130.47 E0.00517
G1 X88.227 Y130.47 E1.94728
G1 X87.948 Y130.43 E0.00937
G1 X87.691 Y130.314 E0.00938
G1 X87.476 Y130.131 E0.00939
G1 X87.322 Y129.895 E0.00937
G1 X87.239 Y129.625 E0.00939
G1 X87.227 Y129.47 E0.00517
G1 X87.227 Y105.53 E0.79625
G1 X87.267 Y105.251 E0.00937
G1 X87.383 Y104.994 E0.00938
G1 X87.566 Y104.779 E0.00939
G0 F6000 X87.78 Y105.129
G1 F1200 X87.953 Y104.996 E0.00726
G1 X88.227 Y104.93 E0.00937
G1 X146.774 Y104.93 E1.94728
G1 X146.989 Y104.97 E0.00727
G1 X147.175 Y105.083 E0.00724
G1 X147.308 Y105.256 E0.00726
G1 X147.374 Y105.53 E0.00937
G1 X147.374 Y129.47 E0.79625
G1 X147.334 Y129.685 E0.00727
G1 X147.221 Y129.871 E0.00724
G1 X147.048 Y130.004 E0.00726
G1 X146.774 Y130.07 E0.00937
G1 X88.227 Y130.07 E1.94728
G1 X88.012 Y130.03 E0.00727
G1 X87.826 Y129.917 E0.00724
G1 X87.693 Y129.744 E0.00726
G1 X87.627 Y129.47 E0.00937
G1 X87.627 Y105.53 E0.79625
G1 X87.667 Y105.315 E0.00727
G1 X87.78 Y105.129 E0.00724
G0 F6000 X88.066 Y105.411
G1 F1200 X88.227 Y105.33 E0.00599
G1 X146.774 Y105.33 E1.94728
G1 X146.893 Y105.369 E0.00417
G1 X146.974 Y105.53 E0.00599
G1 X146.974 Y129.47 E0.79625
G1 X146.935 Y129.589 E0.00417
G1 X146.774 Y129.67 E0.00599
G1 X88.227 Y129.67 E1.94728
G1 X88.108 Y129.631 E0.00417
G1 X88.027 Y129.47 E0.00599
G1 X88.027 Y105.53 E0.79625
G1 X88.066 Y105.411 E0.00417
G1 F2700 E-5
;MESH:Brick.stl
G0 F6000 X88.641 Y105.944
G0 X88.727 Y129
G0 X88.427 Y129.27
;TYPE:WALL-OUTER
G1 F2700 E5
G1 F1200 X88.427 Y105.73 E0.78294
G1 X146.574 Y105.73 E1.93398
G1 X146.574 Y129.27 E0.78294
G1 X88.427 Y129.27 E1.93398
G1 F2700 E-5
G0 F6000 X88.727 Y129
G0 X103.192 Y128.66
G0 X103.192 Y130.135
G0 X102.383 Y122.495
G0 X102.573 Y123.937
G0 X103.192 Y123.553
G0 X103.079 Y123.275
G1 F2700 E5
G1 F1200 X104.43 Y122.716 E0.04863
G1 X105.589 Y121.826 E0.0486
G1 X106.479 Y120.666 E0.04863
G1 X107.038 Y119.315 E0.04863
G1 X107.229 Y117.866 E0.04861
G1 X107.038 Y116.417 E0.04861
G1 X106.479 Y115.067 E0.0486
G1 X105.589 Y113.907 E0.04863
G1 X104.43 Y113.017 E0.0486
G1 X103.079 Y112.458 E0.04863
G1 X101.63 Y112.267 E0.04861
G1 X100.181 Y112.458 E0.04861
G1 X98.83 Y113.017 E0.04863
G1 X97.67 Y113.907 E0.04863
G1 X96.78 Y115.067 E0.04863
G1 X96.221 Y116.417 E0.0486
G1 X96.03 Y117.866 E0.04861
G1 X96.221 Y119.315 E0.04861
G1 X96.78 Y120.666 E0.04863
G1 X97.67 Y121.826 E0.04863
G1 X98.83 Y122.716 E0.04863
G1 X100.181 Y123.275 E0.04863
G1 X101.63 Y123.466 E0.04861
G1 X103.079 Y123.275 E0.04861
G0 F6000 X103.183 Y123.665
;TYPE:WALL-INNER
G1 F1200 X104.632 Y123.065 E0.05216
G1 X105.874 Y122.111 E0.05209
G1 X106.828 Y120.868 E0.05212
G1 X107.428 Y119.419 E0.05216
G1 X107.632 Y117.866 E0.0521
G1 X107.428 Y116.313 E0.0521
G1 X106.828 Y114.865 E0.05213
G1 X105.874 Y113.622 E0.05212
G1 X104.632 Y112.668 E0.05209
G1 X103.183 Y112.068 E0.05216
G1 X101.63 Y111.864 E0.0521
G1 X100.077 Y112.068 E0.0521
G1 X98.628 Y112.668 E0.05216
G1 X97.385 Y113.622 E0.05212
G1 X96.431 Y114.865 E0.05212
G1 X95.831 Y116.313 E0.05213
G1 X95.627 Y117.866 E0.0521
G1 X95.831 Y119.419 E0.0521
G1 X96.431 Y120.868 E0.05216
G1 X97.385 Y122.111 E0.05212
G1 X98.628 Y123.065 E0.05212
G1 X100.077 Y123.665 E0.05216
G1 X101.63 Y123.869 E0.0521
G1 X103.183 Y123.665 E0.0521
G1 F2700 E-5
G0 F6000 X106.01 Y122.247
G0 X104.972 Y121.209
G0 X114.58 Y121.209
G0 X121.355 Y121.209
G0 X130.609 Y121.209
G0 X129.571 Y122.247
G0 X132.386 Y123.551
G0 X132.502 Y123.275
;TYPE:WALL-OUTER
G1 F2700 E5
G1 F1200 X133.951 Y123.466 E0.04861
G1 X135.4 Y123.275 E0.04861
G1 X136.751 Y122.716 E0.04863
G1 X137.911 Y121.826 E0.04863
G1 X138.801 Y120.666 E0.04863
G1 X139.36 Y119.315 E0.04863
G1 X139.551 Y117.866 E0.04861
G1 X139.36 Y116.417 E0.04861
G1 X138.801 Y115.067 E0.0486
G1 X137.911 Y113.907 E0.04863
G1 X136.751 Y113.017 E0.04863
G1 X135.4 Y112.458 E0.04863
G1 X133.951 Y112.267 E0.04861
G1 X132.502 Y112.458 E0.04861
G1 X131.152 Y113.017 E0.0486
G1 X129.992 Y113.907 E0.04863
G1 X129.102 Y115.067 E0.04863
G1 X128.543 Y116.417 E0.0486
G1 X128.352 Y117.866 E0.04861
G1 X128.543 Y119.315 E0.04861
G1 X129.102 Y120.666 E0.04863
G1 X129.992 Y121.826 E0.04863
G1 X131.152 Y122.716 E0.04863
G1 X132.502 Y123.275 E0.0486
G0 F6000 X132.398 Y123.665
;TYPE:WALL-INNER
G1 F1200 X133.951 Y123.869 E0.0521
G1 X135.504 Y123.665 E0.0521
G1 X136.953 Y123.065 E0.05216
G1 X138.196 Y122.111 E0.05212
G1 X139.15 Y120.868 E0.05212
G1 X139.75 Y119.419 E0.05216
G1 X139.954 Y117.866 E0.0521
G1 X139.75 Y116.313 E0.0521
G1 X139.15 Y114.865 E0.05213
G1 X138.196 Y113.622 E0.05212
G1 X136.953 Y112.668 E0.05212
G1 X135.504 Y112.068 E0.05216
G1 X133.951 Y111.864 E0.0521
G1 X132.398 Y112.068 E0.0521
G1 X130.95 Y112.668 E0.05213
G1 X129.707 Y113.622 E0.05212
G1 X128.753 Y114.865 E0.05212
G1 X128.153 Y116.313 E0.05213
G1 X127.949 Y117.866 E0.0521
G1 X128.153 Y119.419 E0.0521
G1 X128.753 Y120.868 E0.05216
G1 X129.707 Y122.111 E0.05212
G1 X130.95 Y123.065 E0.05212
G1 X132.398 Y123.665 E0.05213
G1 F2700 E-5
G0 F6000 X129.571 Y122.247
G0 X130.609 Y121.209
G0 X121.355 Y121.209
G0 X122.393 Y122.247
G0 X119.524 Y123.508
G0 X117.973 Y123.763
G0 X118.013 Y123.466
;TYPE:WALL-OUTER
G1 F2700 E5
G1 F1200 X119.462 Y123.275 E0.04861
G1 X120.813 Y122.716 E0.04863
G1 X121.972 Y121.826 E0.0486
G1 X122.862 Y120.666 E0.04863
G1 X123.421 Y119.315 E0.04863
G1 X123.612 Y117.866 E0.04861
G1 X123.421 Y116.417 E0.04861
G1 X122.862 Y115.067 E0.0486
G1 X121.972 Y113.907 E0.04863
G1 X120.813 Y113.017 E0.0486
G1 X119.462 Y112.458 E0.04863
G1 X118.013 Y112.267 E0.04861
G1 X116.564 Y112.458 E0.04861
G1 X115.213 Y113.017 E0.04863
G1 X114.074 Y113.891 E0.04775
G1 X114.038 Y113.927 E0.00169
G1 X113.163 Y115.067 E0.0478
G1 X112.604 Y116.417 E0.0486
G1 X112.413 Y117.866 E0.04861
G1 X112.604 Y119.315 E0.04861
G1 X113.163 Y120.666 E0.04863
G1 X114.053 Y121.826 E0.04863
G1 X115.213 Y122.716 E0.04863
G1 X116.564 Y123.275 E0.04863
G1 X118.013 Y123.466 E0.04861
G0 F6000 X118.013 Y123.869
;TYPE:WALL-INNER
G1 F1200 X119.566 Y123.665 E0.0521
G1 X121.015 Y123.065 E0.05216
G1 X122.257 Y122.111 E0.05209
G1 X123.211 Y120.868 E0.05212
G1 X123.811 Y119.419 E0.05216
G1 X124.015 Y117.866 E0.0521
G1 X123.811 Y116.313 E0.0521
G1 X123.211 Y114.865 E0.05213
G1 X122.257 Y113.622 E0.05212
G1 X121.015 Y112.668 E0.05209
G1 X119.566 Y112.068 E0.05216
G1 X118.013 Y111.864 E0.0521
G1 X116.46 Y112.068 E0.0521
G1 X115.011 Y112.668 E0.05216
G1 X113.81 Y113.59 E0.05036
G1 X113.737 Y113.663 E0.00343
G1 X112.814 Y114.865 E0.05041
G1 X112.214 Y116.313 E0.05213
G1 X112.01 Y117.866 E0.0521
G1 X112.214 Y119.419 E0.0521
G1 X112.814 Y120.868 E0.05216
G1 X113.768 Y122.111 E0.05212
G1 X115.011 Y123.065 E0.05212
G1 X116.46 Y123.665 E0.05216
G1 X118.013 Y123.869 E0.0521
G1 F2700 E-5
G0 F6000 X116.41 Y123.851
G0 X116.786 Y122.432
G0 X116.41 Y130.135
G0 X116.41 Y128.66
G0 X88.827 Y128.87
G1 F2700 E5
G1 F1200 X88.827 Y106.13 E0.75634
G1 X146.174 Y106.13 E1.90737
G1 X146.174 Y128.87 E0.75634
G1 X88.827 Y128.87 E1.90737
G0 F6000 X89.217 Y128.48
;TYPE:SKIN
G1 F1200 X89.217 Y106.52 E0.73039
G1 X145.784 Y106.52 E1.88143
G1 X145.784 Y128.48 E0.73039
G1 X89.217 Y128.48 E1.88143
G1 F2700 E-5
G0 F6000 X88.937 Y128.48
G0 X97.307 Y128.66
G0 X97.307 Y130.135
G0 X99.268 Y121.963
G0 X98.532 Y123.231
G0 X97.307 Y122.191
G0 X97.106 Y122.39
G1 F2700 E5
G1 F1200 X98.431 Y123.406 E0.05553
G1 X99.975 Y124.045 E0.05558
G1 X101.63 Y124.263 E0.05552
G1 X103.285 Y124.045 E0.05552
G1 X104.829 Y123.406 E0.05558
G1 X106.153 Y122.389 E0.05553
G1 X107.169 Y121.065 E0.05551
G1 X107.808 Y119.521 E0.05558
G1 X108.026 Y117.866 E0.05552
G1 X107.808 Y116.211 E0.05552
G1 X107.169 Y114.668 E0.05555
G1 X106.153 Y113.344 E0.05551
G1 X104.829 Y112.327 E0.05553
G1 X103.285 Y111.688 E0.05558
G1 X101.63 Y111.47 E0.05552
G1 X99.975 Y111.688 E0.05552
G1 X98.431 Y112.327 E0.05558
G1 X97.106 Y113.343 E0.05553
G1 X96.09 Y114.668 E0.05553
G1 X95.451 Y116.211 E0.05555
G1 X95.233 Y117.866 E0.05552
G1 X95.451 Y119.521 E0.05552
G1 X96.09 Y121.065 E0.05558
G1 X97.106 Y122.39 E0.05553
G1 F2700 E-5
G0 F6000 X97.307 Y122.191
G0 X98.71 Y122.925
G0 X100.119 Y123.508
G0 X101.63 Y123.708
G0 X103.141 Y123.508
G0 X104.55 Y122.925
G0 X105.76 Y121.997
G0 X107.614 Y119.469
G0 X106.195 Y119.093
G0 X113.397 Y118.71
G0 X111.954 Y118.901
G0 X112.107 Y119.449
G0 X111.834 Y119.521
G1 F2700 E5
G1 F1200 X112.473 Y121.065 E0.05558
G1 X113.489 Y122.39 E0.05553
G1 X114.814 Y123.406 E0.05553
G1 X116.358 Y124.045 E0.05558
G1 X118.013 Y124.263 E0.05552
G1 X119.668 Y124.045 E0.05552
G1 X121.212 Y123.406 E0.05558
G1 X122.536 Y122.389 E0.05553
G1 X123.552 Y121.065 E0.05551
G1 X124.191 Y119.521 E0.05558
G1 X124.409 Y117.866 E0.05552
G1 X124.191 Y116.211 E0.05552
G1 X123.552 Y114.668 E0.05555
G1 X122.536 Y113.344 E0.05551
G1 X121.212 Y112.327 E0.05553
G1 X119.668 Y111.688 E0.05558
G1 X118.013 Y111.47 E0.05552
G1 X116.358 Y111.688 E0.05552
G1 X114.814 Y112.327 E0.05558
G1 X113.552 Y113.296 E0.05292
G1 X113.443 Y113.405 E0.00513
G1 X112.473 Y114.668 E0.05297
G1 X111.834 Y116.211 E0.05555
G1 X111.616 Y117.866 E0.05552
G1 X111.834 Y119.521 E0.05552
G1 F2700 E-5
G0 F6000 X112.107 Y119.449
G0 X112.954 Y120.786
G0 X113.882 Y121.997
G0 X115.093 Y122.925
G0 X116.502 Y123.508
G0 X118.013 Y123.708
G0 X119.524 Y123.508
G0 X120.933 Y122.925
G0 X122.143 Y121.997
G0 X122.978 Y120.908
G0 X124.069 Y118.926
G0 X122.624 Y118.736
G0 X129.274 Y118.242
G0 X127.812 Y118.435
G0 X128.046 Y119.449
G0 X127.773 Y119.521
G1 F2700 E5
G1 F1200 X128.412 Y121.065 E0.05558
G1 X129.428 Y122.39 E0.05553
G1 X130.753 Y123.406 E0.05553
G1 X132.296 Y124.045 E0.05555
G1 X133.951 Y124.263 E0.05552
G1 X135.606 Y124.045 E0.05552
G1 X137.15 Y123.406 E0.05558
G1 X138.475 Y122.39 E0.05553
G1 X139.491 Y121.065 E0.05553
G1 X140.13 Y119.521 E0.05558
G1 X140.348 Y117.866 E0.05552
G1 X140.13 Y116.211 E0.05552
G1 X139.491 Y114.668 E0.05555
G1 X138.475 Y113.343 E0.05553
G1 X137.15 Y112.327 E0.05553
G1 X135.606 Y111.688 E0.05558
G1 X133.951 Y111.47 E0.05552
G1 X132.296 Y111.688 E0.05552
G1 X130.753 Y112.327 E0.05555
G1 X129.428 Y113.343 E0.05553
G1 X128.412 Y114.668 E0.05553
G1 X127.773 Y116.211 E0.05555
G1 X127.555 Y117.866 E0.05552
G1 X127.773 Y119.521 E0.05552
G1 F2700 E-5
G0 F6000 X128.046 Y119.449
G0 X128.11 Y117.866
G0 X128.31 Y116.355
G0 X128.893 Y114.947
G0 X129.821 Y113.736
G0 X131.032 Y112.808
G0 X132.44 Y112.225
G0 X133.951 Y112.025
G0 X135.462 Y112.225
G0 X138.332 Y113.486
G0 X137.294 Y114.524
G0 X147.439 Y113.486
G0 X145.964 Y113.486
G0 X146.064 Y107.156
G0 X145.622 Y107.156
G1 F2700 E5
G1 F1200 X145.146 Y106.679 E0.02241
G0 F6000 X144.58 Y106.679
G1 F1200 X145.622 Y107.722 E0.04904
G0 F6000 X145.622 Y108.287
G1 F1200 X144.015 Y106.679 E0.07561
G0 F6000 X143.449 Y106.679
G1 F1200 X145.622 Y108.853 E0.10223
G0 F6000 X145.622 Y109.419
G1 F1200 X142.883 Y106.679 E0.12886
G0 F6000 X142.317 Y106.679
G1 F1200 X145.622 Y109.984 E0.15546
G0 F6000 X145.622 Y110.55
G1 F1200 X141.752 Y106.679 E0.18206
G0 F6000 X141.186 Y106.679
G1 F1200 X145.622 Y111.116 E0.20868
G0 F6000 X145.622 Y111.681
G1 F1200 X140.62 Y106.679 E0.23528
G0 F6000 X140.055 Y106.679
G1 F1200 X145.622 Y112.247 E0.26188
G0 F6000 X145.622 Y112.813
G1 F1200 X139.489 Y106.679 E0.2885
G0 F6000 X138.923 Y106.679
G1 F1200 X145.622 Y113.378 E0.3151
G0 F6000 X145.622 Y113.944
G1 F1200 X138.358 Y106.679 E0.3417
G0 F6000 X137.792 Y106.679
G1 F1200 X145.622 Y114.51 E0.36832
G0 F6000 X145.622 Y115.075
G1 F1200 X137.226 Y106.679 E0.39492
G0 F6000 X136.661 Y106.679
G1 F1200 X145.622 Y115.641 E0.42152
G0 F6000 X145.622 Y116.207
G1 F1200 X136.095 Y106.679 E0.44814
G0 F6000 X135.529 Y106.679
G1 F1200 X145.622 Y116.773 E0.47477
G0 F6000 X145.622 Y117.338
G1 F1200 X134.964 Y106.679 E0.50134
G0 F6000 X134.398 Y106.679
G1 F1200 X145.622 Y117.904 E0.52797
G0 F6000 X145.622 Y118.47
G1 F1200 X133.832 Y106.679 E0.55459
G0 F6000 X133.267 Y106.679
G1 F1200 X145.622 Y119.035 E0.58116
G0 F6000 X145.622 Y119.601
G1 F1200 X132.701 Y106.679 E0.60779
G0 F6000 X132.135 Y106.679
G1 F1200 X145.622 Y120.167 E0.63441
G0 F6000 X145.622 Y120.732
G1 F1200 X139.738 Y114.848 E0.27677
G0 F6000 X139.331 Y115.016
G0 X139.732 Y115.982
G0 X140.139 Y115.814
G1 F1200 X145.622 Y121.298 E0.25793
G0 F6000 X145.622 Y121.864
G1 F1200 X140.339 Y116.58 E0.24852
G0 F6000 X140.425 Y117.231
G1 F1200 X145.622 Y122.429 E0.24447
G0 F6000 X145.622 Y122.995
G1 F1200 X140.506 Y117.878 E0.24066
G0 F6000 X140.44 Y118.378
G1 F1200 X145.622 Y123.561 E0.24377
G0 F6000 X145.622 Y124.126
G1 F1200 X140.374 Y118.878 E0.24685
G0 F6000 X140.309 Y119.378
G1 F1200 X145.622 Y124.692 E0.24993
G0 F6000 X145.622 Y125.258
G1 F1200 X140.18 Y119.815 E0.256
G0 F6000 X140.014 Y120.215
G1 F1200 X145.622 Y125.823 E0.26378
G0 F6000 X145.622 Y126.389
G1 F1200 X139.849 Y120.616 E0.27154
G0 F6000 X139.683 Y121.016
G1 F1200 X145.622 Y126.955 E0.27935
G0 F6000 X145.622 Y127.521
