;FLAVOR:Marlin
;TIME:27979
;Filament used: 17.4949m
;Layer height: 0.2
;MINX:81.13
;MINY:81.039
;MINZ:0.2
;MAXX:150.27
;MAXY:157.981
;MAXZ:50.8
;Generated with Cura_SteamEngine 4.8.0
M140 S100
M105
M190 S100
M104 S230
M105
M109 S230
M82 ;absolute extrusion mode
; Ender 3 Custom Start G-code
G92 E0 ; Reset Extruder
G28 ; Home all axes
G1 Z2.0 F3000 ; Move Z Axis up little to prevent scratching of Heat Bed
G1 X0.1 Y20 Z0.3 F5000.0 ; Move to start position
G1 X0.1 Y200.0 Z0.3 F1500.0 E15 ; Draw the first line
G1 X0.4 Y200.0 Z0.3 F5000.0 ; Move to side a little
G1 X0.4 Y20 Z0.3 F1500.0 E30 ; Draw the second line
G92 E0 ; Reset Extruder
G1 Z2.0 F3000 ; Move Z Axis up little to prevent scratching of Heat Bed
G1 X5 Y20 Z0.3 F5000.0 ; Move over to prevent blob squish
M83 ;relative extrusion mode
G1 F2700 E-5
;LAYER_COUNT:254
;LAYER:0
M107
M205 X8 Y8
G0 F6000 X105.23 Y83.761 Z0.2
;TYPE:SKIRT
G1 F2700 E5
G1 F1200 X105.773 Y83.188 E0.02626
G1 X106.372 Y82.673 E0.02627
G1 X107.02 Y82.222 E0.02626
G1 X107.711 Y81.838 E0.02629
G1 X108.436 Y81.526 E0.02625
G1 X109.189 Y81.289 E0.02626
G1 X109.963 Y81.13 E0.02628
G1 X110.748 Y81.049 E0.02625
G1 X111.15 Y81.039 E0.01337
G1 X123.85 Y81.039 E0.4224
G1 X124.639 Y81.079 E0.02628
G1 X125.419 Y81.198 E0.02624
G1 X126.184 Y81.396 E0.02628
G1 X126.924 Y81.67 E0.02625
G1 X127.633 Y82.018 E0.02627
G1 X128.304 Y82.436 E0.02629
G1 X128.928 Y82.919 E0.02625
G1 X129.501 Y83.462 E0.02626
G1 X130.016 Y84.061 E0.02627
G1 X130.467 Y84.709 E0.02626
G1 X130.851 Y85.4 E0.02629
G1 X131.163 Y86.125 E0.02625
G1 X131.4 Y86.878 E0.02626
G1 X131.559 Y87.652 E0.02628
G1 X131.64 Y88.437 E0.02625
G1 X131.65 Y88.839 E0.01337
G1 X131.65 Y101.539 E0.4224
G1 X131.61 Y102.328 E0.02628
G1 X131.491 Y103.108 E0.02624
G1 X131.428 Y103.35 E0.00832
G1 X142.47 Y103.35 E0.36726
G1 X143.259 Y103.39 E0.02628
G1 X144.039 Y103.509 E0.02624
G1 X144.804 Y103.707 E0.02628
G1 X145.544 Y103.981 E0.02625
G1 X146.253 Y104.329 E0.02627
G1 X146.924 Y104.747 E0.02629
G1 X147.548 Y105.23 E0.02625
G1 X148.121 Y105.773 E0.02626
G1 X148.636 Y106.372 E0.02627
G1 X149.087 Y107.02 E0.02626
G1 X149.471 Y107.711 E0.02629
G1 X149.783 Y108.436 E0.02625
G1 X150.02 Y109.189 E0.02626
G1 X150.179 Y109.963 E0.02628
G1 X150.26 Y110.748 E0.02625
G1 X150.27 Y111.15 E0.01337
G1 X150.27 Y123.85 E0.4224
G1 X150.23 Y124.639 E0.02628
G1 X150.111 Y125.419 E0.02624
G1 X149.913 Y126.184 E0.02628
G1 X149.639 Y126.924 E0.02625
G1 X149.291 Y127.633 E0.02627
G1 X148.873 Y128.304 E0.02629
G1 X148.39 Y128.928 E0.02625
G1 X147.847 Y129.501 E0.02626
G1 X147.248 Y130.016 E0.02627
G1 X146.6 Y130.467 E0.02626
G1 X145.909 Y130.851 E0.02629
G1 X145.795 Y130.9 E0.00413
G1 X146.251 Y131.332 E0.02089
G1 X146.766 Y131.931 E0.02627
G1 X147.217 Y132.579 E0.02626
G1 X147.601 Y133.27 E0.02629
G1 X147.913 Y133.995 E0.02625
G1 X148.15 Y134.748 E0.02626
G1 X148.309 Y135.522 E0.02628
G1 X148.39 Y136.307 E0.02625
G1 X148.4 Y136.709 E0.01337
G1 X148.4 Y149.409 E0.4224
G1 X148.36 Y150.198 E0.02628
G1 X148.241 Y150.978 E0.02624
G1 X148.043 Y151.743 E0.02628
G1 X147.769 Y152.483 E0.02625
G1 X147.421 Y153.192 E0.02627
G1 X147.003 Y153.863 E0.02629
G1 X146.52 Y154.487 E0.02625
G1 X145.977 Y155.06 E0.02626
G1 X145.378 Y155.575 E0.02627
G1 X144.73 Y156.026 E0.02626
G1 X144.039 Y156.41 E0.02629
G1 X143.314 Y156.722 E0.02625
G1 X142.561 Y156.959 E0.02626
G1 X141.787 Y157.118 E0.02628
G1 X141.002 Y157.199 E0.02625
G1 X140.6 Y157.209 E0.01337
G1 X127.9 Y157.209 E0.4224
G1 X127.111 Y157.169 E0.02628
G1 X126.331 Y157.05 E0.02624
G1 X125.566 Y156.852 E0.02628
G1 X124.826 Y156.578 E0.02625
G1 X124.117 Y156.23 E0.02627
G1 X123.446 Y155.812 E0.02629
G1 X122.822 Y155.329 E0.02625
G1 X122.249 Y154.786 E0.02626
G1 X121.734 Y154.187 E0.02627
G1 X121.283 Y153.539 E0.02626
G1 X120.899 Y152.848 E0.02629
G1 X120.587 Y152.123 E0.02625
G1 X120.35 Y151.37 E0.02626
G1 X120.191 Y150.596 E0.02628
G1 X120.11 Y149.811 E0.02625
G1 X120.1 Y149.409 E0.01337
G1 X120.1 Y136.709 E0.4224
G1 X120.14 Y135.92 E0.02628
G1 X120.259 Y135.14 E0.02624
G1 X120.457 Y134.375 E0.02628
G1 X120.731 Y133.635 E0.02625
G1 X121.079 Y132.926 E0.02627
G1 X121.497 Y132.255 E0.02629
G1 X121.98 Y131.631 E0.02625
G1 X122.523 Y131.058 E0.02626
G1 X123.122 Y130.543 E0.02627
G1 X123.77 Y130.092 E0.02626
G1 X124.461 Y129.708 E0.02629
G1 X124.575 Y129.659 E0.00413
G1 X124.119 Y129.227 E0.02089
G1 X123.604 Y128.628 E0.02627
G1 X123.153 Y127.98 E0.02626
G1 X122.769 Y127.289 E0.02629
G1 X122.457 Y126.564 E0.02625
G1 X122.22 Y125.811 E0.02626
G1 X122.061 Y125.037 E0.02628
G1 X121.98 Y124.252 E0.02625
G1 X121.97 Y123.85 E0.01337
G1 X121.97 Y111.15 E0.4224
G1 X122.01 Y110.361 E0.02628
G1 X122.129 Y109.581 E0.02624
G1 X122.192 Y109.339 E0.00832
G1 X111.15 Y109.339 E0.36726
G1 X110.361 Y109.299 E0.02628
G1 X109.581 Y109.18 E0.02624
G1 X109.141 Y109.066 E0.01512
G1 X109.18 Y109.189 E0.00429
G1 X109.339 Y109.963 E0.02628
G1 X109.42 Y110.748 E0.02625
G1 X109.43 Y111.15 E0.01337
G1 X109.43 Y123.85 E0.4224
G1 X109.39 Y124.639 E0.02628
G1 X109.271 Y125.419 E0.02624
G1 X109.073 Y126.184 E0.02628
G1 X108.799 Y126.924 E0.02625
G1 X108.451 Y127.633 E0.02627
G1 X108.033 Y128.304 E0.02629
G1 X107.55 Y128.928 E0.02625
G1 X107.007 Y129.501 E0.02626
G1 X106.798 Y129.681 E0.00917
G1 X110.25 Y129.681 E0.11481
G1 X111.039 Y129.721 E0.02628
G1 X111.819 Y129.84 E0.02624
G1 X112.584 Y130.038 E0.02628
G1 X113.324 Y130.312 E0.02625
G1 X114.033 Y130.66 E0.02627
G1 X114.704 Y131.078 E0.02629
G1 X115.328 Y131.561 E0.02625
G1 X115.901 Y132.104 E0.02626
G1 X116.416 Y132.703 E0.02627
G1 X116.867 Y133.351 E0.02626
G1 X117.251 Y134.042 E0.02629
G1 X117.563 Y134.767 E0.02625
G1 X117.8 Y135.52 E0.02626
G1 X117.959 Y136.294 E0.02628
G1 X118.04 Y137.079 E0.02625
G1 X118.05 Y137.481 E0.01337
G1 X118.05 Y150.181 E0.4224
G1 X118.01 Y150.97 E0.02628
G1 X117.891 Y151.75 E0.02624
G1 X117.693 Y152.515 E0.02628
G1 X117.419 Y153.255 E0.02625
G1 X117.071 Y153.964 E0.02627
G1 X116.653 Y154.635 E0.02629
G1 X116.17 Y155.259 E0.02625
G1 X115.627 Y155.832 E0.02626
G1 X115.028 Y156.347 E0.02627
G1 X114.38 Y156.798 E0.02626
G1 X113.689 Y157.182 E0.02629
G1 X112.964 Y157.494 E0.02625
G1 X112.211 Y157.731 E0.02626
G1 X111.437 Y157.89 E0.02628
G1 X110.652 Y157.971 E0.02625
G1 X110.25 Y157.981 E0.01337
G1 X97.55 Y157.981 E0.4224
G1 X96.761 Y157.941 E0.02628
G1 X95.981 Y157.822 E0.02624
G1 X95.216 Y157.624 E0.02628
G1 X94.476 Y157.35 E0.02625
G1 X93.767 Y157.002 E0.02627
G1 X93.096 Y156.584 E0.02629
G1 X92.472 Y156.101 E0.02625
G1 X91.899 Y155.558 E0.02626
G1 X91.384 Y154.959 E0.02627
G1 X90.933 Y154.311 E0.02626
G1 X90.549 Y153.62 E0.02629
G1 X90.237 Y152.895 E0.02625
G1 X90 Y152.142 E0.02626
G1 X89.841 Y151.368 E0.02628
G1 X89.76 Y150.583 E0.02625
G1 X89.75 Y150.181 E0.01337
G1 X89.75 Y137.481 E0.4224
G1 X89.79 Y136.692 E0.02628
G1 X89.909 Y135.912 E0.02624
G1 X90.107 Y135.147 E0.02628
G1 X90.381 Y134.407 E0.02625
G1 X90.729 Y133.698 E0.02627
G1 X91.147 Y133.027 E0.02629
G1 X91.63 Y132.403 E0.02625
G1 X92.173 Y131.83 E0.02626
G1 X92.382 Y131.65 E0.00917
G1 X88.93 Y131.65 E0.11481
G1 X88.141 Y131.61 E0.02628
G1 X87.361 Y131.491 E0.02624
G1 X86.596 Y131.293 E0.02628
G1 X85.856 Y131.019 E0.02625
G1 X85.147 Y130.671 E0.02627
G1 X84.476 Y130.253 E0.02629
G1 X83.852 Y129.77 E0.02625
G1 X83.279 Y129.227 E0.02626
G1 X82.764 Y128.628 E0.02627
G1 X82.313 Y127.98 E0.02626
G1 X81.929 Y127.289 E0.02629
G1 X81.617 Y126.564 E0.02625
G1 X81.38 Y125.811 E0.02626
G1 X81.221 Y125.037 E0.02628
G1 X81.14 Y124.252 E0.02625
G1 X81.13 Y123.85 E0.01337
G1 X81.13 Y111.15 E0.4224
G1 X81.17 Y110.361 E0.02628
G1 X81.289 Y109.581 E0.02624
G1 X81.487 Y108.816 E0.02628
G1 X81.761 Y108.076 E0.02625
G1 X82.109 Y107.367 E0.02627
G1 X82.527 Y106.696 E0.02629
G1 X83.01 Y106.072 E0.02625
G1 X83.553 Y105.499 E0.02626
G1 X84.152 Y104.984 E0.02627
G1 X84.8 Y104.533 E0.02626
G1 X85.491 Y104.149 E0.02629
G1 X86.216 Y103.837 E0.02625
G1 X86.969 Y103.6 E0.02626
G1 X87.743 Y103.441 E0.02628
G1 X88.528 Y103.36 E0.02625
G1 X88.93 Y103.35 E0.01337
G1 X101.63 Y103.35 E0.4224
G1 X102.419 Y103.39 E0.02628
G1 X103.199 Y103.509 E0.02624
G1 X103.639 Y103.623 E0.01512
G1 X103.6 Y103.5 E0.00429
G1 X103.441 Y102.726 E0.02628
G1 X103.36 Y101.941 E0.02625
G1 X103.35 Y101.539 E0.01337
G1 X103.35 Y88.839 E0.4224
G1 X103.39 Y88.05 E0.02628
G1 X103.509 Y87.27 E0.02624
G1 X103.707 Y86.505 E0.02628
G1 X103.981 Y85.765 E0.02625
G1 X104.329 Y85.056 E0.02627
G1 X104.747 Y84.385 E0.02629
G1 X105.23 Y83.761 E0.02625
G0 F6000 X105.625 Y83.916
G1 F1200 X106.166 Y83.369 E0.02559
G1 X106.761 Y82.881 E0.02559
G1 X107.403 Y82.458 E0.02557
G1 X108.086 Y82.103 E0.0256
G1 X108.801 Y81.822 E0.02555
G1 X109.543 Y81.616 E0.02561
G1 X110.301 Y81.488 E0.02557
G1 X111.15 Y81.439 E0.02828
G1 X123.85 Y81.439 E0.4224
G1 X124.618 Y81.479 E0.02558
G1 X125.378 Y81.598 E0.02559
G1 X126.121 Y81.796 E0.02557
G1 X126.84 Y82.07 E0.02559
G1 X127.526 Y82.417 E0.02557
G1 X128.173 Y82.833 E0.02558
G1 X128.773 Y83.314 E0.02558
G1 X129.32 Y83.855 E0.02559
G1 X129.808 Y84.45 E0.02559
G1 X130.231 Y85.092 E0.02557
G1 X130.586 Y85.775 E0.0256
G1 X130.867 Y86.49 E0.02555
G1 X131.073 Y87.232 E0.02561
G1 X131.201 Y87.99 E0.02557
G1 X131.25 Y88.839 E0.02828
G1 X131.25 Y101.539 E0.4224
G1 X131.21 Y102.307 E0.02558
G1 X131.091 Y103.067 E0.02559
G1 X130.909 Y103.75 E0.02351
G1 X142.47 Y103.75 E0.38452
G1 X143.238 Y103.79 E0.02558
G1 X143.998 Y103.909 E0.02559
G1 X144.741 Y104.107 E0.02557
G1 X145.46 Y104.381 E0.02559
G1 X146.146 Y104.728 E0.02557
G1 X146.793 Y105.144 E0.02558
G1 X147.393 Y105.625 E0.02558
G1 X147.94 Y106.166 E0.02559
G1 X148.428 Y106.761 E0.02559
G1 X148.851 Y107.403 E0.02557
G1 X149.206 Y108.086 E0.0256
G1 X149.487 Y108.801 E0.02555
G1 X149.693 Y109.543 E0.02561
G1 X149.821 Y110.301 E0.02557
G1 X149.87 Y111.15 E0.02828
G1 X149.87 Y123.85 E0.4224
G1 X149.83 Y124.618 E0.02558
G1 X149.711 Y125.378 E0.02559
G1 X149.513 Y126.121 E0.02557
G1 X149.239 Y126.84 E0.02559
G1 X148.892 Y127.526 E0.02557
G1 X148.476 Y128.173 E0.02558
G1 X147.995 Y128.773 E0.02558
G1 X147.454 Y129.32 E0.02559
G1 X146.859 Y129.808 E0.02559
G1 X146.217 Y130.231 E0.02557
G1 X145.534 Y130.586 E0.0256
G1 X145.026 Y130.786 E0.01816
G1 X145.523 Y131.184 E0.02118
G1 X146.07 Y131.725 E0.02559
G1 X146.558 Y132.32 E0.02559
G1 X146.981 Y132.962 E0.02557
G1 X147.336 Y133.645 E0.0256
G1 X147.617 Y134.36 E0.02555
G1 X147.823 Y135.102 E0.02561
G1 X147.951 Y135.86 E0.02557
G1 X148 Y136.709 E0.02828
G1 X148 Y149.409 E0.4224
G1 X147.96 Y150.177 E0.02558
G1 X147.841 Y150.937 E0.02559
G1 X147.643 Y151.68 E0.02557
G1 X147.369 Y152.399 E0.02559
G1 X147.022 Y153.085 E0.02557
G1 X146.606 Y153.732 E0.02558
G1 X146.125 Y154.332 E0.02558
G1 X145.584 Y154.879 E0.02559
G1 X144.989 Y155.367 E0.02559
G1 X144.347 Y155.79 E0.02557
G1 X143.664 Y156.145 E0.0256
G1 X142.949 Y156.426 E0.02555
G1 X142.207 Y156.632 E0.02561
G1 X141.449 Y156.76 E0.02557
G1 X140.6 Y156.809 E0.02828
G1 X127.9 Y156.809 E0.4224
G1 X127.132 Y156.769 E0.02558
G1 X126.372 Y156.65 E0.02559
G1 X125.629 Y156.452 E0.02557
G1 X124.91 Y156.178 E0.02559
G1 X124.224 Y155.831 E0.02557
G1 X123.577 Y155.415 E0.02558
G1 X122.977 Y154.934 E0.02558
G1 X122.43 Y154.393 E0.02559
G1 X121.942 Y153.798 E0.02559
G1 X121.519 Y153.156 E0.02557
G1 X121.164 Y152.473 E0.0256
G1 X120.883 Y151.758 E0.02555
G1 X120.677 Y151.016 E0.02561
G1 X120.549 Y150.258 E0.02557
G1 X120.5 Y149.409 E0.02828
G1 X120.5 Y136.709 E0.4224
G1 X120.54 Y135.941 E0.02558
G1 X120.659 Y135.181 E0.02559
G1 X120.857 Y134.438 E0.02557
G1 X121.131 Y133.719 E0.02559
G1 X121.478 Y133.033 E0.02557
G1 X121.894 Y132.386 E0.02558
G1 X122.375 Y131.786 E0.02558
G1 X122.916 Y131.239 E0.02559
G1 X123.511 Y130.751 E0.02559
G1 X124.153 Y130.328 E0.02557
G1 X124.836 Y129.973 E0.0256
G1 X125.344 Y129.773 E0.01816
G1 X124.847 Y129.375 E0.02118
G1 X124.3 Y128.834 E0.02559
G1 X123.812 Y128.239 E0.02559
G1 X123.389 Y127.597 E0.02557
G1 X123.034 Y126.914 E0.0256
G1 X122.753 Y126.199 E0.02555
G1 X122.547 Y125.457 E0.02561
G1 X122.419 Y124.699 E0.02557
G1 X122.37 Y123.85 E0.02828
G1 X122.37 Y111.15 E0.4224
G1 X122.41 Y110.382 E0.02558
G1 X122.529 Y109.622 E0.02559
G1 X122.711 Y108.939 E0.02351
G1 X111.15 Y108.939 E0.38452
G1 X110.382 Y108.899 E0.02558
G1 X109.622 Y108.78 E0.02559
G1 X108.879 Y108.582 E0.02557
G1 X108.505 Y108.439 E0.01332
G1 X108.647 Y108.801 E0.01293
G1 X108.853 Y109.543 E0.02561
G1 X108.981 Y110.301 E0.02557
G1 X109.03 Y111.15 E0.02828
G1 X109.03 Y123.85 E0.4224
G1 X108.99 Y124.618 E0.02558
G1 X108.871 Y125.378 E0.02559
G1 X108.673 Y126.121 E0.02557
G1 X108.399 Y126.84 E0.02559
G1 X108.052 Y127.526 E0.02557
G1 X107.636 Y128.173 E0.02558
G1 X107.155 Y128.773 E0.02558
G1 X106.614 Y129.32 E0.02559
G1 X106.019 Y129.808 E0.02559
G1 X105.605 Y130.081 E0.01649
G1 X110.25 Y130.081 E0.15449
G1 X111.018 Y130.121 E0.02558
G1 X111.778 Y130.24 E0.02559
G1 X112.521 Y130.438 E0.02557
G1 X113.24 Y130.712 E0.02559
G1 X113.926 Y131.059 E0.02557
G1 X114.573 Y131.475 E0.02558
G1 X115.173 Y131.956 E0.02558
G1 X115.72 Y132.497 E0.02559
G1 X116.208 Y133.092 E0.02559
G1 X116.631 Y133.734 E0.02557
G1 X116.986 Y134.417 E0.0256
G1 X117.267 Y135.132 E0.02555
G1 X117.473 Y135.874 E0.02561
G1 X117.601 Y136.632 E0.02557
G1 X117.65 Y137.481 E0.02828
G1 X117.65 Y150.181 E0.4224
G1 X117.61 Y150.949 E0.02558
G1 X117.491 Y151.709 E0.02559
G1 X117.293 Y152.452 E0.02557
G1 X117.019 Y153.171 E0.02559
G1 X116.672 Y153.857 E0.02557
G1 X116.256 Y154.504 E0.02558
G1 X115.775 Y155.104 E0.02558
G1 X115.234 Y155.651 E0.02559
G1 X114.639 Y156.139 E0.02559
G1 X113.997 Y156.562 E0.02557
G1 X113.314 Y156.917 E0.0256
G1 X112.599 Y157.198 E0.02555
G1 X111.857 Y157.404 E0.02561
G1 X111.099 Y157.532 E0.02557
G1 X110.25 Y157.581 E0.02828
G1 X97.55 Y157.581 E0.4224
G1 X96.782 Y157.541 E0.02558
G1 X96.022 Y157.422 E0.02559
G1 X95.279 Y157.224 E0.02557
G1 X94.56 Y156.95 E0.02559
G1 X93.874 Y156.603 E0.02557
G1 X93.227 Y156.187 E0.02558
G1 X92.627 Y155.706 E0.02558
G1 X92.08 Y155.165 E0.02559
G1 X91.592 Y154.57 E0.02559
G1 X91.169 Y153.928 E0.02557
G1 X90.814 Y153.245 E0.0256
G1 X90.533 Y152.53 E0.02555
G1 X90.327 Y151.788 E0.02561
G1 X90.199 Y151.03 E0.02557
G1 X90.15 Y150.181 E0.02828
G1 X90.15 Y137.481 E0.4224
G1 X90.19 Y136.713 E0.02558
G1 X90.309 Y135.953 E0.02559
G1 X90.507 Y135.21 E0.02557
G1 X90.781 Y134.491 E0.02559
G1 X91.128 Y133.805 E0.02557
G1 X91.544 Y133.158 E0.02558
G1 X92.025 Y132.558 E0.02558
G1 X92.566 Y132.011 E0.02559
G1 X93.161 Y131.523 E0.02559
G1 X93.575 Y131.25 E0.01649
G1 X88.93 Y131.25 E0.15449
G1 X88.162 Y131.21 E0.02558
G1 X87.402 Y131.091 E0.02559
G1 X86.659 Y130.893 E0.02557
G1 X85.94 Y130.619 E0.02559
G1 X85.254 Y130.272 E0.02557
G1 X84.607 Y129.856 E0.02558
G1 X84.007 Y129.375 E0.02558
G1 X83.46 Y128.834 E0.02559
G1 X82.972 Y128.239 E0.02559
G1 X82.549 Y127.597 E0.02557
G1 X82.194 Y126.914 E0.0256
G1 X81.913 Y126.199 E0.02555
G1 X81.707 Y125.457 E0.02561
G1 X81.579 Y124.699 E0.02557
G1 X81.53 Y123.85 E0.02828
G1 X81.53 Y111.15 E0.4224
G1 X81.57 Y110.382 E0.02558
G1 X81.689 Y109.622 E0.02559
G1 X81.887 Y108.879 E0.02557
G1 X82.161 Y108.16 E0.02559
G1 X82.508 Y107.474 E0.02557
G1 X82.924 Y106.827 E0.02558
G1 X83.405 Y106.227 E0.02558
G1 X83.946 Y105.68 E0.02559
G1 X84.541 Y105.192 E0.02559
G1 X85.183 Y104.769 E0.02557
G1 X85.866 Y104.414 E0.0256
G1 X86.581 Y104.133 E0.02555
G1 X87.323 Y103.927 E0.02561
G1 X88.081 Y103.799 E0.02557
G1 X88.93 Y103.75 E0.02828
G1 X101.63 Y103.75 E0.4224
G1 X102.398 Y103.79 E0.02558
G1 X103.158 Y103.909 E0.02559
G1 X103.901 Y104.107 E0.02557
G1 X104.275 Y104.25 E0.01332
G1 X104.133 Y103.888 E0.01293
G1 X103.927 Y103.146 E0.02561
G1 X103.799 Y102.388 E0.02557
G1 X103.75 Y101.539 E0.02828
G1 X103.75 Y88.839 E0.4224
G1 X103.79 Y88.071 E0.02558
G1 X103.909 Y87.311 E0.02559
G1 X104.107 Y86.568 E0.02557
G1 X104.381 Y85.849 E0.02559
G1 X104.728 Y85.163 E0.02557
G1 X105.144 Y84.516 E0.02558
G1 X105.625 Y83.916 E0.02558
G0 F6000 X106.021 Y84.076
G1 F1200 X106.558 Y83.555 E0.02489
G1 X107.148 Y83.096 E0.02486
G1 X107.784 Y82.701 E0.0249
G1 X108.458 Y82.377 E0.02487
G1 X109.163 Y82.127 E0.02488
G1 X109.891 Y81.953 E0.0249
G1 X110.633 Y81.858 E0.02488
