;FLAVOR:Marlin
;TIME:28339
;Filament used: 17.506m
;Layer height: 0.2
;MINX:57.26
;MINY:55.921
;MINZ:0.2
;MAXX:178.209
;MAXY:179.847
;MAXZ:50.8
;Generated with Cura_SteamEngine 4.8.0
M140 S100
M105
M190 S100
M104 S210
M105
M109 S210
M82 ;absolute extrusion mode
; Ender 3 Custom Start G-code
G92 E0 ; Reset Extruder
G28 ; Home all axes
G1 Z2.0 F3000 ; Move Z Axis up little to prevent scratching of Heat Bed
G1 X0.1 Y20 Z0.3 F5000.0 ; Move to start position
G1 X0.1 Y200.0 Z0.3 F1500.0 E15 ; Draw the first line
G1 X0.4 Y200.0 Z0.3 F5000.0 ; Move to side a little
G1 X0.4 Y20 Z0.3 F1500.0 E30 ; Draw the second line
G92 E0 ; Reset Extruder
G1 Z2.0 F3000 ; Move Z Axis up little to prevent scratching of Heat Bed
G1 X5 Y20 Z0.3 F5000.0 ; Move over to prevent blob squish
M83 ;relative extrusion mode
G1 F2700 E-5
;LAYER_COUNT:254
;LAYER:0
M107
M205 X8 Y8
G0 F6000 X104.329 Y59.938 Z0.2
;TYPE:SKIRT
G1 F2700 E5
G1 F1200 X104.747 Y59.267 E0.02629
G1 X105.23 Y58.643 E0.02625
G1 X105.773 Y58.07 E0.02626
G1 X106.372 Y57.555 E0.02627
G1 X107.02 Y57.104 E0.02626
G1 X107.711 Y56.72 E0.02629
G1 X108.436 Y56.408 E0.02625
G1 X109.189 Y56.171 E0.02626
G1 X109.963 Y56.012 E0.02628
G1 X110.748 Y55.931 E0.02625
G1 X111.15 Y55.921 E0.01337
G1 X123.85 Y55.921 E0.4224
G1 X124.639 Y55.961 E0.02628
G1 X125.419 Y56.08 E0.02624
G1 X126.184 Y56.278 E0.02628
G1 X126.924 Y56.552 E0.02625
G1 X127.633 Y56.9 E0.02627
G1 X128.304 Y57.318 E0.02629
G1 X128.928 Y57.801 E0.02625
G1 X129.501 Y58.344 E0.02626
G1 X130.016 Y58.943 E0.02627
G1 X130.467 Y59.591 E0.02626
G1 X130.851 Y60.282 E0.02629
G1 X131.163 Y61.007 E0.02625
G1 X131.4 Y61.76 E0.02626
G1 X131.559 Y62.534 E0.02628
G1 X131.64 Y63.319 E0.02625
G1 X131.65 Y63.721 E0.01337
G1 X131.65 Y76.421 E0.4224
G1 X131.61 Y77.21 E0.02628
G1 X131.491 Y77.99 E0.02624
G1 X131.293 Y78.755 E0.02628
G1 X131.019 Y79.495 E0.02625
G1 X130.671 Y80.204 E0.02627
G1 X130.253 Y80.875 E0.02629
G1 X129.77 Y81.499 E0.02625
G1 X129.227 Y82.072 E0.02626
G1 X128.628 Y82.587 E0.02627
G1 X127.98 Y83.038 E0.02626
G1 X127.289 Y83.422 E0.02629
G1 X126.564 Y83.734 E0.02625
G1 X125.811 Y83.971 E0.02626
G1 X125.037 Y84.13 E0.02628
G1 X124.252 Y84.211 E0.02625
G1 X123.85 Y84.221 E0.01337
G1 X111.15 Y84.221 E0.4224
G1 X110.361 Y84.181 E0.02628
G1 X109.581 Y84.062 E0.02624
G1 X108.816 Y83.864 E0.02628
G1 X108.076 Y83.59 E0.02625
G1 X107.367 Y83.242 E0.02627
G1 X106.696 Y82.824 E0.02629
G1 X106.072 Y82.341 E0.02625
G1 X105.499 Y81.798 E0.02626
G1 X104.984 Y81.199 E0.02627
G1 X104.533 Y80.551 E0.02626
G1 X104.149 Y79.86 E0.02629
G1 X103.837 Y79.135 E0.02625
G1 X103.6 Y78.382 E0.02626
G1 X103.441 Y77.608 E0.02628
G1 X103.36 Y76.823 E0.02625
G1 X103.35 Y76.421 E0.01337
G1 X103.35 Y63.721 E0.4224
G1 X103.39 Y62.932 E0.02628
G1 X103.509 Y62.152 E0.02624
G1 X103.707 Y61.387 E0.02628
G1 X103.981 Y60.647 E0.02625
G1 X104.329 Y59.938 E0.02627
G0 F6000 X104.728 Y60.045
G1 F1200 X105.144 Y59.398 E0.02558
G1 X105.625 Y58.798 E0.02558
G1 X106.166 Y58.251 E0.02559
G1 X106.761 Y57.763 E0.02559
G1 X107.403 Y57.34 E0.02557
G1 X108.086 Y56.985 E0.0256
G1 X108.801 Y56.704 E0.02555
G1 X109.543 Y56.498 E0.02561
G1 X110.301 Y56.37 E0.02557
G1 X111.15 Y56.321 E0.02828
G1 X123.85 Y56.321 E0.4224
G1 X124.618 Y56.361 E0.02558
G1 X125.378 Y56.48 E0.02559
G1 X126.121 Y56.678 E0.02557
G1 X126.84 Y56.952 E0.02559
G1 X127.526 Y57.299 E0.02557
G1 X128.173 Y57.715 E0.02558
G1 X128.773 Y58.196 E0.02558
G1 X129.32 Y58.737 E0.02559
G1 X129.808 Y59.332 E0.02559
G1 X130.231 Y59.974 E0.02557
G1 X130.586 Y60.657 E0.0256
G1 X130.867 Y61.372 E0.02555
G1 X131.073 Y62.114 E0.02561
G1 X131.201 Y62.872 E0.02557
G1 X131.25 Y63.721 E0.02828
G1 X131.25 Y76.421 E0.4224
G1 X131.21 Y77.189 E0.02558
G1 X131.091 Y77.949 E0.02559
G1 X130.893 Y78.692 E0.02557
G1 X130.619 Y79.411 E0.02559
G1 X130.272 Y80.097 E0.02557
G1 X129.856 Y80.744 E0.02558
G1 X129.375 Y81.344 E0.02558
G1 X128.834 Y81.891 E0.02559
G1 X128.239 Y82.379 E0.02559
G1 X127.597 Y82.802 E0.02557
G1 X126.914 Y83.157 E0.0256
G1 X126.199 Y83.438 E0.02555
G1 X125.457 Y83.644 E0.02561
G1 X124.699 Y83.772 E0.02557
G1 X123.85 Y83.821 E0.02828
G1 X111.15 Y83.821 E0.4224
G1 X110.382 Y83.781 E0.02558
G1 X109.622 Y83.662 E0.02559
G1 X108.879 Y83.464 E0.02557
G1 X108.16 Y83.19 E0.02559
G1 X107.474 Y82.843 E0.02557
G1 X106.827 Y82.427 E0.02558
G1 X106.227 Y81.946 E0.02558
G1 X105.68 Y81.405 E0.02559
G1 X105.192 Y80.81 E0.02559
G1 X104.769 Y80.168 E0.02557
G1 X104.414 Y79.485 E0.0256
G1 X104.133 Y78.77 E0.02555
G1 X103.927 Y78.028 E0.02561
G1 X103.799 Y77.27 E0.02557
G1 X103.75 Y76.421 E0.02828
G1 X103.75 Y63.721 E0.4224
G1 X103.79 Y62.953 E0.02558
G1 X103.909 Y62.193 E0.02559
G1 X104.107 Y61.45 E0.02557
G1 X104.381 Y60.731 E0.02559
G1 X104.728 Y60.045 E0.02557
G0 F6000 X105.127 Y60.155
G1 F1200 X105.542 Y59.532 E0.0249
G1 X106.021 Y58.958 E0.02487
G1 X106.558 Y58.437 E0.02489
G1 X107.148 Y57.978 E0.02486
G1 X107.784 Y57.583 E0.0249
G1 X108.458 Y57.259 E0.02487
G1 X109.163 Y57.009 E0.02488
G1 X109.891 Y56.835 E0.0249
G1 X110.633 Y56.74 E0.02488
G1 X111.15 Y56.721 E0.01721
G1 X123.85 Y56.721 E0.4224
G1 X124.597 Y56.761 E0.02488
G1 X125.335 Y56.88 E0.02486
G1 X126.057 Y57.078 E0.0249
G1 X126.753 Y57.351 E0.02487
G1 X127.416 Y57.698 E0.02489
G1 X128.039 Y58.113 E0.0249
G1 X128.613 Y58.592 E0.02487
G1 X129.134 Y59.129 E0.02489
G1 X129.593 Y59.719 E0.02486
G1 X129.988 Y60.355 E0.0249
G1 X130.312 Y61.029 E0.02487
G1 X130.562 Y61.734 E0.02488
G1 X130.736 Y62.462 E0.0249
G1 X130.831 Y63.204 E0.02488
G1 X130.85 Y63.721 E0.01721
G1 X130.85 Y76.421 E0.4224
G1 X130.81 Y77.168 E0.02488
G1 X130.691 Y77.906 E0.02486
G1 X130.493 Y78.628 E0.0249
G1 X130.22 Y79.324 E0.02487
G1 X129.873 Y79.987 E0.02489
G1 X129.458 Y80.61 E0.0249
G1 X128.979 Y81.184 E0.02487
G1 X128.442 Y81.705 E0.02489
G1 X127.852 Y82.164 E0.02486
G1 X127.216 Y82.559 E0.0249
G1 X126.542 Y82.883 E0.02487
G1 X125.837 Y83.133 E0.02488
G1 X125.109 Y83.307 E0.0249
G1 X124.367 Y83.402 E0.02488
G1 X123.85 Y83.421 E0.01721
G1 X111.15 Y83.421 E0.4224
G1 X110.403 Y83.381 E0.02488
G1 X109.665 Y83.262 E0.02486
G1 X108.943 Y83.064 E0.0249
G1 X108.247 Y82.791 E0.02487
G1 X107.584 Y82.444 E0.02489
G1 X106.961 Y82.029 E0.0249
G1 X106.387 Y81.55 E0.02487
G1 X105.866 Y81.013 E0.02489
G1 X105.407 Y80.423 E0.02486
G1 X105.012 Y79.787 E0.0249
G1 X104.688 Y79.113 E0.02487
G1 X104.438 Y78.408 E0.02488
G1 X104.264 Y77.68 E0.0249
G1 X104.169 Y76.938 E0.02488
G1 X104.15 Y76.421 E0.01721
G1 X104.15 Y63.721 E0.4224
G1 X104.19 Y62.974 E0.02488
G1 X104.309 Y62.236 E0.02486
G1 X104.507 Y61.514 E0.0249
G1 X104.78 Y60.818 E0.02487
G1 X105.127 Y60.155 E0.02489
G0 F6000 X105.525 Y60.268
G1 F1200 X105.939 Y59.671 E0.02416
G1 X106.415 Y59.123 E0.02414
G1 X106.949 Y58.63 E0.02417
G1 X107.534 Y58.2 E0.02415
G1 X108.163 Y57.836 E0.02417
G1 X108.828 Y57.543 E0.02417
G1 X109.521 Y57.325 E0.02416
G1 X110.233 Y57.185 E0.02413
G1 X111.15 Y57.121 E0.03057
G1 X123.85 Y57.121 E0.4224
G1 X124.575 Y57.161 E0.02415
G1 X125.292 Y57.28 E0.02417
G1 X125.991 Y57.478 E0.02416
G1 X126.664 Y57.751 E0.02416
G1 X127.303 Y58.096 E0.02415
G1 X127.9 Y58.51 E0.02416
G1 X128.448 Y58.986 E0.02414
G1 X128.941 Y59.52 E0.02417
G1 X129.371 Y60.105 E0.02415
G1 X129.735 Y60.734 E0.02417
G1 X130.028 Y61.399 E0.02417
G1 X130.246 Y62.092 E0.02416
G1 X130.386 Y62.804 E0.02413
G1 X130.45 Y63.721 E0.03057
G1 X130.45 Y76.421 E0.4224
G1 X130.41 Y77.146 E0.02415
G1 X130.291 Y77.863 E0.02417
G1 X130.093 Y78.562 E0.02416
G1 X129.82 Y79.235 E0.02416
G1 X129.475 Y79.874 E0.02415
G1 X129.061 Y80.471 E0.02416
G1 X128.585 Y81.019 E0.02414
G1 X128.051 Y81.512 E0.02417
G1 X127.466 Y81.942 E0.02415
G1 X126.837 Y82.306 E0.02417
G1 X126.172 Y82.599 E0.02417
G1 X125.479 Y82.817 E0.02416
G1 X124.767 Y82.957 E0.02413
G1 X123.85 Y83.021 E0.03057
G1 X111.15 Y83.021 E0.4224
G1 X110.425 Y82.981 E0.02415
G1 X109.708 Y82.862 E0.02417
G1 X109.009 Y82.664 E0.02416
G1 X108.336 Y82.391 E0.02416
G1 X107.697 Y82.046 E0.02415
G1 X107.1 Y81.632 E0.02416
G1 X106.552 Y81.156 E0.02414
G1 X106.059 Y80.622 E0.02417
G1 X105.629 Y80.037 E0.02415
G1 X105.265 Y79.408 E0.02417
G1 X104.972 Y78.743 E0.02417
G1 X104.754 Y78.05 E0.02416
G1 X104.614 Y77.338 E0.02413
G1 X104.55 Y76.421 E0.03057
G1 X104.55 Y63.721 E0.4224
G1 X104.59 Y62.996 E0.02415
G1 X104.709 Y62.279 E0.02417
G1 X104.907 Y61.58 E0.02416
G1 X105.18 Y60.907 E0.02416
G1 X105.525 Y60.268 E0.02415
G0 F6000 X105.579 Y61
G1 F1200 X105.924 Y60.386 E0.02342
G1 X106.335 Y59.815 E0.0234
G1 X106.809 Y59.294 E0.02343
G1 X107.339 Y58.83 E0.02343
G1 X107.918 Y58.43 E0.02341
G1 X108.539 Y58.098 E0.02342
G1 X109.193 Y57.838 E0.02341
G1 X109.873 Y57.654 E0.02343
G1 X110.569 Y57.548 E0.02342
G1 X111.15 Y57.521 E0.01934
G1 X123.85 Y57.521 E0.4224
G1 X124.553 Y57.561 E0.02342
G1 X125.247 Y57.68 E0.02342
G1 X125.922 Y57.878 E0.0234
G1 X126.571 Y58.15 E0.0234
G1 X127.185 Y58.495 E0.02342
G1 X127.756 Y58.906 E0.0234
G1 X128.277 Y59.38 E0.02343
G1 X128.741 Y59.91 E0.02343
G1 X129.141 Y60.489 E0.02341
G1 X129.473 Y61.11 E0.02342
G1 X129.733 Y61.764 E0.02341
G1 X129.917 Y62.444 E0.02343
G1 X130.023 Y63.14 E0.02342
G1 X130.05 Y63.721 E0.01934
G1 X130.05 Y76.421 E0.4224
G1 X130.01 Y77.124 E0.02342
G1 X129.891 Y77.818 E0.02342
G1 X129.693 Y78.493 E0.0234
G1 X129.421 Y79.142 E0.0234
G1 X129.076 Y79.756 E0.02342
G1 X128.665 Y80.327 E0.0234
G1 X128.191 Y80.848 E0.02343
G1 X127.661 Y81.312 E0.02343
G1 X127.082 Y81.712 E0.02341
G1 X126.461 Y82.044 E0.02342
G1 X125.807 Y82.304 E0.02341
G1 X125.127 Y82.488 E0.02343
G1 X124.431 Y82.594 E0.02342
G1 X123.85 Y82.621 E0.01934
G1 X111.15 Y82.621 E0.4224
G1 X110.447 Y82.581 E0.02342
G1 X109.753 Y82.462 E0.02342
G1 X109.078 Y82.264 E0.0234
G1 X108.429 Y81.992 E0.0234
G1 X107.815 Y81.647 E0.02342
G1 X107.244 Y81.236 E0.0234
G1 X106.723 Y80.762 E0.02343
G1 X106.259 Y80.232 E0.02343
G1 X105.859 Y79.653 E0.02341
G1 X105.527 Y79.032 E0.02342
G1 X105.267 Y78.378 E0.02341
G1 X105.083 Y77.698 E0.02343
G1 X104.977 Y77.002 E0.02342
G1 X104.95 Y76.421 E0.01934
G1 X104.95 Y63.721 E0.4224
G1 X104.99 Y63.018 E0.02342
G1 X105.109 Y62.324 E0.02342
G1 X105.307 Y61.649 E0.0234
G1 X105.579 Y61 E0.0234
G0 F6000 X105.978 Y61.095
G1 F1200 X106.322 Y60.507 E0.02266
G1 X106.732 Y59.963 E0.02266
G1 X107.203 Y59.472 E0.02263
G1 X107.728 Y59.038 E0.02266
G1 X108.3 Y58.669 E0.02264
G1 X108.912 Y58.37 E0.02265
G1 X109.554 Y58.145 E0.02263
G1 X110.219 Y57.996 E0.02267
G1 X111.15 Y57.921 E0.03107
G1 X123.85 Y57.921 E0.4224
G1 X124.53 Y57.961 E0.02266
G1 X125.2 Y58.08 E0.02263
G1 X125.852 Y58.277 E0.02265
G1 X126.476 Y58.549 E0.02264
G1 X127.064 Y58.893 E0.02266
G1 X127.608 Y59.303 E0.02266
G1 X128.099 Y59.774 E0.02263
G1 X128.533 Y60.299 E0.02266
G1 X128.902 Y60.871 E0.02264
G1 X129.201 Y61.483 E0.02265
G1 X129.426 Y62.125 E0.02263
G1 X129.575 Y62.79 E0.02267
G1 X129.65 Y63.721 E0.03107
G1 X129.65 Y76.421 E0.4224
G1 X129.61 Y77.101 E0.02266
G1 X129.491 Y77.771 E0.02263
G1 X129.294 Y78.423 E0.02265
G1 X129.022 Y79.047 E0.02264
G1 X128.678 Y79.635 E0.02266
G1 X128.268 Y80.179 E0.02266
G1 X127.797 Y80.67 E0.02263
G1 X127.272 Y81.104 E0.02266
G1 X126.7 Y81.473 E0.02264
G1 X126.088 Y81.772 E0.02265
G1 X125.446 Y81.997 E0.02263
G1 X124.781 Y82.146 E0.02267
G1 X123.85 Y82.221 E0.03107
G1 X111.15 Y82.221 E0.4224
G1 X110.47 Y82.181 E0.02266
G1 X109.8 Y82.062 E0.02263
G1 X109.148 Y81.865 E0.02265
G1 X108.524 Y81.593 E0.02264
G1 X107.936 Y81.249 E0.02266
G1 X107.392 Y80.839 E0.02266
G1 X106.901 Y80.368 E0.02263
G1 X106.467 Y79.843 E0.02266
G1 X106.098 Y79.271 E0.02264
G1 X105.799 Y78.659 E0.02265
G1 X105.574 Y78.017 E0.02263
G1 X105.425 Y77.352 E0.02267
G1 X105.35 Y76.421 E0.03107
G1 X105.35 Y63.721 E0.4224
G1 X105.39 Y63.041 E0.02266
G1 X105.509 Y62.371 E0.02263
G1 X105.706 Y61.719 E0.02265
G1 X105.978 Y61.095 E0.02264
G0 F6000 X106.378 Y61.194
G1 F1200 X106.72 Y60.633 E0.02185
G1 X107.128 Y60.118 E0.02185
G1 X107.595 Y59.656 E0.02185
G1 X108.115 Y59.255 E0.02184
G1 X108.679 Y58.919 E0.02184
G1 X109.281 Y58.655 E0.02186
G1 X109.91 Y58.465 E0.02185
G1 X110.557 Y58.354 E0.02183
G1 X111.15 Y58.321 E0.01975
G1 X123.85 Y58.321 E0.4224
G1 X124.506 Y58.361 E0.02186
G1 X125.152 Y58.48 E0.02185
G1 X125.779 Y58.677 E0.02186
G1 X126.377 Y58.949 E0.02185
G1 X126.938 Y59.291 E0.02185
G1 X127.453 Y59.699 E0.02185
G1 X127.915 Y60.166 E0.02185
G1 X128.316 Y60.686 E0.02184
G1 X128.652 Y61.25 E0.02184
G1 X128.916 Y61.852 E0.02186
G1 X129.106 Y62.481 E0.02185
G1 X129.217 Y63.128 E0.02183
G1 X129.25 Y63.721 E0.01975
G1 X129.25 Y76.421 E0.4224
G1 X129.21 Y77.077 E0.02186
G1 X129.091 Y77.723 E0.02185
G1 X128.894 Y78.35 E0.02186
G1 X128.622 Y78.948 E0.02185
G1 X128.28 Y79.509 E0.02185
G1 X127.872 Y80.024 E0.02185
G1 X127.405 Y80.486 E0.02185
G1 X126.885 Y80.887 E0.02184
G1 X126.321 Y81.223 E0.02184
G1 X125.719 Y81.487 E0.02186
G1 X125.09 Y81.677 E0.02185
G1 X124.443 Y81.788 E0.02183
G1 X123.85 Y81.821 E0.01975
G1 X111.15 Y81.821 E0.4224
G1 X110.494 Y81.781 E0.02186
G1 X109.848 Y81.662 E0.02185
G1 X109.221 Y81.465 E0.02186
G1 X108.623 Y81.193 E0.02185
G1 X108.062 Y80.851 E0.02185
G1 X107.547 Y80.443 E0.02185
G1 X107.085 Y79.976 E0.02185
G1 X106.684 Y79.456 E0.02184
G1 X106.348 Y78.892 E0.02184
G1 X106.084 Y78.29 E0.02186
G1 X105.894 Y77.661 E0.02185
G1 X105.783 Y77.014 E0.02183
G1 X105.75 Y76.421 E0.01975
G1 X105.75 Y63.721 E0.4224
G1 X105.79 Y63.065 E0.02186
G1 X105.909 Y62.419 E0.02185
G1 X106.106 Y61.792 E0.02186
G1 X106.378 Y61.194 E0.02185
G0 F6000 X106.777 Y61.297
G1 F1200 X107.117 Y60.765 E0.021
G1 X107.523 Y60.28 E0.02104
G1 X107.986 Y59.85 E0.02102
G1 X108.5 Y59.481 E0.02104
G1 X109.056 Y59.181 E0.02101
G1 X109.645 Y58.953 E0.02101
G1 X110.259 Y58.801 E0.02104
G1 X111.15 Y58.721 E0.02975
G1 X123.85 Y58.721 E0.4224
G1 X124.481 Y58.761 E0.02103
G1 X125.102 Y58.88 E0.02103
G1 X125.702 Y59.077 E0.021
G1 X126.274 Y59.348 E0.02105
G1 X126.806 Y59.688 E0.021
G1 X127.291 Y60.094 E0.02104
G1 X127.721 Y60.557 E0.02102
G1 X128.09 Y61.071 E0.02104
G1 X128.39 Y61.627 E0.02101
G1 X128.618 Y62.216 E0.02101
G1 X128.77 Y62.83 E0.02104
G1 X128.85 Y63.721 E0.02975
G1 X128.85 Y76.421 E0.4224
G1 X128.81 Y77.052 E0.02103
G1 X128.691 Y77.673 E0.02103
G1 X128.494 Y78.273 E0.021
G1 X128.223 Y78.845 E0.02105
G1 X127.883 Y79.377 E0.021
G1 X127.477 Y79.862 E0.02104
G1 X127.014 Y80.292 E0.02102
G1 X126.5 Y80.661 E0.02104
G1 X125.944 Y80.961 E0.02101
G1 X125.355 Y81.189 E0.02101
G1 X124.741 Y81.341 E0.02104
G1 X123.85 Y81.421 E0.02975
G1 X111.15 Y81.421 E0.4224
G1 X110.519 Y81.381 E0.02103
G1 X109.898 Y81.262 E0.02103
G1 X109.298 Y81.065 E0.021
G1 X108.726 Y80.794 E0.02105
G1 X108.194 Y80.454 E0.021
G1 X107.709 Y80.048 E0.02104
G1 X107.279 Y79.585 E0.02102
G1 X106.91 Y79.071 E0.02104
G1 X106.61 Y78.515 E0.02101
G1 X106.382 Y77.926 E0.02101
G1 X106.23 Y77.312 E0.02104
G1 X106.15 Y76.421 E0.02975
G1 X106.15 Y63.721 E0.4224
G1 X106.19 Y63.09 E0.02103
G1 X106.309 Y62.469 E0.02103
G1 X106.506 Y61.869 E0.021
G1 X106.777 Y61.297 E0.02105
G0 F6000 X107.176 Y61.405
G1 F1200 X107.515 Y60.902 E0.02017
G1 X107.917 Y60.449 E0.02014
G1 X108.375 Y60.052 E0.02016
G1 X108.882 Y59.719 E0.02017
G1 X109.428 Y59.455 E0.02017
G1 X110.004 Y59.266 E0.02016
G1 X110.6 Y59.154 E0.02017
G1 X111.15 Y59.121 E0.01833
G1 X123.85 Y59.121 E0.4224
G1 X124.455 Y59.161 E0.02017
G1 X125.049 Y59.28 E0.02015
G1 X125.623 Y59.476 E0.02017
G1 X126.166 Y59.747 E0.02018
G1 X126.669 Y60.086 E0.02017
G1 X127.122 Y60.488 E0.02014
G1 X127.519 Y60.946 E0.02016
G1 X127.852 Y61.453 E0.02017
G1 X128.116 Y61.999 E0.02017
G1 X128.305 Y62.575 E0.02016
G1 X128.417 Y63.171 E0.02017
G1 X128.45 Y63.721 E0.01833
G1 X128.45 Y76.421 E0.4224
G1 X128.41 Y77.026 E0.02017
G1 X128.291 Y77.62 E0.02015
G1 X128.095 Y78.194 E0.02017
G1 X127.824 Y78.737 E0.02018
G1 X127.485 Y79.24 E0.02017
G1 X127.083 Y79.693 E0.02014
G1 X126.625 Y80.09 E0.02016
G1 X126.118 Y80.423 E0.02017
G1 X125.572 Y80.687 E0.02017
G1 X124.996 Y80.876 E0.02016
G1 X124.4 Y80.988 E0.02017
G1 X123.85 Y81.021 E0.01833
G1 X111.15 Y81.021 E0.4224
G1 X110.545 Y80.981 E0.02017
G1 X109.951 Y80.862 E0.02015
G1 X109.377 Y80.666 E0.02017
G1 X108.834 Y80.395 E0.02018
G1 X108.331 Y80.056 E0.02017
G1 X107.878 Y79.654 E0.02014
