;FLAVOR:Marlin
;TIME:1326
;Filament used: 0.94084m
;Layer height: 0.2
;MINX:108.953
;MINY:102.202
;MINZ:0.2
;MAXX:145.368
;MAXY:132.798
;MAXZ:9
;Generated with Cura_SteamEngine 4.8.0
M140 S85
M105
M190 S85
M104 S235
M105
M109 S235
M82 ;absolute extrusion mode
; Ender 3 Custom Start G-code
G92 E0 ; Reset Extruder
G28 ; Home all axes
G1 Z2.0 F3000 ; Move Z Axis up little to prevent scratching of Heat Bed
G1 X0.1 Y20 Z0.3 F5000.0 ; Move to start position
G1 X0.1 Y200.0 Z0.3 F1500.0 E15 ; Draw the first line
G1 X0.4 Y200.0 Z0.3 F5000.0 ; Move to side a little
G1 X0.4 Y20 Z0.3 F1500.0 E30 ; Draw the second line
G92 E0 ; Reset Extruder
G1 Z2.0 F3000 ; Move Z Axis up little to prevent scratching of Heat Bed
G1 X5 Y20 Z0.3 F5000.0 ; Move over to prevent blob squish
M83 ;relative extrusion mode
G1 F2700 E-5
;LAYER_COUNT:45
;LAYER:0
M107
M205 X8 Y8
G0 F6000 X131.754 Y105.048 Z0.2
;TYPE:SKIRT
G1 F2700 E5
G1 F1200 X132.924 Y103.797 E0.05697
G1 X133.306 Y103.488 E0.01634
G1 X134.569 Y102.722 E0.04913
G1 X134.911 Y102.561 E0.01257
G1 X135.155 Y102.495 E0.00841
G1 X136.473 Y102.236 E0.04468
G1 X136.85 Y102.202 E0.01259
G1 X137.164 Y102.235 E0.0105
G1 X138.482 Y102.492 E0.04466
G1 X138.845 Y102.604 E0.01264
G1 X139.071 Y102.72 E0.00845
G1 X140.334 Y103.486 E0.04913
G1 X140.716 Y103.795 E0.01634
G1 X141.886 Y105.046 E0.05697
G1 X142.108 Y105.34 E0.01225
G1 X143.129 Y107.016 E0.06527
G1 X143.257 Y107.269 E0.00943
G1 X144.098 Y109.318 E0.07367
G1 X144.172 Y109.536 E0.00766
G1 X144.795 Y111.867 E0.08025
G1 X144.836 Y112.062 E0.00663
G1 X145.22 Y114.594 E0.08518
G1 X145.238 Y114.775 E0.00605
G1 X145.368 Y117.409 E0.08771
G1 X145.368 Y117.585 E0.00585
G1 X145.24 Y120.219 E0.08771
G1 X145.222 Y120.402 E0.00612
G1 X144.838 Y122.936 E0.08524
G1 X144.797 Y123.131 E0.00663
G1 X144.173 Y125.462 E0.08026
G1 X144.1 Y125.679 E0.00761
G1 X143.261 Y127.728 E0.07364
G1 X143.132 Y127.983 E0.0095
G1 X142.11 Y129.659 E0.06529
G1 X141.888 Y129.952 E0.01223
G1 X140.718 Y131.203 E0.05697
G1 X140.336 Y131.512 E0.01634
G1 X139.073 Y132.278 E0.04913
G1 X138.731 Y132.439 E0.01257
G1 X138.487 Y132.505 E0.00841
G1 X137.169 Y132.764 E0.04468
G1 X136.792 Y132.798 E0.01259
G1 X136.478 Y132.765 E0.0105
G1 X135.16 Y132.508 E0.04466
G1 X134.797 Y132.396 E0.01264
G1 X134.571 Y132.28 E0.00845
G1 X133.308 Y131.514 E0.04913
G1 X132.926 Y131.205 E0.01634
G1 X131.756 Y129.954 E0.05697
G1 X131.534 Y129.66 E0.01225
G1 X130.513 Y127.984 E0.06527
G1 X130.385 Y127.732 E0.0094
G1 X129.543 Y125.683 E0.07368
G1 X129.469 Y125.463 E0.00772
G1 X128.847 Y123.132 E0.08024
G1 X128.806 Y122.938 E0.00659
G1 X128.421 Y120.404 E0.08525
G1 X128.403 Y120.222 E0.00608
G1 X128.274 Y117.59 E0.08765
G1 X128.274 Y117.415 E0.00582
G1 X128.401 Y114.781 E0.08771
G1 X128.419 Y114.598 E0.00612
G1 X128.804 Y112.064 E0.08525
G1 X128.845 Y111.869 E0.00663
G1 X129.468 Y109.538 E0.08025
G1 X129.542 Y109.32 E0.00766
G1 X130.382 Y107.271 E0.07365
G1 X130.51 Y107.017 E0.00946
G1 X131.532 Y105.341 E0.06529
G1 X131.754 Y105.048 E0.01223
G0 F6000 X132.047 Y105.322
G1 F1200 X133.217 Y104.071 E0.05697
G1 X133.513 Y103.83 E0.0127
G1 X134.776 Y103.064 E0.04913
G1 X135.232 Y102.887 E0.01627
G1 X136.55 Y102.628 E0.04468
G1 X136.883 Y102.603 E0.01111
G1 X137.088 Y102.628 E0.00687
G1 X138.406 Y102.885 E0.04466
G1 X138.864 Y103.062 E0.01633
G1 X140.127 Y103.828 E0.04913
G1 X140.423 Y104.069 E0.0127
G1 X141.593 Y105.32 E0.05697
G1 X141.767 Y105.548 E0.00954
G1 X142.788 Y107.224 E0.06527
G1 X142.887 Y107.42 E0.0073
G1 X143.728 Y109.469 E0.07367
G1 X143.786 Y109.64 E0.00601
G1 X144.409 Y111.971 E0.08025
G1 X144.44 Y112.122 E0.00513
G1 X144.824 Y114.654 E0.08518
G1 X144.838 Y114.795 E0.00471
G1 X144.968 Y117.429 E0.08771
G1 X144.968 Y117.566 E0.00456
G1 X144.84 Y120.2 E0.08771
G1 X144.826 Y120.342 E0.00475
G1 X144.442 Y122.876 E0.08524
G1 X144.41 Y123.028 E0.00517
G1 X143.786 Y125.359 E0.08026
G1 X143.73 Y125.528 E0.00592
G1 X142.891 Y127.577 E0.07364
G1 X142.79 Y127.775 E0.00739
G1 X141.768 Y129.451 E0.06529
G1 X141.595 Y129.678 E0.00949
G1 X140.425 Y130.929 E0.05697
G1 X140.129 Y131.17 E0.0127
G1 X138.866 Y131.936 E0.04913
G1 X138.41 Y132.113 E0.01627
G1 X137.092 Y132.372 E0.04468
G1 X136.759 Y132.397 E0.01111
G1 X136.554 Y132.372 E0.00687
G1 X135.236 Y132.115 E0.04466
G1 X134.778 Y131.938 E0.01633
G1 X133.515 Y131.172 E0.04913
G1 X133.219 Y130.931 E0.0127
G1 X132.049 Y129.68 E0.05697
G1 X131.875 Y129.452 E0.00954
G1 X130.854 Y127.776 E0.06527
G1 X130.755 Y127.58 E0.0073
G1 X129.913 Y125.531 E0.07368
G1 X129.855 Y125.36 E0.00601
G1 X129.233 Y123.029 E0.08024
G1 X129.202 Y122.878 E0.00513
G1 X128.817 Y120.344 E0.08525
G1 X128.803 Y120.203 E0.00471
G1 X128.674 Y117.571 E0.08765
G1 X128.674 Y117.435 E0.00452
G1 X128.801 Y114.801 E0.08771
G1 X128.815 Y114.658 E0.00478
G1 X129.2 Y112.124 E0.08525
G1 X129.231 Y111.973 E0.00513
G1 X129.854 Y109.642 E0.08025
G1 X129.912 Y109.472 E0.00597
G1 X130.752 Y107.423 E0.07365
G1 X130.852 Y107.225 E0.00738
G1 X131.874 Y105.549 E0.06529
G1 X132.047 Y105.322 E0.00949
G0 F6000 X132.339 Y105.595
G1 F1200 X133.509 Y104.344 E0.05697
G1 X133.72 Y104.172 E0.00905
G1 X134.983 Y103.406 E0.04913
G1 X135.309 Y103.28 E0.01162
G1 X136.627 Y103.021 E0.04468
G1 X137.011 Y103.02 E0.01277
G1 X138.329 Y103.277 E0.04466
G1 X138.657 Y103.404 E0.0117
G1 X139.92 Y104.17 E0.04913
G1 X140.131 Y104.342 E0.00905
G1 X141.301 Y105.593 E0.05697
G1 X141.425 Y105.756 E0.00681
G1 X142.446 Y107.432 E0.06527
G1 X142.517 Y107.572 E0.00522
G1 X143.358 Y109.621 E0.07367
G1 X143.399 Y109.743 E0.00428
G1 X144.022 Y112.074 E0.08025
G1 X144.045 Y112.182 E0.00367
G1 X144.429 Y114.714 E0.08518
G1 X144.439 Y114.815 E0.00338
G1 X144.569 Y117.449 E0.08771
G1 X144.569 Y117.547 E0.00326
G1 X144.441 Y120.181 E0.08771
G1 X144.431 Y120.282 E0.00338
G1 X144.047 Y122.816 E0.08524
G1 X144.024 Y122.925 E0.00371
G1 X143.4 Y125.256 E0.08026
G1 X143.359 Y125.376 E0.00422
G1 X142.52 Y127.425 E0.07364
G1 X142.449 Y127.567 E0.00528
G1 X141.427 Y129.243 E0.06529
G1 X141.303 Y129.405 E0.00679
G1 X140.133 Y130.656 E0.05697
G1 X139.922 Y130.828 E0.00905
G1 X138.659 Y131.594 E0.04913
G1 X138.333 Y131.72 E0.01162
G1 X137.015 Y131.979 E0.04468
G1 X136.631 Y131.98 E0.01277
G1 X135.313 Y131.723 E0.04466
G1 X134.985 Y131.596 E0.0117
G1 X133.722 Y130.83 E0.04913
G1 X133.511 Y130.658 E0.00905
G1 X132.341 Y129.407 E0.05697
G1 X132.217 Y129.244 E0.00681
G1 X131.196 Y127.568 E0.06527
G1 X131.125 Y127.428 E0.00522
G1 X130.283 Y125.379 E0.07368
G1 X130.242 Y125.257 E0.00428
G1 X129.62 Y122.926 E0.08024
G1 X129.597 Y122.818 E0.00367
G1 X129.212 Y120.284 E0.08525
G1 X129.202 Y120.183 E0.00338
G1 X129.073 Y117.551 E0.08765
G1 X129.073 Y117.454 E0.00323
G1 X129.2 Y114.82 E0.08771
G1 X129.21 Y114.718 E0.00341
G1 X129.595 Y112.184 E0.08525
G1 X129.618 Y112.076 E0.00367
G1 X130.241 Y109.745 E0.08025
G1 X130.282 Y109.624 E0.00425
G1 X131.122 Y107.575 E0.07365
G1 X131.193 Y107.433 E0.00528
G1 X132.215 Y105.757 E0.06529
G1 X132.339 Y105.595 E0.00679
G0 F6000 X132.631 Y105.868
G1 F1200 X133.801 Y104.617 E0.05697
G1 X133.928 Y104.514 E0.00544
G1 X135.191 Y103.748 E0.04913
G1 X135.386 Y103.672 E0.00696
G1 X136.704 Y103.413 E0.04468
G1 X136.935 Y103.413 E0.00768
G1 X138.253 Y103.67 E0.04466
G1 X138.449 Y103.746 E0.00699
G1 X139.712 Y104.512 E0.04913
G1 X139.839 Y104.615 E0.00544
G1 X141.009 Y105.866 E0.05697
G1 X141.083 Y105.964 E0.00408
G1 X142.104 Y107.64 E0.06527
G1 X142.147 Y107.724 E0.00314
G1 X142.988 Y109.773 E0.07367
G1 X143.013 Y109.846 E0.00257
G1 X143.636 Y112.177 E0.08025
G1 X143.649 Y112.242 E0.0022
G1 X144.033 Y114.774 E0.08518
G1 X144.039 Y114.834 E0.00201
G1 X144.169 Y117.468 E0.08771
G1 X144.169 Y117.527 E0.00196
G1 X144.041 Y120.161 E0.08771
G1 X144.035 Y120.222 E0.00204
G1 X143.651 Y122.756 E0.08524
G1 X143.638 Y122.821 E0.0022
G1 X143.014 Y125.152 E0.08026
G1 X142.989 Y125.224 E0.00253
G1 X142.15 Y127.273 E0.07364
G1 X142.107 Y127.358 E0.00317
G1 X141.085 Y129.034 E0.06529
G1 X141.011 Y129.132 E0.00408
G1 X139.841 Y130.383 E0.05697
G1 X139.714 Y130.486 E0.00544
G1 X138.451 Y131.252 E0.04913
G1 X138.256 Y131.328 E0.00696
G1 X136.938 Y131.587 E0.04468
G1 X136.707 Y131.587 E0.00768
G1 X135.389 Y131.33 E0.04466
G1 X135.193 Y131.254 E0.00699
G1 X133.93 Y130.488 E0.04913
G1 X133.803 Y130.385 E0.00544
G1 X132.633 Y129.134 E0.05697
G1 X132.559 Y129.036 E0.00408
G1 X131.538 Y127.36 E0.06527
G1 X131.495 Y127.276 E0.00314
G1 X130.653 Y125.227 E0.07368
G1 X130.628 Y125.154 E0.00257
G1 X130.006 Y122.823 E0.08024
G1 X129.993 Y122.758 E0.0022
G1 X129.608 Y120.224 E0.08525
G1 X129.602 Y120.163 E0.00204
G1 X129.473 Y117.531 E0.08765
G1 X129.473 Y117.473 E0.00193
G1 X129.6 Y114.839 E0.08771
G1 X129.606 Y114.778 E0.00204
G1 X129.991 Y112.244 E0.08525
G1 X130.004 Y112.179 E0.0022
G1 X130.627 Y109.848 E0.08025
G1 X130.652 Y109.775 E0.00257
G1 X131.492 Y107.726 E0.07365
G1 X131.535 Y107.642 E0.00314
G1 X132.557 Y105.966 E0.06529
G1 X132.631 Y105.868 E0.00408
G0 F6000 X132.923 Y106.141
G1 F1200 X134.093 Y104.89 E0.05697
G1 X134.135 Y104.856 E0.0018
G1 X135.398 Y104.09 E0.04913
G1 X135.463 Y104.065 E0.00232
G1 X136.781 Y103.806 E0.04468
G1 X136.858 Y103.806 E0.00256
G1 X138.176 Y104.063 E0.04466
G1 X138.242 Y104.088 E0.00235
G1 X139.505 Y104.854 E0.04913
G1 X139.547 Y104.888 E0.0018
G1 X140.717 Y106.139 E0.05697
G1 X140.742 Y106.172 E0.00138
G1 X141.763 Y107.848 E0.06527
G1 X141.777 Y107.876 E0.00104
G1 X142.618 Y109.925 E0.07367
G1 X142.626 Y109.949 E0.00084
G1 X143.254 Y112.302 E0.081
G1 X143.64 Y114.854 E0.08585
G1 X143.77 Y117.508 E0.08838
G1 X143.64 Y120.162 E0.08838
G1 X143.256 Y122.696 E0.08524
G1 X142.627 Y125.049 E0.08101
G1 X142.619 Y125.073 E0.00084
G1 X141.78 Y127.122 E0.07364
G1 X141.766 Y127.15 E0.00104
G1 X140.744 Y128.826 E0.06529
G1 X140.719 Y128.859 E0.00138
G1 X139.549 Y130.11 E0.05697
G1 X139.507 Y130.144 E0.0018
G1 X138.244 Y130.91 E0.04913
G1 X138.179 Y130.935 E0.00232
G1 X136.861 Y131.194 E0.04468
G1 X136.784 Y131.194 E0.00256
G1 X135.466 Y130.937 E0.04466
G1 X135.4 Y130.912 E0.00235
G1 X134.137 Y130.146 E0.04913
G1 X134.095 Y130.112 E0.0018
G1 X132.925 Y128.861 E0.05697
G1 X132.9 Y128.828 E0.00138
G1 X131.879 Y127.152 E0.06527
G1 X131.865 Y127.124 E0.00104
G1 X131.023 Y125.075 E0.07368
G1 X131.015 Y125.051 E0.00084
G1 X130.388 Y122.698 E0.08099
G1 X130.001 Y120.144 E0.08592
G1 X129.872 Y117.492 E0.08831
G1 X130.001 Y114.838 E0.08838
G1 X130.386 Y112.304 E0.08525
G1 X131.014 Y109.951 E0.081
G1 X131.022 Y109.927 E0.00084
G1 X131.862 Y107.878 E0.07365
G1 X131.876 Y107.85 E0.00104
G1 X132.898 Y106.174 E0.06529
G1 X132.923 Y106.141 E0.00138
G1 F2700 E-5
G0 F6000 X132.522 Y105.898
G0 X123.936 Y107.269
G1 F2700 E5
G1 F1200 X124.777 Y109.318 E0.07367
G1 X124.851 Y109.536 E0.00766
G1 X125.474 Y111.867 E0.08025
G1 X125.515 Y112.062 E0.00663
G1 X125.899 Y114.594 E0.08518
G1 X125.917 Y114.775 E0.00605
G1 X126.047 Y117.409 E0.08771
G1 X126.047 Y117.585 E0.00585
G1 X125.919 Y120.219 E0.08771
G1 X125.901 Y120.402 E0.00612
G1 X125.517 Y122.936 E0.08524
G1 X125.476 Y123.131 E0.00663
G1 X124.852 Y125.462 E0.08026
G1 X124.779 Y125.679 E0.00761
G1 X123.94 Y127.728 E0.07364
G1 X123.811 Y127.983 E0.0095
G1 X122.789 Y129.659 E0.06529
G1 X122.567 Y129.952 E0.01223
G1 X121.397 Y131.203 E0.05697
G1 X121.015 Y131.512 E0.01634
G1 X119.752 Y132.278 E0.04913
G1 X119.41 Y132.439 E0.01257
G1 X119.166 Y132.505 E0.00841
G1 X117.848 Y132.764 E0.04468
G1 X117.471 Y132.798 E0.01259
G1 X117.157 Y132.765 E0.0105
G1 X115.839 Y132.508 E0.04466
G1 X115.476 Y132.396 E0.01264
G1 X115.25 Y132.28 E0.00845
G1 X113.987 Y131.514 E0.04913
G1 X113.605 Y131.205 E0.01634
G1 X112.435 Y129.954 E0.05697
G1 X112.213 Y129.66 E0.01225
G1 X111.192 Y127.984 E0.06527
G1 X111.064 Y127.731 E0.00943
G1 X110.223 Y125.682 E0.07367
G1 X110.149 Y125.464 E0.00766
G1 X109.526 Y123.133 E0.08025
G1 X109.485 Y122.938 E0.00663
G1 X109.101 Y120.404 E0.08524
G1 X109.083 Y120.223 E0.00605
G1 X108.953 Y117.591 E0.08765
G1 X108.953 Y117.415 E0.00585
G1 X109.081 Y114.781 E0.08771
G1 X109.099 Y114.598 E0.00612
G1 X109.483 Y112.064 E0.08524
G1 X109.524 Y111.869 E0.00663
G1 X110.148 Y109.538 E0.08026
G1 X110.221 Y109.321 E0.00761
G1 X111.06 Y107.272 E0.07364
G1 X111.189 Y107.017 E0.0095
G1 X112.211 Y105.341 E0.06529
G1 X112.433 Y105.048 E0.01223
G1 X113.603 Y103.797 E0.05697
G1 X113.985 Y103.488 E0.01634
G1 X115.248 Y102.722 E0.04913
G1 X115.59 Y102.561 E0.01257
G1 X115.834 Y102.495 E0.00841
G1 X117.152 Y102.236 E0.04468
G1 X117.529 Y102.202 E0.01259
G1 X117.843 Y102.235 E0.0105
G1 X119.161 Y102.492 E0.04466
G1 X119.524 Y102.604 E0.01264
G1 X119.75 Y102.72 E0.00845
G1 X121.013 Y103.486 E0.04913
G1 X121.395 Y103.795 E0.01634
G1 X122.565 Y105.046 E0.05697
G1 X122.787 Y105.34 E0.01225
G1 X123.808 Y107.016 E0.06527
G1 X123.936 Y107.269 E0.00943
G0 F6000 X123.566 Y107.42
G1 F1200 X124.407 Y109.469 E0.07367
G1 X124.465 Y109.64 E0.00601
G1 X125.088 Y111.971 E0.08025
G1 X125.119 Y112.122 E0.00513
G1 X125.503 Y114.654 E0.08518
G1 X125.517 Y114.795 E0.00471
G1 X125.647 Y117.429 E0.08771
G1 X125.647 Y117.566 E0.00456
G1 X125.519 Y120.2 E0.08771
G1 X125.505 Y120.342 E0.00475
G1 X125.121 Y122.876 E0.08524
G1 X125.089 Y123.028 E0.00517
G1 X124.465 Y125.359 E0.08026
G1 X124.409 Y125.528 E0.00592
G1 X123.57 Y127.577 E0.07364
G1 X123.469 Y127.775 E0.00739
G1 X122.447 Y129.451 E0.06529
G1 X122.274 Y129.678 E0.00949
G1 X121.104 Y130.929 E0.05697
G1 X120.808 Y131.17 E0.0127
G1 X119.545 Y131.936 E0.04913
G1 X119.089 Y132.113 E0.01627
G1 X117.771 Y132.372 E0.04468
G1 X117.438 Y132.397 E0.01111
G1 X117.233 Y132.372 E0.00687
G1 X115.915 Y132.115 E0.04466
G1 X115.457 Y131.938 E0.01633
G1 X114.194 Y131.172 E0.04913
G1 X113.898 Y130.931 E0.0127
G1 X112.728 Y129.68 E0.05697
G1 X112.554 Y129.452 E0.00954
G1 X111.533 Y127.776 E0.06527
G1 X111.434 Y127.58 E0.0073
G1 X110.593 Y125.531 E0.07367
G1 X110.535 Y125.36 E0.00601
G1 X109.912 Y123.029 E0.08025
G1 X109.881 Y122.878 E0.00513
G1 X109.497 Y120.344 E0.08524
G1 X109.483 Y120.203 E0.00471
G1 X109.353 Y117.571 E0.08765
G1 X109.353 Y117.434 E0.00456
G1 X109.481 Y114.8 E0.08771
G1 X109.495 Y114.658 E0.00475
G1 X109.879 Y112.124 E0.08524
G1 X109.911 Y111.972 E0.00517
G1 X110.535 Y109.641 E0.08026
G1 X110.591 Y109.472 E0.00592
G1 X111.43 Y107.423 E0.07364
G1 X111.531 Y107.225 E0.00739
G1 X112.553 Y105.549 E0.06529
G1 X112.726 Y105.322 E0.00949
G1 X113.896 Y104.071 E0.05697
G1 X114.192 Y103.83 E0.0127
G1 X115.455 Y103.064 E0.04913
G1 X115.911 Y102.887 E0.01627
G1 X117.229 Y102.628 E0.04468
G1 X117.562 Y102.603 E0.01111
G1 X117.767 Y102.628 E0.00687
G1 X119.085 Y102.885 E0.04466
G1 X119.543 Y103.062 E0.01633
G1 X120.806 Y103.828 E0.04913
G1 X121.102 Y104.069 E0.0127
G1 X122.272 Y105.32 E0.05697
G1 X122.446 Y105.548 E0.00954
G1 X123.467 Y107.224 E0.06527
G1 X123.566 Y107.42 E0.0073
G0 F6000 X123.196 Y107.572
G1 F1200 X124.037 Y109.621 E0.07367
G1 X124.078 Y109.743 E0.00428
G1 X124.701 Y112.074 E0.08025
G1 X124.724 Y112.182 E0.00367
G1 X125.108 Y114.714 E0.08518
G1 X125.118 Y114.815 E0.00338
G1 X125.248 Y117.449 E0.08771
G1 X125.248 Y117.547 E0.00326
G1 X125.12 Y120.181 E0.08771
G1 X125.11 Y120.282 E0.00338
G1 X124.726 Y122.816 E0.08524
G1 X124.703 Y122.925 E0.00371
G1 X124.079 Y125.256 E0.08026
G1 X124.038 Y125.376 E0.00422
G1 X123.199 Y127.425 E0.07364
G1 X123.128 Y127.567 E0.00528
G1 X122.106 Y129.243 E0.06529
G1 X121.982 Y129.405 E0.00679
G1 X120.812 Y130.656 E0.05697
G1 X120.601 Y130.828 E0.00905
G1 X119.338 Y131.594 E0.04913
G1 X119.012 Y131.72 E0.01162
G1 X117.694 Y131.979 E0.04468
G1 X117.31 Y131.98 E0.01277
G1 X115.992 Y131.723 E0.04466
G1 X115.664 Y131.596 E0.0117
G1 X114.401 Y130.83 E0.04913
G1 X114.19 Y130.658 E0.00905
G1 X113.02 Y129.407 E0.05697
G1 X112.896 Y129.244 E0.00681
G1 X111.875 Y127.568 E0.06527
G1 X111.804 Y127.428 E0.00522
G1 X110.963 Y125.379 E0.07367
G1 X110.922 Y125.257 E0.00428
G1 X110.299 Y122.926 E0.08025
G1 X110.276 Y122.818 E0.00367
G1 X109.892 Y120.284 E0.08524
G1 X109.882 Y120.183 E0.00338
G1 X109.752 Y117.551 E0.08765
G1 X109.752 Y117.453 E0.00326
G1 X109.88 Y114.819 E0.08771
G1 X109.89 Y114.718 E0.00338
G1 X110.274 Y112.184 E0.08524
G1 X110.297 Y112.075 E0.00371
