;FLAVOR:Marlin
;TIME:7764
;Filament used: 5.00349m
;Layer height: 0.2
;MINX:100.15
;MINY:100.15
;MINZ:0.2
;MAXX:134.85
;MAXY:134.85
;MAXZ:76.2
;Generated with Cura_SteamEngine 4.7.1
M140 S60
M105
M190 S60
M104 S220
M105
M109 S220
M82 ;absolute extrusion mode
; Ender 3 Custom Start G-code
G92 E0 ; Reset Extruder
G28 ; Home all axes
G1 Z2.0 F3000 ; Move Z Axis up little to prevent scratching of Heat Bed
G1 X0.1 Y20 Z0.3 F5000.0 ; Move to start position
G1 X0.1 Y200.0 Z0.3 F1500.0 E15 ; Draw the first line
G1 X0.4 Y200.0 Z0.3 F5000.0 ; Move to side a little
G1 X0.4 Y20 Z0.3 F1500.0 E30 ; Draw the second line
G92 E0 ; Reset Extruder
G1 Z2.0 F3000 ; Move Z Axis up little to prevent scratching of Heat Bed
G1 X5 Y20 Z0.3 F5000.0 ; Move over to prevent blob squish
M83 ;relative extrusion mode
G1 F2700 E-5
;LAYER_COUNT:381
;LAYER:0
M107
G0 F6000 X103.348 Y103.414 Z0.2
;TYPE:SKIRT
G1 F2700 E5
G1 F1200 X104.036 Y102.777 E0.03119
G1 X104.776 Y102.201 E0.03119
G1 X105.562 Y101.689 E0.0312
G1 X106.389 Y101.247 E0.03119
G1 X107.251 Y100.877 E0.0312
G1 X108.141 Y100.581 E0.0312
G1 X109.053 Y100.363 E0.03119
G1 X109.98 Y100.222 E0.03119
G1 X110.851 Y100.163 E0.02904
G1 X111.172 Y100.154 E0.01068
G1 X111.48 Y100.15 E0.01024
G1 X123.301 Y100.151 E0.39317
G1 X123.999 Y100.161 E0.02322
G1 X124.935 Y100.215 E0.03118
G1 X125.863 Y100.347 E0.03118
G1 X126.777 Y100.559 E0.03121
G1 X127.669 Y100.848 E0.03119
G1 X128.534 Y101.211 E0.0312
G1 X129.364 Y101.647 E0.03118
G1 X130.155 Y102.152 E0.03121
G1 X130.899 Y102.723 E0.03119
G1 X131.592 Y103.355 E0.03119
G1 X132.229 Y104.043 E0.03119
G1 X132.804 Y104.784 E0.0312
G1 X133.315 Y105.57 E0.03118
G1 X133.757 Y106.398 E0.03122
G1 X134.126 Y107.26 E0.03119
G1 X134.421 Y108.15 E0.03119
G1 X134.639 Y109.062 E0.03119
G1 X134.779 Y109.99 E0.03121
G1 X134.837 Y110.851 E0.0287
G1 X134.846 Y111.171 E0.01065
G1 X134.85 Y111.48 E0.01028
G1 X134.849 Y123.25 E0.39147
G1 X134.84 Y123.977 E0.02418
G1 X134.789 Y124.914 E0.03121
G1 X134.657 Y125.842 E0.03118
G1 X134.448 Y126.756 E0.03118
G1 X134.161 Y127.649 E0.0312
G1 X133.799 Y128.515 E0.03122
G1 X133.365 Y129.346 E0.03118
G1 X132.861 Y130.137 E0.0312
G1 X132.292 Y130.882 E0.03118
G1 X131.661 Y131.577 E0.03122
G1 X130.974 Y132.215 E0.03118
G1 X130.235 Y132.792 E0.03118
G1 X129.449 Y133.304 E0.0312
G1 X128.623 Y133.747 E0.03117
G1 X127.761 Y134.119 E0.03123
G1 X126.872 Y134.415 E0.03116
G1 X125.96 Y134.635 E0.0312
G1 X125.033 Y134.776 E0.03119
G1 X124.149 Y134.837 E0.02947
G1 X123.828 Y134.846 E0.01068
G1 X123.52 Y134.85 E0.01024
G1 X111.715 Y134.849 E0.39264
G1 X111.017 Y134.84 E0.02322
G1 X110.081 Y134.788 E0.03118
G1 X109.152 Y134.656 E0.03121
G1 X108.238 Y134.446 E0.03119
G1 X107.345 Y134.159 E0.0312
G1 X106.48 Y133.796 E0.0312
G1 X105.649 Y133.362 E0.03118
G1 X104.858 Y132.858 E0.0312
G1 X104.113 Y132.288 E0.0312
G1 X103.419 Y131.657 E0.0312
G1 X102.782 Y130.97 E0.03116
G1 X102.205 Y130.23 E0.03121
G1 X101.693 Y129.444 E0.0312
G1 X101.25 Y128.617 E0.0312
G1 X100.879 Y127.756 E0.03118
G1 X100.583 Y126.866 E0.0312
G1 X100.364 Y125.954 E0.0312
G1 X100.223 Y125.027 E0.03119
G1 X100.163 Y124.138 E0.02964
G1 X100.154 Y123.805 E0.01108
G1 X100.15 Y123.508 E0.00988
G1 X100.151 Y111.675 E0.39357
G1 X100.16 Y111.01 E0.02212
G1 X100.213 Y110.074 E0.03118
G1 X100.345 Y109.145 E0.03121
G1 X100.556 Y108.231 E0.0312
G1 X100.844 Y107.339 E0.03118
G1 X101.207 Y106.474 E0.0312
G1 X101.642 Y105.643 E0.0312
G1 X102.146 Y104.853 E0.03117
G1 X102.716 Y104.108 E0.0312
G1 X103.348 Y103.414 E0.03122
G0 F6000 X103.739 Y103.589
G1 F1200 X104.424 Y102.973 E0.03064
G1 X105.16 Y102.42 E0.03062
G1 X105.941 Y101.932 E0.03063
G1 X106.761 Y101.514 E0.03061
G1 X107.615 Y101.169 E0.03063
G1 X108.495 Y100.899 E0.03062
G1 X109.395 Y100.707 E0.03061
G1 X110.309 Y100.593 E0.03064
G1 X110.862 Y100.563 E0.01842
G1 X111.183 Y100.554 E0.01068
G1 X111.48 Y100.55 E0.00988
G1 X123.143 Y100.55 E0.38791
G1 X123.993 Y100.561 E0.02827
G1 X124.912 Y100.614 E0.03062
G1 X125.823 Y100.747 E0.03062
G1 X126.719 Y100.958 E0.03062
G1 X127.593 Y101.246 E0.03061
G1 X128.44 Y101.609 E0.03065
G1 X129.251 Y102.044 E0.03061
G1 X130.021 Y102.548 E0.03061
G1 X130.745 Y103.117 E0.03063
G1 X131.417 Y103.747 E0.03064
G1 X132.032 Y104.432 E0.03062
G1 X132.585 Y105.168 E0.03062
G1 X133.072 Y105.949 E0.03061
G1 X133.489 Y106.77 E0.03063
G1 X133.834 Y107.624 E0.03063
G1 X134.103 Y108.504 E0.03061
G1 X134.295 Y109.405 E0.03064
G1 X134.408 Y110.318 E0.0306
G1 X134.437 Y110.862 E0.01812
G1 X134.446 Y111.182 E0.01065
G1 X134.45 Y111.48 E0.00991
G1 X134.449 Y123.245 E0.39131
G1 X134.44 Y123.972 E0.02418
G1 X134.389 Y124.891 E0.03061
G1 X134.258 Y125.803 E0.03064
G1 X134.048 Y126.699 E0.03061
G1 X133.762 Y127.574 E0.03062
G1 X133.401 Y128.421 E0.03062
G1 X132.967 Y129.233 E0.03062
G1 X132.465 Y130.005 E0.03063
G1 X131.897 Y130.73 E0.03063
G1 X131.269 Y131.403 E0.03062
G1 X130.585 Y132.019 E0.03062
G1 X129.85 Y132.573 E0.03061
G1 X129.07 Y133.062 E0.03062
G1 X128.25 Y133.481 E0.03063
G1 X127.397 Y133.827 E0.03062
G1 X126.517 Y134.098 E0.03063
G1 X125.617 Y134.291 E0.03061
G1 X124.703 Y134.406 E0.03064
G1 X124.138 Y134.437 E0.01882
G1 X123.817 Y134.446 E0.01068
G1 X123.52 Y134.45 E0.00988
G1 X111.72 Y134.449 E0.39247
G1 X111.022 Y134.44 E0.02322
G1 X110.103 Y134.388 E0.03061
G1 X109.192 Y134.257 E0.03061
G1 X108.296 Y134.047 E0.03061
G1 X107.421 Y133.76 E0.03063
G1 X106.574 Y133.398 E0.03064
G1 X105.762 Y132.964 E0.03062
G1 X104.991 Y132.462 E0.0306
G1 X104.266 Y131.894 E0.03063
G1 X103.593 Y131.265 E0.03064
G1 X102.978 Y130.581 E0.03059
G1 X102.424 Y129.846 E0.03061
G1 X101.936 Y129.065 E0.03063
G1 X101.517 Y128.245 E0.03063
G1 X101.171 Y127.392 E0.03062
G1 X100.901 Y126.512 E0.03062
G1 X100.708 Y125.611 E0.03065
G1 X100.594 Y124.698 E0.0306
G1 X100.563 Y124.127 E0.01902
G1 X100.554 Y123.794 E0.01108
G1 X100.55 Y123.508 E0.00951
G1 X100.551 Y111.681 E0.39337
G1 X100.56 Y111.016 E0.02212
G1 X100.612 Y110.096 E0.03065
G1 X100.744 Y109.185 E0.03062
G1 X100.955 Y108.289 E0.03062
G1 X101.242 Y107.414 E0.03063
G1 X101.605 Y106.568 E0.03062
G1 X102.039 Y105.756 E0.03062
G1 X102.542 Y104.985 E0.03062
G1 X103.111 Y104.261 E0.03063
G1 X103.739 Y103.589 E0.03059
G0 F6000 X104.131 Y103.767
G1 F1200 X104.812 Y103.174 E0.03003
G1 X105.544 Y102.644 E0.03006
G1 X106.319 Y102.181 E0.03003
G1 X107.132 Y101.788 E0.03003
G1 X107.977 Y101.468 E0.03005
G1 X108.846 Y101.225 E0.03001
G1 X109.734 Y101.059 E0.03005
G1 X110.873 Y100.963 E0.03802
G1 X111.194 Y100.954 E0.01068
G1 X111.48 Y100.95 E0.00951
G1 X123.143 Y100.95 E0.38791
G1 X123.987 Y100.961 E0.02807
G1 X124.889 Y101.014 E0.03005
G1 X125.782 Y101.146 E0.03002
G1 X126.66 Y101.357 E0.03003
G1 X127.516 Y101.645 E0.03004
G1 X128.343 Y102.007 E0.03003
G1 X129.135 Y102.442 E0.03005
G1 X129.886 Y102.944 E0.03004
G1 X130.589 Y103.511 E0.03004
G1 X131.239 Y104.138 E0.03004
G1 X131.831 Y104.82 E0.03004
G1 X132.361 Y105.551 E0.03003
G1 X132.823 Y106.327 E0.03004
G1 X133.216 Y107.14 E0.03003
G1 X133.534 Y107.985 E0.03003
G1 X133.777 Y108.855 E0.03004
G1 X133.942 Y109.743 E0.03004
G1 X134.037 Y110.873 E0.03772
G1 X134.046 Y111.193 E0.01065
G1 X134.05 Y111.48 E0.00955
G1 X134.049 Y123.24 E0.39114
G1 X134.04 Y123.967 E0.02418
G1 X133.989 Y124.869 E0.03005
G1 X133.858 Y125.763 E0.03005
G1 X133.649 Y126.641 E0.03002
G1 X133.363 Y127.498 E0.03005
G1 X133.002 Y128.326 E0.03004
G1 X132.57 Y129.118 E0.03001
G1 X132.069 Y129.87 E0.03005
G1 X131.503 Y130.574 E0.03004
G1 X130.878 Y131.225 E0.03002
G1 X130.197 Y131.819 E0.03006
G1 X129.466 Y132.35 E0.03005
G1 X128.692 Y132.814 E0.03001
G1 X127.879 Y133.208 E0.03005
G1 X127.035 Y133.528 E0.03002
G1 X126.165 Y133.773 E0.03006
G1 X125.278 Y133.939 E0.03001
G1 X124.127 Y134.037 E0.03842
G1 X123.806 Y134.046 E0.01068
G1 X123.52 Y134.05 E0.00951
G1 X111.725 Y134.049 E0.3923
G1 X111.027 Y134.04 E0.02322
G1 X110.126 Y133.989 E0.03002
G1 X109.232 Y133.857 E0.03006
G1 X108.354 Y133.648 E0.03002
G1 X107.497 Y133.361 E0.03006
G1 X106.67 Y133 E0.03001
G1 X105.877 Y132.567 E0.03005
G1 X105.126 Y132.066 E0.03003
G1 X104.422 Y131.5 E0.03004
G1 X103.771 Y130.874 E0.03004
G1 X103.178 Y130.193 E0.03003
G1 X102.648 Y129.462 E0.03003
G1 X102.184 Y128.687 E0.03004
G1 X101.79 Y127.874 E0.03005
G1 X101.47 Y127.03 E0.03002
G1 X101.226 Y126.16 E0.03005
G1 X101.06 Y125.272 E0.03005
G1 X100.963 Y124.117 E0.03855
G1 X100.954 Y123.784 E0.01108
G1 X100.95 Y123.508 E0.00918
G1 X100.951 Y111.686 E0.3932
G1 X100.96 Y111.021 E0.02212
G1 X101.012 Y110.119 E0.03005
G1 X101.144 Y109.226 E0.03002
G1 X101.354 Y108.348 E0.03003
G1 X101.641 Y107.491 E0.03006
G1 X102.003 Y106.664 E0.03003
G1 X102.436 Y105.872 E0.03002
G1 X102.938 Y105.121 E0.03004
G1 X103.505 Y104.417 E0.03007
G1 X104.131 Y103.767 E0.03001
G1 F2700 E-5
;MESH:d2095 specimen-1.STL
G0 F6000 X111.564 Y110.485
G0 X111.564 Y111.564
G0 X123.068 Y111.932
G0 X123.25 Y123.25
;TYPE:WALL-INNER
G1 F2700 E5
G1 F1200 X111.75 Y123.25 E0.38249
G1 X111.75 Y111.75 E0.38249
G1 X123.25 Y111.75 E0.38249
G1 X123.25 Y123.25 E0.38249
G0 F6000 X123.65 Y123.65
;TYPE:WALL-OUTER
G1 F1200 X111.35 Y123.65 E0.4091
G1 X111.35 Y111.35 E0.4091
G1 X123.65 Y111.35 E0.4091
G1 X123.65 Y123.65 E0.4091
G0 F6000 X123.38 Y123.38
G0 X123.14 Y122.86
G0 X122.86 Y122.86
;TYPE:SKIN
G1 F1200 X112.14 Y122.86 E0.35655
G1 X112.14 Y112.14 E0.35655
G1 X122.86 Y112.14 E0.35655
G1 X122.86 Y122.86 E0.35655
G0 F6000 X123.14 Y122.86
G0 X123.14 Y112.517
G0 X122.699 Y112.517
G1 F1200 X122.482 Y112.3 E0.01021
G0 F6000 X121.917 Y112.3
G1 F1200 X122.699 Y113.083 E0.03681
G0 F6000 X122.699 Y113.649
G1 F1200 X121.351 Y112.3 E0.06343
G0 F6000 X120.785 Y112.3
G1 F1200 X122.699 Y114.214 E0.09003
G0 F6000 X122.699 Y114.78
G1 F1200 X120.22 Y112.3 E0.11663
G0 F6000 X119.654 Y112.3
G1 F1200 X122.699 Y115.346 E0.14325
G0 F6000 X122.699 Y115.911
G1 F1200 X119.088 Y112.3 E0.16985
G0 F6000 X118.523 Y112.3
G1 F1200 X122.699 Y116.477 E0.19645
G0 F6000 X122.699 Y117.043
G1 F1200 X117.957 Y112.3 E0.22307
G0 F6000 X117.391 Y112.3
G1 F1200 X122.699 Y117.608 E0.24967
G0 F6000 X122.699 Y118.174
G1 F1200 X116.826 Y112.3 E0.27627
G0 F6000 X116.26 Y112.3
G1 F1200 X122.699 Y118.74 E0.30289
G0 F6000 X122.699 Y119.305
G1 F1200 X115.694 Y112.3 E0.32949
G0 F6000 X115.129 Y112.3
G1 F1200 X122.699 Y119.871 E0.35609
G0 F6000 X122.699 Y120.437
G1 F1200 X114.563 Y112.3 E0.38272
G0 F6000 X113.997 Y112.3
G1 F1200 X122.699 Y121.002 E0.40932
G0 F6000 X122.699 Y121.568
G1 F1200 X113.431 Y112.3 E0.43594
G0 F6000 X112.866 Y112.3
G1 F1200 X122.699 Y122.134 E0.46254
G0 F6000 X122.699 Y122.699
G1 F1200 X112.299 Y112.299 E0.48918
G0 F6000 X112.299 Y112.865
G1 F1200 X122.133 Y122.699 E0.46256
G0 F6000 X121.567 Y122.699
G1 F1200 X112.299 Y113.431 E0.43594
G0 F6000 X112.299 Y113.996
G1 F1200 X121.002 Y122.699 E0.40936
G0 F6000 X120.436 Y122.699
G1 F1200 X112.299 Y114.562 E0.38274
G0 F6000 X112.299 Y115.128
G1 F1200 X119.87 Y122.699 E0.35612
G0 F6000 X119.305 Y122.699
G1 F1200 X112.299 Y115.693 E0.32954
G0 F6000 X112.299 Y116.259
G1 F1200 X118.739 Y122.699 E0.30292
G0 F6000 X118.173 Y122.699
G1 F1200 X112.299 Y116.825 E0.27629
G0 F6000 X112.299 Y117.391
G1 F1200 X117.608 Y122.699 E0.2497
G0 F6000 X117.042 Y122.699
G1 F1200 X112.299 Y117.956 E0.2231
G0 F6000 X112.299 Y118.522
G1 F1200 X116.476 Y122.699 E0.19647
G0 F6000 X115.911 Y122.699
G1 F1200 X112.299 Y119.088 E0.16987
G0 F6000 X112.299 Y119.653
G1 F1200 X115.345 Y122.699 E0.14327
G0 F6000 X114.779 Y122.699
G1 F1200 X112.299 Y120.219 E0.11665
G0 F6000 X112.299 Y120.785
G1 F1200 X114.214 Y122.699 E0.09005
G0 F6000 X113.648 Y122.699
G1 F1200 X112.299 Y121.35 E0.06345
G0 F6000 X112.299 Y121.916
G1 F1200 X113.082 Y122.699 E0.03683
G0 F6000 X112.516 Y122.699
G1 F1200 X112.299 Y122.482 E0.01021
G0 F6000 X111.95 Y122.482
;MESH:NONMESH
G0 F300 X111.95 Y122.482 Z0.4
G0 F6000 X111.86 Y122.482
G0 X111.932 Y123.068
G0 X123.25 Y123.25
;TIME_ELAPSED:47.469293
;LAYER:1
M106 S85
;TYPE:WALL-INNER
;MESH:d2095 specimen-1.STL
G1 F1350 X111.75 Y123.25 E0.38249
G1 X111.75 Y111.75 E0.38249
G1 X123.25 Y111.75 E0.38249
G1 X123.25 Y123.25 E0.38249
G0 F7500 X123.65 Y123.65
;TYPE:WALL-OUTER
G1 F1350 X111.35 Y123.65 E0.4091
G1 X111.35 Y111.35 E0.4091
G1 X123.65 Y111.35 E0.4091
G1 X123.65 Y123.65 E0.4091
G0 F7500 X123.38 Y123.38
G0 X123.14 Y122.86
G0 X122.86 Y122.86
;TYPE:SKIN
G1 F1350 X112.14 Y122.86 E0.35655
G1 X112.14 Y112.14 E0.35655
G1 X122.86 Y112.14 E0.35655
G1 X122.86 Y122.86 E0.35655
G0 F7500 X122.699 Y122.242
G1 F1350 X122.241 Y122.699 E0.02152
G0 F7500 X121.676 Y122.699
G1 F1350 X122.699 Y121.676 E0.04812
G0 F7500 X122.699 Y121.111
G1 F1350 X121.11 Y122.699 E0.07472
G0 F7500 X120.544 Y122.699
G1 F1350 X122.699 Y120.545 E0.10134
G0 F7500 X122.699 Y119.979
G1 F1350 X119.979 Y122.699 E0.12794
G0 F7500 X119.413 Y122.699
G1 F1350 X122.699 Y119.414 E0.15454
G0 F7500 X122.699 Y118.848
G1 F1350 X118.847 Y122.699 E0.18116
G0 F7500 X118.281 Y122.699
G1 F1350 X122.699 Y118.282 E0.20779
G0 F7500 X122.699 Y117.717
G1 F1350 X117.716 Y122.699 E0.23436
G0 F7500 X117.15 Y122.699
G1 F1350 X122.699 Y117.151 E0.26098
G0 F7500 X122.699 Y116.585
G1 F1350 X116.584 Y122.699 E0.28761
G0 F7500 X116.019 Y122.699
G1 F1350 X122.699 Y116.019 E0.31421
G0 F7500 X122.699 Y115.454
G1 F1350 X115.453 Y122.699 E0.34081
G0 F7500 X114.887 Y122.699
G1 F1350 X122.699 Y114.888 E0.36743
G0 F7500 X122.699 Y114.322
G1 F1350 X114.322 Y122.699 E0.39403
G0 F7500 X113.756 Y122.699
G1 F1350 X122.699 Y113.757 E0.42063
G0 F7500 X122.699 Y113.191
G1 F1350 X113.19 Y122.699 E0.44725
G0 F7500 X112.625 Y122.699
G1 F1350 X122.699 Y112.625 E0.47385
G0 F7500 X122.459 Y112.299
G1 F1350 X112.3 Y122.458 E0.47785
G0 F7500 X112.3 Y121.893
G1 F1350 X121.893 Y112.299 E0.45125
G0 F7500 X121.328 Y112.299
G1 F1350 X112.3 Y121.327 E0.42465
G0 F7500 X112.3 Y120.761
G1 F1350 X120.762 Y112.299 E0.39803
G0 F7500 X120.196 Y112.299
G1 F1350 X112.3 Y120.196 E0.37143
G0 F7500 X112.3 Y119.63
G1 F1350 X119.631 Y112.299 E0.34483
G0 F7500 X119.065 Y112.299
G1 F1350 X112.3 Y119.064 E0.3182
G0 F7500 X112.3 Y118.499
G1 F1350 X118.499 Y112.299 E0.29161
G0 F7500 X117.934 Y112.299
G1 F1350 X112.3 Y117.933 E0.26501
G0 F7500 X112.3 Y117.367
G1 F1350 X117.368 Y112.299 E0.23838
G0 F7500 X116.802 Y112.299
G1 F1350 X112.3 Y116.802 E0.21178
G0 F7500 X112.3 Y116.236
G1 F1350 X116.237 Y112.299 E0.18518
G0 F7500 X115.671 Y112.299
G1 F1350 X112.3 Y115.67 E0.15856
G0 F7500 X112.3 Y115.104
G1 F1350 X115.105 Y112.299 E0.13194
G0 F7500 X114.539 Y112.299
G1 F1350 X112.3 Y114.539 E0.10534
G0 F7500 X112.3 Y113.973
G1 F1350 X113.974 Y112.299 E0.07874
G0 F7500 X113.408 Y112.299
G1 F1350 X112.3 Y113.407 E0.05212
G0 F7500 X112.3 Y112.842
G1 F1350 X112.842 Y112.299 E0.02552
G0 F7500 X112.842 Y111.95
;MESH:NONMESH
G0 F300 X112.842 Y111.95 Z0.6
G0 F7500 X112.842 Y111.86
G0 X123.068 Y111.932
G0 X123.25 Y123.25
;TIME_ELAPSED:69.390614
;LAYER:2
M106 S170
;TYPE:WALL-INNER
;MESH:d2095 specimen-1.STL
G1 F1500 X111.75 Y123.25 E0.38249
G1 X111.75 Y111.75 E0.38249
G1 X123.25 Y111.75 E0.38249
G1 X123.25 Y123.25 E0.38249
G0 F9000 X123.65 Y123.65
;TYPE:WALL-OUTER
G1 F1500 X111.35 Y123.65 E0.4091
G1 X111.35 Y111.35 E0.4091
G1 X123.65 Y111.35 E0.4091
G1 X123.65 Y123.65 E0.4091
G0 F9000 X123.38 Y123.38
G0 X123.14 Y122.86
G0 X122.86 Y122.86
;TYPE:SKIN
G1 F1500 X112.14 Y122.86 E0.35655
G1 X112.14 Y112.14 E0.35655
G1 X122.86 Y112.14 E0.35655
G1 X122.86 Y122.86 E0.35655
G0 F9000 X123.14 Y122.86
G0 X123.14 Y112.517
G0 X122.699 Y112.517
G1 F1500 X122.482 Y112.3 E0.01021
G0 F9000 X121.917 Y112.3
G1 F1500 X122.699 Y113.083 E0.03681
G0 F9000 X122.699 Y113.649
G1 F1500 X121.351 Y112.3 E0.06343
G0 F9000 X120.785 Y112.3
G1 F1500 X122.699 Y114.214 E0.09003
G0 F9000 X122.699 Y114.78
G1 F1500 X120.22 Y112.3 E0.11663
G0 F9000 X119.654 Y112.3
G1 F1500 X122.699 Y115.346 E0.14325
G0 F9000 X122.699 Y115.911
G1 F1500 X119.088 Y112.3 E0.16985
G0 F9000 X118.523 Y112.3
G1 F1500 X122.699 Y116.477 E0.19645
G0 F9000 X122.699 Y117.043
G1 F1500 X117.957 Y112.3 E0.22307
G0 F9000 X117.391 Y112.3
G1 F1500 X122.699 Y117.608 E0.24967
G0 F9000 X122.699 Y118.174
G1 F1500 X116.826 Y112.3 E0.27627
G0 F9000 X116.26 Y112.3
G1 F1500 X122.699 Y118.74 E0.30289
