;FLAVOR:Marlin
;TIME:4415
;Filament used: 2.72565m
;Layer height: 0.2
;MINX:100.65
;MINY:100.65
;MINZ:0.2
;MAXX:134.35
;MAXY:134.35
;MAXZ:50
;Generated with Cura_SteamEngine 4.7.1
M140 S60
M105
M190 S60
M104 S210
M105
M109 S210
M82 ;absolute extrusion mode
; Ender 3 Custom Start G-code
G92 E0 ; Reset Extruder
G28 ; Home all axes
G1 Z2.0 F3000 ; Move Z Axis up little to prevent scratching of Heat Bed
G1 X0.1 Y20 Z0.3 F5000.0 ; Move to start position
G1 X0.1 Y200.0 Z0.3 F1500.0 E15 ; Draw the first line
G1 X0.4 Y200.0 Z0.3 F5000.0 ; Move to side a little
G1 X0.4 Y20 Z0.3 F1500.0 E30 ; Draw the second line
G92 E0 ; Reset Extruder
G1 Z2.0 F3000 ; Move Z Axis up little to prevent scratching of Heat Bed
G1 X5 Y20 Z0.3 F5000.0 ; Move over to prevent blob squish
M83 ;relative extrusion mode
G1 F2700 E-5
;LAYER_COUNT:250
;LAYER:0
M107
M205 X8 Y8
G0 F6000 X103.848 Y103.914 Z0.2
;TYPE:SKIRT
G1 F2700 E5
G1 F1200 X104.536 Y103.277 E0.03119
G1 X105.276 Y102.701 E0.03119
G1 X106.062 Y102.189 E0.0312
G1 X106.889 Y101.747 E0.03119
G1 X107.751 Y101.377 E0.0312
G1 X108.641 Y101.081 E0.0312
G1 X109.553 Y100.863 E0.03119
G1 X110.48 Y100.722 E0.03119
G1 X111.351 Y100.663 E0.02904
G1 X111.672 Y100.654 E0.01068
G1 X111.98 Y100.65 E0.01024
G1 X122.801 Y100.651 E0.35991
G1 X123.499 Y100.661 E0.02322
G1 X124.435 Y100.715 E0.03118
G1 X125.363 Y100.847 E0.03118
G1 X126.277 Y101.059 E0.03121
G1 X127.169 Y101.348 E0.03119
G1 X128.034 Y101.711 E0.0312
G1 X128.864 Y102.147 E0.03118
G1 X129.655 Y102.652 E0.03121
G1 X130.399 Y103.223 E0.03119
G1 X131.092 Y103.855 E0.03119
G1 X131.729 Y104.543 E0.03119
G1 X132.304 Y105.284 E0.0312
G1 X132.815 Y106.07 E0.03118
G1 X133.257 Y106.898 E0.03122
G1 X133.626 Y107.76 E0.03119
G1 X133.921 Y108.65 E0.03119
G1 X134.139 Y109.562 E0.03119
G1 X134.279 Y110.49 E0.03121
G1 X134.337 Y111.351 E0.0287
G1 X134.346 Y111.671 E0.01065
G1 X134.35 Y111.98 E0.01028
G1 X134.349 Y122.75 E0.35821
G1 X134.34 Y123.477 E0.02418
G1 X134.289 Y124.414 E0.03121
G1 X134.157 Y125.342 E0.03118
G1 X133.948 Y126.256 E0.03118
G1 X133.661 Y127.149 E0.0312
G1 X133.299 Y128.015 E0.03122
G1 X132.865 Y128.846 E0.03118
G1 X132.361 Y129.637 E0.0312
G1 X131.792 Y130.382 E0.03118
G1 X131.161 Y131.077 E0.03122
G1 X130.474 Y131.715 E0.03118
G1 X129.735 Y132.292 E0.03118
G1 X128.949 Y132.804 E0.0312
G1 X128.123 Y133.247 E0.03117
G1 X127.261 Y133.619 E0.03123
G1 X126.372 Y133.915 E0.03116
G1 X125.46 Y134.135 E0.0312
G1 X124.533 Y134.276 E0.03119
G1 X123.649 Y134.337 E0.02947
G1 X123.328 Y134.346 E0.01068
G1 X123.02 Y134.35 E0.01024
G1 X112.215 Y134.349 E0.35938
G1 X111.517 Y134.34 E0.02322
G1 X110.581 Y134.288 E0.03118
G1 X109.652 Y134.156 E0.03121
G1 X108.738 Y133.946 E0.03119
G1 X107.845 Y133.659 E0.0312
G1 X106.98 Y133.296 E0.0312
G1 X106.149 Y132.862 E0.03118
G1 X105.358 Y132.358 E0.0312
G1 X104.613 Y131.788 E0.0312
G1 X103.919 Y131.157 E0.0312
G1 X103.282 Y130.47 E0.03116
G1 X102.705 Y129.73 E0.03121
G1 X102.193 Y128.944 E0.0312
G1 X101.75 Y128.117 E0.0312
G1 X101.379 Y127.256 E0.03118
G1 X101.083 Y126.366 E0.0312
G1 X100.864 Y125.454 E0.0312
G1 X100.723 Y124.527 E0.03119
G1 X100.663 Y123.638 E0.02964
G1 X100.654 Y123.305 E0.01108
G1 X100.65 Y123.008 E0.00988
G1 X100.651 Y112.175 E0.36031
G1 X100.66 Y111.51 E0.02212
G1 X100.713 Y110.574 E0.03118
G1 X100.845 Y109.645 E0.03121
G1 X101.056 Y108.731 E0.0312
G1 X101.344 Y107.839 E0.03118
G1 X101.707 Y106.974 E0.0312
G1 X102.142 Y106.143 E0.0312
G1 X102.646 Y105.353 E0.03117
G1 X103.216 Y104.608 E0.0312
G1 X103.848 Y103.914 E0.03122
G0 F6000 X104.239 Y104.089
G1 F1200 X104.924 Y103.473 E0.03064
G1 X105.66 Y102.92 E0.03062
G1 X106.441 Y102.432 E0.03063
G1 X107.261 Y102.014 E0.03061
G1 X108.115 Y101.669 E0.03063
G1 X108.995 Y101.399 E0.03062
G1 X109.895 Y101.207 E0.03061
G1 X110.809 Y101.093 E0.03064
G1 X111.362 Y101.063 E0.01842
G1 X111.683 Y101.054 E0.01068
G1 X111.98 Y101.05 E0.00988
G1 X122.643 Y101.05 E0.35465
G1 X123.493 Y101.061 E0.02827
G1 X124.412 Y101.114 E0.03062
G1 X125.323 Y101.247 E0.03062
G1 X126.219 Y101.458 E0.03062
G1 X127.093 Y101.746 E0.03061
G1 X127.94 Y102.109 E0.03065
G1 X128.751 Y102.544 E0.03061
G1 X129.521 Y103.048 E0.03061
G1 X130.245 Y103.617 E0.03063
G1 X130.917 Y104.247 E0.03064
G1 X131.532 Y104.932 E0.03062
G1 X132.085 Y105.668 E0.03062
G1 X132.572 Y106.449 E0.03061
G1 X132.989 Y107.27 E0.03063
G1 X133.334 Y108.124 E0.03063
G1 X133.603 Y109.004 E0.03061
G1 X133.795 Y109.905 E0.03064
G1 X133.908 Y110.818 E0.0306
G1 X133.937 Y111.362 E0.01812
G1 X133.946 Y111.682 E0.01065
G1 X133.95 Y111.98 E0.00991
G1 X133.949 Y122.745 E0.35805
G1 X133.94 Y123.472 E0.02418
G1 X133.889 Y124.391 E0.03061
G1 X133.758 Y125.303 E0.03064
G1 X133.548 Y126.199 E0.03061
G1 X133.262 Y127.074 E0.03062
G1 X132.901 Y127.921 E0.03062
G1 X132.467 Y128.733 E0.03062
G1 X131.965 Y129.505 E0.03063
G1 X131.397 Y130.23 E0.03063
G1 X130.769 Y130.903 E0.03062
G1 X130.085 Y131.519 E0.03062
G1 X129.35 Y132.073 E0.03061
G1 X128.57 Y132.562 E0.03062
G1 X127.75 Y132.981 E0.03063
G1 X126.897 Y133.327 E0.03062
G1 X126.017 Y133.598 E0.03063
G1 X125.117 Y133.791 E0.03061
G1 X124.203 Y133.906 E0.03064
G1 X123.638 Y133.937 E0.01882
G1 X123.317 Y133.946 E0.01068
G1 X123.02 Y133.95 E0.00988
G1 X112.22 Y133.949 E0.35921
G1 X111.522 Y133.94 E0.02322
G1 X110.603 Y133.888 E0.03061
G1 X109.692 Y133.757 E0.03061
G1 X108.796 Y133.547 E0.03061
G1 X107.921 Y133.26 E0.03063
G1 X107.074 Y132.898 E0.03064
G1 X106.262 Y132.464 E0.03062
G1 X105.491 Y131.962 E0.0306
G1 X104.766 Y131.394 E0.03063
G1 X104.093 Y130.765 E0.03064
G1 X103.478 Y130.081 E0.03059
G1 X102.924 Y129.346 E0.03061
G1 X102.436 Y128.565 E0.03063
G1 X102.017 Y127.745 E0.03063
G1 X101.671 Y126.892 E0.03062
G1 X101.401 Y126.012 E0.03062
G1 X101.208 Y125.111 E0.03065
G1 X101.094 Y124.198 E0.0306
G1 X101.063 Y123.627 E0.01902
G1 X101.054 Y123.294 E0.01108
G1 X101.05 Y123.008 E0.00951
G1 X101.051 Y112.181 E0.36011
G1 X101.06 Y111.516 E0.02212
G1 X101.112 Y110.596 E0.03065
G1 X101.244 Y109.685 E0.03062
G1 X101.455 Y108.789 E0.03062
G1 X101.742 Y107.914 E0.03063
G1 X102.105 Y107.068 E0.03062
G1 X102.539 Y106.256 E0.03062
G1 X103.042 Y105.485 E0.03062
G1 X103.611 Y104.761 E0.03063
G1 X104.239 Y104.089 E0.03059
G0 F6000 X104.631 Y104.267
G1 F1200 X105.312 Y103.674 E0.03003
G1 X106.044 Y103.144 E0.03006
G1 X106.819 Y102.681 E0.03003
G1 X107.632 Y102.288 E0.03003
G1 X108.477 Y101.968 E0.03005
G1 X109.346 Y101.725 E0.03001
G1 X110.234 Y101.559 E0.03005
G1 X111.373 Y101.463 E0.03802
G1 X111.694 Y101.454 E0.01068
G1 X111.98 Y101.45 E0.00951
G1 X122.643 Y101.45 E0.35465
G1 X123.487 Y101.461 E0.02807
G1 X124.389 Y101.514 E0.03005
G1 X125.282 Y101.646 E0.03002
G1 X126.16 Y101.857 E0.03003
G1 X127.016 Y102.145 E0.03004
G1 X127.843 Y102.507 E0.03003
G1 X128.635 Y102.942 E0.03005
G1 X129.386 Y103.444 E0.03004
G1 X130.089 Y104.011 E0.03004
G1 X130.739 Y104.638 E0.03004
G1 X131.331 Y105.32 E0.03004
G1 X131.861 Y106.051 E0.03003
G1 X132.323 Y106.827 E0.03004
G1 X132.716 Y107.64 E0.03003
G1 X133.034 Y108.485 E0.03003
G1 X133.277 Y109.355 E0.03004
G1 X133.442 Y110.243 E0.03004
G1 X133.537 Y111.373 E0.03772
G1 X133.546 Y111.693 E0.01065
G1 X133.55 Y111.98 E0.00955
G1 X133.549 Y122.74 E0.35788
G1 X133.54 Y123.467 E0.02418
G1 X133.489 Y124.369 E0.03005
G1 X133.358 Y125.263 E0.03005
G1 X133.149 Y126.141 E0.03002
G1 X132.863 Y126.998 E0.03005
G1 X132.502 Y127.826 E0.03004
G1 X132.07 Y128.618 E0.03001
G1 X131.569 Y129.37 E0.03005
G1 X131.003 Y130.074 E0.03004
G1 X130.378 Y130.725 E0.03002
G1 X129.697 Y131.319 E0.03006
G1 X128.966 Y131.85 E0.03005
G1 X128.192 Y132.314 E0.03001
G1 X127.379 Y132.708 E0.03005
G1 X126.535 Y133.028 E0.03002
G1 X125.665 Y133.273 E0.03006
G1 X124.778 Y133.439 E0.03001
G1 X123.627 Y133.537 E0.03842
G1 X123.306 Y133.546 E0.01068
G1 X123.02 Y133.55 E0.00951
G1 X112.225 Y133.549 E0.35904
G1 X111.527 Y133.54 E0.02322
G1 X110.626 Y133.489 E0.03002
G1 X109.732 Y133.357 E0.03006
G1 X108.854 Y133.148 E0.03002
G1 X107.997 Y132.861 E0.03006
G1 X107.17 Y132.5 E0.03001
G1 X106.377 Y132.067 E0.03005
G1 X105.626 Y131.566 E0.03003
G1 X104.922 Y131 E0.03004
G1 X104.271 Y130.374 E0.03004
G1 X103.678 Y129.693 E0.03003
G1 X103.148 Y128.962 E0.03003
G1 X102.684 Y128.187 E0.03004
G1 X102.29 Y127.374 E0.03005
G1 X101.97 Y126.53 E0.03002
G1 X101.726 Y125.66 E0.03005
G1 X101.56 Y124.772 E0.03005
G1 X101.463 Y123.617 E0.03855
G1 X101.454 Y123.284 E0.01108
G1 X101.45 Y123.008 E0.00918
G1 X101.451 Y112.186 E0.35994
G1 X101.46 Y111.521 E0.02212
G1 X101.512 Y110.619 E0.03005
G1 X101.644 Y109.726 E0.03002
G1 X101.854 Y108.848 E0.03003
G1 X102.141 Y107.991 E0.03006
G1 X102.503 Y107.164 E0.03003
G1 X102.936 Y106.372 E0.03002
G1 X103.438 Y105.621 E0.03004
G1 X104.005 Y104.917 E0.03007
G1 X104.631 Y104.267 E0.03001
G1 F2700 E-5
;MESH:d2095_small_11.7.STL
G0 F6000 X112.064 Y110.985
G0 X112.064 Y112.064
G0 X122.568 Y112.432
G0 X122.75 Y122.75
;TYPE:WALL-INNER
G1 F2700 E5
G1 F1200 X112.25 Y122.75 E0.34923
G1 X112.25 Y112.25 E0.34923
G1 X122.75 Y112.25 E0.34923
G1 X122.75 Y122.75 E0.34923
G0 F6000 X123.15 Y123.15
;TYPE:WALL-OUTER
G1 F1200 X111.85 Y123.15 E0.37584
G1 X111.85 Y111.85 E0.37584
G1 X123.15 Y111.85 E0.37584
G1 X123.15 Y123.15 E0.37584
G0 F6000 X122.88 Y122.88
G0 X122.64 Y122.36
G0 X122.36 Y122.36
;TYPE:SKIN
G1 F1200 X112.64 Y122.36 E0.32329
G1 X112.64 Y112.64 E0.32329
G1 X122.36 Y112.64 E0.32329
G1 X122.36 Y122.36 E0.32329
G0 F6000 X122.64 Y122.36
G0 X122.64 Y113.148
G0 X122.199 Y113.148
G1 F1200 X121.851 Y112.8 E0.01637
G0 F6000 X121.285 Y112.8
G1 F1200 X122.199 Y113.714 E0.04299
G0 F6000 X122.199 Y114.279
G1 F1200 X120.72 Y112.8 E0.06957
G0 F6000 X120.154 Y112.8
G1 F1200 X122.199 Y114.845 E0.09619
G0 F6000 X122.199 Y115.411
G1 F1200 X119.588 Y112.8 E0.12281
G0 F6000 X119.023 Y112.8
G1 F1200 X122.199 Y115.976 E0.14939
G0 F6000 X122.199 Y116.542
G1 F1200 X118.457 Y112.8 E0.17601
G0 F6000 X117.891 Y112.8
G1 F1200 X122.199 Y117.108 E0.20264
G0 F6000 X122.199 Y117.673
G1 F1200 X117.325 Y112.8 E0.22923
G0 F6000 X116.76 Y112.8
G1 F1200 X122.199 Y118.239 E0.25583
G0 F6000 X122.199 Y118.805
G1 F1200 X116.194 Y112.8 E0.28246
G0 F6000 X115.628 Y112.8
G1 F1200 X122.199 Y119.37 E0.30906
G0 F6000 X122.199 Y119.936
G1 F1200 X115.063 Y112.8 E0.33566
G0 F6000 X114.497 Y112.8
G1 F1200 X122.199 Y120.502 E0.36228
G0 F6000 X122.199 Y121.067
G1 F1200 X113.931 Y112.8 E0.38888
G0 F6000 X113.366 Y112.8
G1 F1200 X122.199 Y121.633 E0.41548
G0 F6000 X122.199 Y122.199
G1 F1200 X112.799 Y112.799 E0.44215
G0 F6000 X112.799 Y113.365
G1 F1200 X121.633 Y122.199 E0.41552
G0 F6000 X121.067 Y122.199
G1 F1200 X112.799 Y113.931 E0.3889
G0 F6000 X112.799 Y114.496
G1 F1200 X120.502 Y122.199 E0.36233
G0 F6000 X119.936 Y122.199
G1 F1200 X112.799 Y115.062 E0.3357
G0 F6000 X112.799 Y115.628
G1 F1200 X119.37 Y122.199 E0.30908
G0 F6000 X118.805 Y122.199
G1 F1200 X112.799 Y116.193 E0.2825
G0 F6000 X112.799 Y116.759
G1 F1200 X118.239 Y122.199 E0.25588
G0 F6000 X117.673 Y122.199
G1 F1200 X112.799 Y117.325 E0.22926
G0 F6000 X112.799 Y117.89
G1 F1200 X117.108 Y122.199 E0.20268
G0 F6000 X116.542 Y122.199
G1 F1200 X112.799 Y118.456 E0.17606
G0 F6000 X112.799 Y119.022
G1 F1200 X115.976 Y122.199 E0.14944
G0 F6000 X115.411 Y122.199
G1 F1200 X112.799 Y119.588 E0.12284
G0 F6000 X112.799 Y120.153
G1 F1200 X114.845 Y122.199 E0.09624
G0 F6000 X114.279 Y122.199
G1 F1200 X112.799 Y120.719 E0.06961
G0 F6000 X112.799 Y121.285
G1 F1200 X113.714 Y122.199 E0.04302
G0 F6000 X113.148 Y122.199
G1 F1200 X112.799 Y121.85 E0.01642
G0 F6000 X112.45 Y121.85
;MESH:NONMESH
G0 F300 X112.45 Y121.85 Z0.4
G0 F6000 X112.36 Y121.85
G0 X112.432 Y122.568
G0 X122.75 Y122.75
;TIME_ELAPSED:43.759200
;LAYER:1
M106 S85
;TYPE:WALL-INNER
;MESH:d2095_small_11.7.STL
G1 F1350 X112.25 Y122.75 E0.34923
G1 X112.25 Y112.25 E0.34923
G1 X122.75 Y112.25 E0.34923
G1 X122.75 Y122.75 E0.34923
G0 F7500 X123.15 Y123.15
;TYPE:WALL-OUTER
G1 F1350 X111.85 Y123.15 E0.37584
G1 X111.85 Y111.85 E0.37584
G1 X123.15 Y111.85 E0.37584
G1 X123.15 Y123.15 E0.37584
G0 F7500 X122.88 Y122.88
G0 X122.64 Y122.36
G0 X122.36 Y122.36
;TYPE:SKIN
G1 F1350 X112.64 Y122.36 E0.32329
G1 X112.64 Y112.64 E0.32329
G1 X122.36 Y112.64 E0.32329
G1 X122.36 Y122.36 E0.32329
G0 F7500 X121.611 Y122.199
G1 F1350 X122.199 Y121.611 E0.02766
G0 F7500 X122.199 Y121.045
G1 F1350 X121.045 Y122.199 E0.05428
G0 F7500 X120.479 Y122.199
G1 F1350 X122.199 Y120.479 E0.0809
G0 F7500 X122.199 Y119.913
G1 F1350 X119.913 Y122.199 E0.10753
G0 F7500 X119.348 Y122.199
G1 F1350 X122.199 Y119.348 E0.1341
G0 F7500 X122.199 Y118.782
G1 F1350 X118.782 Y122.199 E0.16073
G0 F7500 X118.216 Y122.199
G1 F1350 X122.199 Y118.216 E0.18735
G0 F7500 X122.199 Y117.651
G1 F1350 X117.651 Y122.199 E0.21392
G0 F7500 X117.085 Y122.199
G1 F1350 X122.199 Y117.085 E0.24055
G0 F7500 X122.199 Y116.519
G1 F1350 X116.519 Y122.199 E0.26717
G0 F7500 X115.954 Y122.199
G1 F1350 X122.199 Y115.954 E0.29375
G0 F7500 X122.199 Y115.388
G1 F1350 X115.388 Y122.199 E0.32037
G0 F7500 X114.822 Y122.199
G1 F1350 X122.199 Y114.822 E0.34699
G0 F7500 X122.199 Y114.257
G1 F1350 X114.257 Y122.199 E0.37357
G0 F7500 X113.691 Y122.199
G1 F1350 X122.199 Y113.691 E0.40019
G0 F7500 X122.199 Y113.125
G1 F1350 X113.125 Y122.199 E0.42681
G0 F7500 X112.8 Y121.958
G1 F1350 X121.959 Y112.799 E0.43081
G0 F7500 X121.393 Y112.799
G1 F1350 X112.8 Y121.393 E0.40421
G0 F7500 X112.8 Y120.827
G1 F1350 X120.828 Y112.799 E0.37761
G0 F7500 X120.262 Y112.799
G1 F1350 X112.8 Y120.261 E0.35099
G0 F7500 X112.8 Y119.696
G1 F1350 X119.696 Y112.799 E0.32439
G0 F7500 X119.131 Y112.799
G1 F1350 X112.8 Y119.13 E0.29779
G0 F7500 X112.8 Y118.564
G1 F1350 X118.565 Y112.799 E0.27117
G0 F7500 X117.999 Y112.799
G1 F1350 X112.8 Y117.999 E0.24457
G0 F7500 X112.8 Y117.433
G1 F1350 X117.434 Y112.799 E0.21797
G0 F7500 X116.868 Y112.799
G1 F1350 X112.8 Y116.867 E0.19135
G0 F7500 X112.8 Y116.302
G1 F1350 X116.302 Y112.799 E0.16475
G0 F7500 X115.737 Y112.799
G1 F1350 X112.8 Y115.736 E0.13815
G0 F7500 X112.8 Y115.17
G1 F1350 X115.171 Y112.799 E0.11152
G0 F7500 X114.605 Y112.799
G1 F1350 X112.8 Y114.605 E0.08493
G0 F7500 X112.8 Y114.039
G1 F1350 X114.04 Y112.799 E0.05833
G0 F7500 X113.474 Y112.799
G1 F1350 X112.8 Y113.473 E0.0317
G0 F7500 X112.8 Y112.907
G1 F1350 X112.908 Y112.799 E0.00508
G0 F7500 X112.908 Y112.45
;MESH:NONMESH
G0 F300 X112.908 Y112.45 Z0.6
G0 F7500 X112.908 Y112.36
G0 X122.568 Y112.432
G0 X122.75 Y122.75
;TIME_ELAPSED:62.947215
;LAYER:2
M106 S170
;TYPE:WALL-INNER
;MESH:d2095_small_11.7.STL
G1 F1500 X112.25 Y122.75 E0.34923
G1 X112.25 Y112.25 E0.34923
G1 X122.75 Y112.25 E0.34923
G1 X122.75 Y122.75 E0.34923
G0 F9000 X123.15 Y123.15
;TYPE:WALL-OUTER
G1 F1500 X111.85 Y123.15 E0.37584
G1 X111.85 Y111.85 E0.37584
G1 X123.15 Y111.85 E0.37584
G1 X123.15 Y123.15 E0.37584
G0 F9000 X122.88 Y122.88
G0 X122.64 Y122.36
G0 X122.36 Y122.36
;TYPE:SKIN
G1 F1500 X112.64 Y122.36 E0.32329
G1 X112.64 Y112.64 E0.32329
G1 X122.36 Y112.64 E0.32329
G1 X122.36 Y122.36 E0.32329
G0 F9000 X122.64 Y122.36
G0 X122.64 Y113.148
G0 X122.199 Y113.148
G1 F1500 X121.851 Y112.8 E0.01637
G0 F9000 X121.285 Y112.8
G1 F1500 X122.199 Y113.714 E0.04299
G0 F9000 X122.199 Y114.279
G1 F1500 X120.72 Y112.8 E0.06957
G0 F9000 X120.154 Y112.8
G1 F1500 X122.199 Y114.845 E0.09619
G0 F9000 X122.199 Y115.411
G1 F1500 X119.588 Y112.8 E0.12281
G0 F9000 X119.023 Y112.8
G1 F1500 X122.199 Y115.976 E0.14939
G0 F9000 X122.199 Y116.542
G1 F1500 X118.457 Y112.8 E0.17601
G0 F9000 X117.891 Y112.8
G1 F1500 X122.199 Y117.108 E0.20264
G0 F9000 X122.199 Y117.673
G1 F1500 X117.325 Y112.8 E0.22923
G0 F9000 X116.76 Y112.8
G1 F1500 X122.199 Y118.239 E0.25583
G0 F9000 X122.199 Y118.805
G1 F1500 X116.194 Y112.8 E0.28246
G0 F9000 X115.628 Y112.8
G1 F1500 X122.199 Y119.37 E0.30906
G0 F9000 X122.199 Y119.936
G1 F1500 X115.063 Y112.8 E0.33566
G0 F9000 X114.497 Y112.8
G1 F1500 X122.199 Y120.502 E0.36228
G0 F9000 X122.199 Y121.067
G1 F1500 X113.931 Y112.8 E0.38888
G0 F9000 X113.366 Y112.8
G1 F1500 X122.199 Y121.633 E0.41548
G0 F9000 X122.199 Y122.199
G1 F1500 X112.799 Y112.799 E0.44215
G0 F9000 X112.799 Y113.365
G1 F1500 X121.633 Y122.199 E0.41552
G0 F9000 X121.067 Y122.199
