;FLAVOR:Marlin
;TIME:6365
;Filament used: 6.94003m
;Layer height: 0.2
;MINX:87.478
;MINY:87.461
;MINZ:0.2
;MAXX:147.522
;MAXY:147.539
;MAXZ:25.4
;Generated with Cura_SteamEngine 4.8.0
M140 S60
M105
M190 S60
M104 S210
M105
M109 S210
M82 ;absolute extrusion mode
; Ender 3 Custom Start G-code
G92 E0 ; Reset Extruder
G28 ; Home all axes
G1 Z2.0 F3000 ; Move Z Axis up little to prevent scratching of Heat Bed
G1 X0.1 Y20 Z0.3 F5000.0 ; Move to start position
G1 X0.1 Y200.0 Z0.3 F1500.0 E15 ; Draw the first line
G1 X0.4 Y200.0 Z0.3 F5000.0 ; Move to side a little
G1 X0.4 Y20 Z0.3 F1500.0 E30 ; Draw the second line
G92 E0 ; Reset Extruder
G1 Z2.0 F3000 ; Move Z Axis up little to prevent scratching of Heat Bed
G1 X5 Y20 Z0.3 F5000.0 ; Move over to prevent blob squish
M83 ;relative extrusion mode
G1 F2700 E-5
;LAYER_COUNT:127
;LAYER:0
M107
M205 X8 Y8
G0 F6000 X96.543 Y95.987 Z0.2
;TYPE:SKIRT
G1 F2700 E5
G1 F1200 X96.929 Y95.61 E0.01795
G1 X97.027 Y95.519 E0.00445
G1 X97.297 Y95.277 E0.01206
G1 X97.71 Y94.919 E0.01818
G1 X98.418 Y94.319 E0.03087
G1 X98.957 Y93.873 E0.02327
G1 X99.425 Y93.507 E0.01976
G1 X99.795 Y93.239 E0.0152
G1 X100.309 Y92.883 E0.0208
G1 X101.093 Y92.354 E0.03146
G1 X101.624 Y92.005 E0.02113
G1 X102.132 Y91.69 E0.01988
G1 X102.266 Y91.612 E0.00516
G1 X102.542 Y91.457 E0.01053
G1 X103.066 Y91.173 E0.01982
G1 X103.832 Y90.767 E0.02883
G1 X104.502 Y90.424 E0.02503
G1 X105.058 Y90.158 E0.0205
G1 X105.425 Y90 E0.01329
G1 X105.985 Y89.771 E0.02012
G1 X106.85 Y89.427 E0.03096
G1 X107.461 Y89.192 E0.02177
G1 X108.124 Y88.961 E0.02335
G1 X108.459 Y88.859 E0.01165
G1 X109.045 Y88.689 E0.02029
G1 X109.938 Y88.442 E0.03082
G1 X110.628 Y88.262 E0.02372
G1 X111.1 Y88.15 E0.01613
G1 X111.198 Y88.129 E0.00333
G1 X111.603 Y88.05 E0.01372
G1 X112.27 Y87.934 E0.02252
G1 X113.125 Y87.796 E0.02881
G1 X113.805 Y87.694 E0.02287
G1 X114.434 Y87.618 E0.02107
G1 X114.854 Y87.583 E0.01402
G1 X115.4 Y87.548 E0.0182
G1 X116.393 Y87.496 E0.03307
G1 X117.075 Y87.469 E0.0227
G1 X117.641 Y87.461 E0.01883
G1 X118.063 Y87.471 E0.01404
G1 X118.704 Y87.499 E0.02134
G1 X119.602 Y87.549 E0.02991
G1 X120.315 Y87.598 E0.02377
G1 X120.98 Y87.664 E0.02223
G1 X121.337 Y87.713 E0.01199
G1 X121.922 Y87.802 E0.01968
G1 X122.771 Y87.942 E0.02862
G1 X123.549 Y88.08 E0.02628
G1 X124.447 Y88.278 E0.03059
G1 X125.091 Y88.45 E0.02217
G1 X126.003 Y88.704 E0.03149
G1 X126.673 Y88.901 E0.02323
G1 X127.27 Y89.095 E0.02088
G1 X127.667 Y89.24 E0.01406
G1 X128.157 Y89.429 E0.01747
G1 X128.943 Y89.741 E0.02813
G1 X129.139 Y89.821 E0.00704
G1 X129.74 Y90.073 E0.02168
G1 X130.238 Y90.296 E0.01815
G1 X130.357 Y90.353 E0.00439
G1 X130.637 Y90.493 E0.01041
G1 X131.218 Y90.792 E0.02173
G1 X131.98 Y91.199 E0.02873
G1 X132.623 Y91.552 E0.0244
G1 X133.173 Y91.875 E0.02121
G1 X133.484 Y92.073 E0.01226
G1 X133.88 Y92.334 E0.01577
G1 X134.737 Y92.915 E0.03444
G1 X135.319 Y93.321 E0.0236
G1 X135.853 Y93.718 E0.02213
G1 X136.145 Y93.954 E0.01249
G1 X136.559 Y94.298 E0.0179
G1 X137.31 Y94.937 E0.0328
G1 X137.833 Y95.395 E0.02312
G1 X138.288 Y95.816 E0.02062
G1 X138.391 Y95.917 E0.0048
G1 X138.858 Y96.394 E0.0222
G1 X139.469 Y97.036 E0.02948
G1 X140.094 Y97.713 E0.03065
G1 X140.483 Y98.158 E0.01966
G1 X140.588 Y98.285 E0.00548
G1 X140.806 Y98.557 E0.01159
G1 X141.12 Y98.963 E0.01707
G1 X141.67 Y99.688 E0.03027
G1 X142.106 Y100.279 E0.02443
G1 X142.444 Y100.763 E0.01963
G1 X142.519 Y100.877 E0.00454
G1 X142.682 Y101.134 E0.01012
G1 X142.983 Y101.621 E0.01904
G1 X143.469 Y102.431 E0.03142
G1 X143.824 Y103.04 E0.02345
G1 X144.101 Y103.545 E0.01916
G1 X144.307 Y103.956 E0.01529
G1 X144.562 Y104.494 E0.0198
G1 X144.934 Y105.301 E0.02956
G1 X145.227 Y105.956 E0.02387
G1 X145.489 Y106.594 E0.02294
G1 X145.616 Y106.94 E0.01226
G1 X145.808 Y107.491 E0.01941
G1 X146.099 Y108.359 E0.03045
G1 X146.32 Y109.048 E0.02407
G1 X146.466 Y109.541 E0.0171
G1 X146.493 Y109.641 E0.00345
G1 X146.59 Y110.03 E0.01333
G1 X146.733 Y110.649 E0.02113
G1 X146.91 Y111.462 E0.02767
G1 X147.06 Y112.184 E0.02453
G1 X147.163 Y112.758 E0.0194
G1 X147.226 Y113.207 E0.01508
G1 X147.298 Y113.805 E0.02003
G1 X147.395 Y114.71 E0.03027
G1 X147.464 Y115.438 E0.02432
G1 X147.506 Y116.097 E0.02196
G1 X147.516 Y116.461 E0.01211
G1 X147.522 Y117.012 E0.01833
G1 X147.521 Y117.982 E0.03226
G1 X147.511 Y118.679 E0.02318
G1 X147.486 Y119.271 E0.01971
G1 X147.475 Y119.432 E0.00537
G1 X147.45 Y119.736 E0.01015
G1 X147.396 Y120.288 E0.01845
G1 X147.292 Y121.225 E0.03136
G1 X147.207 Y121.919 E0.02326
G1 X147.122 Y122.494 E0.01933
G1 X147.043 Y122.91 E0.01408
G1 X146.909 Y123.548 E0.02168
G1 X146.713 Y124.442 E0.03044
G1 X146.557 Y125.105 E0.02265
G1 X146.39 Y125.731 E0.02155
G1 X146.276 Y126.101 E0.01288
G1 X146.096 Y126.654 E0.01934
G1 X145.788 Y127.564 E0.03195
G1 X145.559 Y128.212 E0.02286
G1 X145.317 Y128.836 E0.02226
G1 X145.182 Y129.151 E0.0114
G1 X144.926 Y129.72 E0.02075
G1 X144.538 Y130.556 E0.03065
G1 X144.242 Y131.174 E0.02279
G1 X143.923 Y131.788 E0.02301
G1 X143.765 Y132.068 E0.01069
G1 X143.476 Y132.56 E0.01898
G1 X142.973 Y133.394 E0.03239
G1 X142.604 Y133.987 E0.02323
G1 X142.286 Y134.47 E0.01923
G1 X142.189 Y134.609 E0.00564
G1 X142.006 Y134.863 E0.01041
G1 X141.672 Y135.312 E0.01861
G1 X141.109 Y136.05 E0.03087
G1 X140.665 Y136.616 E0.02393
G1 X140.311 Y137.045 E0.0185
G1 X140.231 Y137.137 E0.00406
G1 X140.001 Y137.393 E0.01145
G1 X139.601 Y137.824 E0.01956
G1 X139.018 Y138.439 E0.02819
G1 X138.461 Y139.01 E0.02653
G1 X138.072 Y139.39 E0.01809
G1 X137.974 Y139.481 E0.00445
G1 X137.704 Y139.723 E0.01206
G1 X137.291 Y140.081 E0.01818
G1 X136.577 Y140.686 E0.03113
G1 X136.036 Y141.133 E0.02334
G1 X135.56 Y141.504 E0.02007
G1 X135.205 Y141.761 E0.01458
G1 X134.691 Y142.117 E0.0208
G1 X133.907 Y142.646 E0.03146
G1 X133.376 Y142.995 E0.02113
G1 X132.868 Y143.31 E0.01988
G1 X132.734 Y143.388 E0.00516
G1 X132.458 Y143.543 E0.01053
G1 X131.934 Y143.827 E0.01982
G1 X131.168 Y144.233 E0.02883
G1 X130.498 Y144.576 E0.02503
G1 X129.942 Y144.842 E0.0205
G1 X129.575 Y145 E0.01329
G1 X129.015 Y145.229 E0.02012
G1 X128.15 Y145.573 E0.03096
G1 X127.539 Y145.808 E0.02177
G1 X126.876 Y146.039 E0.02335
G1 X126.541 Y146.141 E0.01165
G1 X125.955 Y146.311 E0.02029
G1 X125.062 Y146.558 E0.03082
G1 X124.372 Y146.738 E0.02372
G1 X123.9 Y146.85 E0.01613
G1 X123.802 Y146.871 E0.00333
G1 X123.397 Y146.95 E0.01372
G1 X122.73 Y147.066 E0.02252
G1 X121.875 Y147.204 E0.02881
G1 X121.195 Y147.306 E0.02287
G1 X120.566 Y147.382 E0.02107
G1 X120.146 Y147.417 E0.01402
G1 X119.6 Y147.452 E0.0182
G1 X118.615 Y147.504 E0.03281
G1 X117.947 Y147.531 E0.02224
G1 X117.39 Y147.539 E0.01853
G1 X116.937 Y147.529 E0.01507
G1 X116.296 Y147.501 E0.02134
G1 X115.398 Y147.451 E0.02991
G1 X114.685 Y147.402 E0.02377
G1 X114.02 Y147.336 E0.02223
G1 X113.663 Y147.287 E0.01199
G1 X113.078 Y147.198 E0.01968
G1 X112.229 Y147.058 E0.02862
G1 X111.451 Y146.92 E0.02628
G1 X110.555 Y146.722 E0.03052
G1 X109.898 Y146.547 E0.02261
G1 X108.997 Y146.296 E0.03111
G1 X108.327 Y146.099 E0.02323
G1 X107.73 Y145.905 E0.02088
G1 X107.333 Y145.76 E0.01406
G1 X106.838 Y145.569 E0.01765
G1 X106.048 Y145.255 E0.02827
G1 X105.265 Y144.929 E0.02821
G1 X104.762 Y144.704 E0.01833
G1 X104.355 Y144.504 E0.01508
G1 X103.781 Y144.207 E0.0215
G1 X103.04 Y143.812 E0.02793
G1 X102.414 Y143.47 E0.02373
G1 X101.827 Y143.126 E0.02263
G1 X101.502 Y142.918 E0.01283
G1 X101.097 Y142.65 E0.01615
G1 X100.238 Y142.068 E0.03451
G1 X99.669 Y141.67 E0.0231
G1 X99.158 Y141.29 E0.02118
G1 X98.855 Y141.046 E0.01294
G1 X98.432 Y140.694 E0.0183
G1 X97.661 Y140.037 E0.03369
G1 X97.147 Y139.586 E0.02274
G1 X96.711 Y139.182 E0.01977
G1 X96.413 Y138.886 E0.01397
G1 X95.972 Y138.43 E0.0211
G1 X95.391 Y137.815 E0.02814
G1 X94.902 Y137.284 E0.02401
G1 X94.511 Y136.834 E0.01983
G1 X94.407 Y136.708 E0.00543
G1 X94.198 Y136.447 E0.01112
G1 X93.861 Y136.012 E0.0183
G1 X93.3 Y135.273 E0.03086
G1 X92.882 Y134.705 E0.02346
G1 X92.55 Y134.228 E0.01933
G1 X92.316 Y133.864 E0.01439
G1 X91.987 Y133.33 E0.02086
G1 X91.524 Y132.557 E0.02997
G1 X91.182 Y131.972 E0.02254
G1 X90.859 Y131.378 E0.02249
G1 X90.693 Y131.043 E0.01244
G1 X90.421 Y130.469 E0.02113
G1 X90.05 Y129.665 E0.02945
G1 X89.76 Y129.012 E0.02376
G1 X89.534 Y128.463 E0.01975
G1 X89.382 Y128.052 E0.01457
G1 X89.176 Y127.461 E0.02082
G1 X88.882 Y126.584 E0.03076
G1 X88.677 Y125.943 E0.02238
G1 X88.534 Y125.459 E0.01679
G1 X88.507 Y125.359 E0.00345
G1 X88.408 Y124.961 E0.01364
G1 X88.261 Y124.322 E0.02181
G1 X88.077 Y123.478 E0.02873
G1 X87.934 Y122.784 E0.02357
G1 X87.837 Y122.246 E0.01818
G1 X87.774 Y121.793 E0.01521
G1 X87.702 Y121.194 E0.02007
G1 X87.604 Y120.279 E0.03061
G1 X87.535 Y119.544 E0.02455
G1 X87.495 Y118.923 E0.0207
G1 X87.484 Y118.539 E0.01278
G1 X87.478 Y117.988 E0.01833
G1 X87.479 Y117.018 E0.03226
G1 X87.489 Y116.32 E0.02322
G1 X87.514 Y115.724 E0.01984
G1 X87.525 Y115.564 E0.00533
G1 X87.55 Y115.264 E0.01001
G1 X87.604 Y114.712 E0.01845
G1 X87.715 Y113.709 E0.03356
G1 X87.794 Y113.069 E0.02145
G1 X87.878 Y112.505 E0.01897
G1 X87.958 Y112.087 E0.01416
G1 X88.099 Y111.411 E0.02297
G1 X88.289 Y110.55 E0.02933
G1 X88.445 Y109.889 E0.02259
G1 X88.597 Y109.317 E0.01969
G1 X88.724 Y108.899 E0.01453
G1 X88.906 Y108.34 E0.01955
G1 X89.223 Y107.405 E0.03284
G1 X89.445 Y106.778 E0.02212
G1 X89.674 Y106.185 E0.02114
G1 X89.818 Y105.849 E0.01216
G1 X90.074 Y105.281 E0.02072
G1 X90.489 Y104.388 E0.03275
G1 X90.769 Y103.806 E0.02148
G1 X91.078 Y103.211 E0.0223
G1 X91.242 Y102.92 E0.01111
G1 X91.524 Y102.44 E0.01852
G1 X92.034 Y101.595 E0.03283
G1 X92.414 Y100.986 E0.02388
G1 X92.755 Y100.471 E0.02054
G1 X92.994 Y100.138 E0.01363
G1 X93.322 Y99.696 E0.01831
G1 X93.884 Y98.958 E0.03085
G1 X94.331 Y98.387 E0.02412
G1 X94.756 Y97.878 E0.02205
G1 X94.999 Y97.607 E0.01211
G1 X95.409 Y97.166 E0.02003
G1 X96.007 Y96.536 E0.02889
G1 X96.543 Y95.987 E0.02552
G0 F6000 X96.829 Y96.266
G1 F1200 X97.201 Y95.903 E0.01729
G1 X97.299 Y95.812 E0.00445
G1 X97.559 Y95.579 E0.01161
G1 X97.968 Y95.224 E0.01801
G1 X98.673 Y94.627 E0.03073
G1 X99.212 Y94.181 E0.02327
G1 X99.663 Y93.829 E0.01903
G1 X100.023 Y93.568 E0.01479
G1 X100.533 Y93.214 E0.02065
G1 X101.313 Y92.688 E0.03129
G1 X101.844 Y92.339 E0.02113
G1 X102.333 Y92.036 E0.01913
G1 X102.733 Y91.808 E0.01531
G1 X103.254 Y91.526 E0.0197
G1 X104.015 Y91.123 E0.02864
G1 X104.685 Y90.78 E0.02503
G1 X105.22 Y90.524 E0.01973
G1 X105.577 Y90.37 E0.01293
G1 X106.133 Y90.143 E0.01997
G1 X106.994 Y89.801 E0.03081
G1 X107.605 Y89.566 E0.02177
G1 X108.243 Y89.343 E0.02248
G1 X108.57 Y89.243 E0.01137
G1 X109.153 Y89.075 E0.02018
G1 X110.039 Y88.829 E0.03058
G1 X110.729 Y88.649 E0.02372
G1 X111.184 Y88.541 E0.01555
G1 X111.282 Y88.52 E0.00333
G1 X111.672 Y88.444 E0.01322
G1 X112.334 Y88.329 E0.02235
G1 X113.185 Y88.191 E0.02867
G1 X113.865 Y88.089 E0.02287
G1 X114.471 Y88.016 E0.0203
G1 X114.881 Y87.982 E0.01368
G1 X115.421 Y87.947 E0.018
G1 X116.409 Y87.895 E0.03291
G1 X117.091 Y87.868 E0.0227
G1 X117.636 Y87.861 E0.01813
G1 X118.046 Y87.871 E0.01364
G1 X118.682 Y87.898 E0.02117
G1 X119.575 Y87.948 E0.02975
G1 X120.288 Y87.997 E0.02377
G1 X120.928 Y88.061 E0.02139
G1 X121.277 Y88.108 E0.01171
G1 X121.857 Y88.197 E0.01952
G1 X122.701 Y88.336 E0.02845
G1 X123.479 Y88.474 E0.02628
G1 X124.345 Y88.665 E0.0295
G1 X124.985 Y88.835 E0.02202
G1 X125.89 Y89.087 E0.03125
G1 X126.56 Y89.284 E0.02323
G1 X127.135 Y89.472 E0.02012
G1 X127.524 Y89.613 E0.01376
G1 X128.01 Y89.801 E0.01733
G1 X128.796 Y90.113 E0.02813
G1 X129.585 Y90.442 E0.02843
G1 X130.065 Y90.657 E0.01749
G1 X130.454 Y90.848 E0.01441
G1 X131.03 Y91.146 E0.02157
G1 X131.787 Y91.549 E0.02852
G1 X132.43 Y91.902 E0.0244
G1 X132.961 Y92.214 E0.02048
G1 X133.265 Y92.407 E0.01198
G1 X133.655 Y92.665 E0.01555
G1 X134.508 Y93.243 E0.03427
G1 X135.09 Y93.649 E0.0236
G1 X135.604 Y94.032 E0.02132
G1 X135.89 Y94.261 E0.01219
G1 X136.3 Y94.603 E0.01776
G1 X136.919 Y95.128 E0.027
G1 X137.569 Y95.696 E0.02871
G1 X138.007 Y96.102 E0.01986
G1 X138.288 Y96.38 E0.01315
G1 X138.664 Y96.769 E0.01799
G1 X139.283 Y97.423 E0.02995
G1 X139.8 Y97.984 E0.02537
G1 X140.174 Y98.413 E0.01893
G1 X140.279 Y98.54 E0.00548
G1 X140.489 Y98.802 E0.01117
G1 X140.802 Y99.206 E0.017
G1 X141.348 Y99.925 E0.03003
G1 X141.784 Y100.516 E0.02443
G1 X142.109 Y100.983 E0.01892
G1 X142.342 Y101.344 E0.01429
G1 X142.64 Y101.828 E0.0189
G1 X143.124 Y102.633 E0.03124
G1 X143.479 Y103.242 E0.02345
G1 X143.745 Y103.728 E0.01843
G1 X143.945 Y104.128 E0.01487
G1 X144.199 Y104.662 E0.01967
G1 X144.569 Y105.465 E0.02941
G1 X144.862 Y106.12 E0.02387
G1 X145.114 Y106.734 E0.02207
G1 X145.238 Y107.072 E0.01197
G1 X145.429 Y107.618 E0.01924
G1 X145.67 Y108.333 E0.0251
G1 X145.939 Y109.17 E0.02924
G1 X146.08 Y109.645 E0.01648
G1 X146.107 Y109.745 E0.00345
G1 X146.2 Y110.12 E0.01285
G1 X146.342 Y110.734 E0.02096
G1 X146.518 Y111.544 E0.02757
G1 X146.668 Y112.266 E0.02453
G1 X146.768 Y112.818 E0.01866
G1 X146.829 Y113.254 E0.01464
G1 X146.9 Y113.848 E0.0199
G1 X146.997 Y114.748 E0.03011
G1 X147.066 Y115.476 E0.02432
G1 X147.107 Y116.111 E0.02116
G1 X147.116 Y116.466 E0.01181
G1 X147.122 Y117.012 E0.01816
G1 X147.121 Y117.976 E0.03206
G1 X147.111 Y118.673 E0.02318
G1 X147.087 Y119.244 E0.01901
G1 X147.052 Y119.698 E0.01514
G1 X146.999 Y120.245 E0.01828
G1 X146.895 Y121.177 E0.03119
G1 X146.81 Y121.871 E0.02326
G1 X146.728 Y122.424 E0.01859
G1 X146.651 Y122.828 E0.01368
G1 X146.519 Y123.463 E0.02157
G1 X146.361 Y124.186 E0.02461
G1 X146.167 Y125.014 E0.02829
G1 X146.006 Y125.617 E0.02076
G1 X145.896 Y125.978 E0.01255
G1 X145.717 Y126.526 E0.01917
G1 X145.411 Y127.431 E0.03177
G1 X145.182 Y128.079 E0.02286
G1 X144.949 Y128.68 E0.02144
G1 X144.816 Y128.988 E0.01116
G1 X144.563 Y129.552 E0.02056
G1 X144.177 Y130.383 E0.03048
G1 X143.881 Y131.001 E0.02279
G1 X143.574 Y131.593 E0.02218
G1 X143.419 Y131.867 E0.01047
G1 X143.133 Y132.354 E0.01878
G1 X142.634 Y133.182 E0.03215
G1 X142.265 Y133.775 E0.02323
G1 X141.958 Y134.241 E0.01856
G1 X141.861 Y134.38 E0.00564
G1 X141.684 Y134.625 E0.01005
G1 X141.354 Y135.069 E0.0184
G1 X140.794 Y135.803 E0.03071
G1 X140.35 Y136.369 E0.02393
G1 X140.009 Y136.782 E0.01781
G1 X139.707 Y137.122 E0.01513
G1 X139.31 Y137.55 E0.01942
G1 X138.732 Y138.16 E0.02795
G1 X138.175 Y138.731 E0.02653
G1 X137.8 Y139.097 E0.01743
G1 X137.702 Y139.188 E0.00445
G1 X137.442 Y139.421 E0.01161
G1 X137.033 Y139.776 E0.01801
G1 X136.322 Y140.378 E0.03099
G1 X135.781 Y140.825 E0.02334
G1 X135.323 Y141.182 E0.01931
G1 X134.977 Y141.432 E0.0142
G1 X134.467 Y141.786 E0.02065
G1 X133.687 Y142.312 E0.03129
G1 X133.156 Y142.661 E0.02113
G1 X132.667 Y142.964 E0.01913
G1 X132.267 Y143.192 E0.01531
G1 X131.746 Y143.474 E0.0197
G1 X130.985 Y143.877 E0.02864
G1 X130.315 Y144.22 E0.02503
G1 X129.78 Y144.476 E0.01973
G1 X129.423 Y144.63 E0.01293
G1 X128.867 Y144.857 E0.01997
G1 X128.006 Y145.199 E0.03081
G1 X127.395 Y145.434 E0.02177
G1 X126.757 Y145.657 E0.02248
G1 X126.43 Y145.757 E0.01137
G1 X125.847 Y145.925 E0.02018
G1 X124.961 Y146.171 E0.03058
G1 X124.271 Y146.351 E0.02372
G1 X123.816 Y146.459 E0.01555
G1 X123.718 Y146.48 E0.00333
G1 X123.328 Y146.556 E0.01322
G1 X122.666 Y146.671 E0.02235
G1 X121.815 Y146.809 E0.02867
G1 X121.135 Y146.911 E0.02287
G1 X120.529 Y146.984 E0.0203
G1 X120.119 Y147.018 E0.01368
G1 X119.578 Y147.053 E0.01803
G1 X118.599 Y147.104 E0.03261
G1 X117.931 Y147.131 E0.02224
G1 X117.394 Y147.139 E0.01786
G1 X116.954 Y147.129 E0.01464
G1 X116.318 Y147.102 E0.02117
G1 X115.425 Y147.052 E0.02975
G1 X114.712 Y147.003 E0.02377
G1 X114.072 Y146.939 E0.02139
G1 X113.723 Y146.892 E0.01171
G1 X113.143 Y146.803 E0.01952
G1 X112.299 Y146.664 E0.02845
G1 X111.521 Y146.526 E0.02628
G1 X110.657 Y146.336 E0.02942
G1 X110.005 Y146.162 E0.02244
G1 X109.11 Y145.913 E0.0309
G1 X108.44 Y145.716 E0.02323
G1 X107.865 Y145.528 E0.02012
G1 X107.476 Y145.387 E0.01376
G1 X106.986 Y145.197 E0.01748
G1 X106.017 Y144.81 E0.0347
G1 X105.42 Y144.56 E0.02153
G1 X104.935 Y144.343 E0.01767
G1 X104.816 Y144.286 E0.00439
G1 X104.539 Y144.148 E0.01029
G1 X103.969 Y143.854 E0.02133
G1 X103.232 Y143.461 E0.02778
G1 X102.606 Y143.119 E0.02373
