;FLAVOR:Marlin
;TIME:6515
;Filament used: 5.07375m
;Layer height: 0.2
;MINX:86.427
;MINY:86.426
;MINZ:0.2
;MAXX:148.574
;MAXY:148.574
;MAXZ:12.4
;Generated with Cura_SteamEngine 4.8.0
M140 S85
M105
M190 S85
M104 S235
M105
M109 S235
M82 ;absolute extrusion mode
; Ender 3 Custom Start G-code
G92 E0 ; Reset Extruder
G28 ; Home all axes
G1 Z2.0 F3000 ; Move Z Axis up little to prevent scratching of Heat Bed
G1 X0.1 Y20 Z0.3 F5000.0 ; Move to start position
G1 X0.1 Y200.0 Z0.3 F1500.0 E15 ; Draw the first line
G1 X0.4 Y200.0 Z0.3 F5000.0 ; Move to side a little
G1 X0.4 Y20 Z0.3 F1500.0 E30 ; Draw the second line
G92 E0 ; Reset Extruder
G1 Z2.0 F3000 ; Move Z Axis up little to prevent scratching of Heat Bed
G1 X5 Y20 Z0.3 F5000.0 ; Move over to prevent blob squish
M83 ;relative extrusion mode
G1 F2700 E-5
;LAYER_COUNT:62
;LAYER:0
M107
M205 X8 Y8
G0 F6000 X87.03 Y86.881 Z0.2
;TYPE:SKIRT
G1 F2700 E5
G1 F1200 X87.339 Y86.661 E0.01262
G1 X87.686 Y86.509 E0.0126
G1 X88.227 Y86.426 E0.0182
G1 X146.774 Y86.426 E1.94728
G1 X147.151 Y86.466 E0.01261
G1 X147.511 Y86.584 E0.0126
G1 X147.838 Y86.774 E0.01258
G1 X148.119 Y87.029 E0.01262
G1 X148.339 Y87.338 E0.01262
G1 X148.491 Y87.685 E0.0126
G1 X148.574 Y88.226 E0.0182
G1 X148.574 Y146.774 E1.94731
G1 X148.534 Y147.151 E0.01261
G1 X148.416 Y147.511 E0.0126
G1 X148.226 Y147.838 E0.01258
G1 X147.971 Y148.119 E0.01262
G1 X147.662 Y148.339 E0.01262
G1 X147.315 Y148.491 E0.0126
G1 X146.774 Y148.574 E0.0182
G1 X88.227 Y148.574 E1.94728
G1 X87.85 Y148.534 E0.01261
G1 X87.49 Y148.416 E0.0126
G1 X87.163 Y148.226 E0.01258
G1 X86.882 Y147.971 E0.01262
G1 X86.662 Y147.662 E0.01262
G1 X86.51 Y147.315 E0.0126
G1 X86.427 Y146.774 E0.0182
G1 X86.427 Y88.226 E1.94731
G1 X86.467 Y87.849 E0.01261
G1 X86.585 Y87.489 E0.0126
G1 X86.775 Y87.162 E0.01258
G1 X87.03 Y86.881 E0.01262
G0 F6000 X87.42 Y87.082
G1 F1200 X87.714 Y86.923 E0.01112
G1 X88.038 Y86.839 E0.01113
G1 X88.227 Y86.826 E0.0063
G1 X146.774 Y86.826 E1.94728
G1 X147.106 Y86.866 E0.01112
G1 X147.418 Y86.983 E0.01108
G1 X147.695 Y87.171 E0.01113
G1 X147.918 Y87.419 E0.01109
G1 X148.077 Y87.713 E0.01112
G1 X148.161 Y88.037 E0.01113
G1 X148.174 Y88.226 E0.0063
G1 X148.174 Y146.774 E1.94731
G1 X148.134 Y147.106 E0.01112
G1 X148.017 Y147.418 E0.01108
G1 X147.829 Y147.695 E0.01113
G1 X147.581 Y147.918 E0.01109
G1 X147.287 Y148.077 E0.01112
G1 X146.963 Y148.161 E0.01113
G1 X146.774 Y148.174 E0.0063
G1 X88.227 Y148.174 E1.94728
G1 X87.895 Y148.134 E0.01112
G1 X87.583 Y148.017 E0.01108
G1 X87.306 Y147.829 E0.01113
G1 X87.083 Y147.581 E0.01109
G1 X86.924 Y147.287 E0.01112
G1 X86.84 Y146.963 E0.01113
G1 X86.827 Y146.774 E0.0063
G1 X86.827 Y88.226 E1.94731
G1 X86.867 Y87.894 E0.01112
G1 X86.984 Y87.582 E0.01108
G1 X87.172 Y87.305 E0.01113
G1 X87.42 Y87.082 E0.01109
G0 F6000 X87.566 Y87.475
G1 F1200 X87.802 Y87.321 E0.00937
G1 X88.072 Y87.238 E0.00939
G1 X88.227 Y87.226 E0.00517
G1 X146.774 Y87.226 E1.94728
G1 X147.053 Y87.266 E0.00937
G1 X147.31 Y87.382 E0.00938
G1 X147.525 Y87.565 E0.00939
G1 X147.679 Y87.801 E0.00937
G1 X147.762 Y88.071 E0.00939
G1 X147.774 Y88.226 E0.00517
G1 X147.774 Y146.774 E1.94731
G1 X147.734 Y147.053 E0.00937
G1 X147.618 Y147.31 E0.00938
G1 X147.435 Y147.525 E0.00939
G1 X147.199 Y147.679 E0.00937
G1 X146.929 Y147.762 E0.00939
G1 X146.774 Y147.774 E0.00517
G1 X88.227 Y147.774 E1.94728
G1 X87.948 Y147.734 E0.00937
G1 X87.691 Y147.618 E0.00938
G1 X87.476 Y147.435 E0.00939
G1 X87.322 Y147.199 E0.00937
G1 X87.239 Y146.929 E0.00939
G1 X87.227 Y146.774 E0.00517
G1 X87.227 Y88.226 E1.94731
G1 X87.267 Y87.947 E0.00937
G1 X87.383 Y87.69 E0.00938
G1 X87.566 Y87.475 E0.00939
G0 F6000 X87.78 Y87.825
G1 F1200 X87.953 Y87.692 E0.00726
G1 X88.227 Y87.626 E0.00937
G1 X146.774 Y87.626 E1.94728
G1 X146.989 Y87.666 E0.00727
G1 X147.175 Y87.779 E0.00724
G1 X147.308 Y87.952 E0.00726
G1 X147.374 Y88.226 E0.00937
G1 X147.374 Y146.774 E1.94731
G1 X147.334 Y146.989 E0.00727
G1 X147.221 Y147.175 E0.00724
G1 X147.048 Y147.308 E0.00726
G1 X146.774 Y147.374 E0.00937
G1 X88.227 Y147.374 E1.94728
G1 X88.012 Y147.334 E0.00727
G1 X87.826 Y147.221 E0.00724
G1 X87.693 Y147.048 E0.00726
G1 X87.627 Y146.774 E0.00937
G1 X87.627 Y88.226 E1.94731
G1 X87.667 Y88.011 E0.00727
G1 X87.78 Y87.825 E0.00724
G0 F6000 X88.066 Y88.107
G1 F1200 X88.227 Y88.026 E0.00599
G1 X146.774 Y88.026 E1.94728
G1 X146.893 Y88.065 E0.00417
G1 X146.974 Y88.226 E0.00599
G1 X146.974 Y146.774 E1.94731
G1 X146.935 Y146.893 E0.00417
G1 X146.774 Y146.974 E0.00599
G1 X88.227 Y146.974 E1.94728
G1 X88.108 Y146.935 E0.00417
G1 X88.027 Y146.774 E0.00599
G1 X88.027 Y88.226 E1.94731
G1 X88.066 Y88.107 E0.00417
G1 F2700 E-5
;MESH:Brick.stl
G0 F6000 X88.647 Y88.646
G0 X88.727 Y146.304
G0 X88.427 Y146.574
;TYPE:WALL-OUTER
G1 F2700 E5
G1 F1200 X88.427 Y88.426 E1.93401
G1 X146.574 Y88.426 E1.93398
G1 X146.574 Y146.574 E1.93401
G1 X88.427 Y146.574 E1.93398
G1 F2700 E-5
G0 F6000 X88.727 Y146.304
G0 X89.037 Y132.091
G0 X87.562 Y132.091
G0 X100.59 Y130.564
G0 X99.806 Y131.839
G0 X101.538 Y132.091
G0 X101.63 Y131.806
G1 F2700 E5
G1 F1200 X103.135 Y131.321 E0.05259
G1 X104.492 Y129.948 E0.06421
G1 X105.631 Y127.808 E0.08063
G1 X106.499 Y125.043 E0.09639
G1 X107.042 Y121.834 E0.10825
G1 X107.227 Y118.396 E0.11451
G1 X107.042 Y114.957 E0.11455
G1 X106.499 Y111.749 E0.10822
G1 X105.631 Y108.984 E0.09639
G1 X104.492 Y106.844 E0.08063
G1 X103.135 Y105.47 E0.06423
G1 X101.63 Y104.985 E0.05259
G1 X100.125 Y105.47 E0.05259
G1 X98.768 Y106.844 E0.06423
G1 X97.628 Y108.984 E0.08065
G1 X96.76 Y111.749 E0.09639
G1 X96.217 Y114.957 E0.10822
G1 X96.032 Y118.396 E0.11455
G1 X96.217 Y121.834 E0.11451
G1 X96.76 Y125.043 E0.10825
G1 X97.628 Y127.808 E0.09639
G1 X98.768 Y129.948 E0.08065
G1 X100.125 Y131.321 E0.06421
G1 X101.63 Y131.806 E0.05259
G0 F6000 X101.63 Y132.226
;TYPE:WALL-INNER
G1 F1200 X103.351 Y131.672 E0.06013
G1 X104.818 Y130.188 E0.0694
G1 X106.002 Y127.963 E0.08383
G1 X106.889 Y125.137 E0.09851
G1 X107.44 Y121.878 E0.10993
G1 X107.628 Y118.396 E0.11598
G1 X107.44 Y114.913 E0.11601
G1 X106.889 Y111.655 E0.1099
G1 X106.002 Y108.829 E0.09851
G1 X104.818 Y106.604 E0.08383
G1 X103.351 Y105.119 E0.06943
G1 X101.63 Y104.565 E0.06013
G1 X99.909 Y105.119 E0.06013
G1 X98.442 Y106.604 E0.06943
G1 X97.257 Y108.829 E0.08384
G1 X96.37 Y111.655 E0.09851
G1 X95.819 Y114.913 E0.1099
G1 X95.631 Y118.396 E0.11601
G1 X95.819 Y121.878 E0.11598
G1 X96.37 Y125.137 E0.10993
G1 X97.257 Y127.963 E0.09851
G1 X98.442 Y130.188 E0.08384
G1 X99.909 Y131.672 E0.0694
G1 X101.63 Y132.226 E0.06013
G1 F2700 E-5
G0 F6000 X103.454 Y131.839
G0 X102.67 Y130.564
G0 X116.879 Y130.564
G0 X119.053 Y130.564
G0 X132.911 Y130.564
G0 X132.127 Y131.839
G0 X133.859 Y132.091
G0 X133.951 Y131.806
;TYPE:WALL-OUTER
G1 F2700 E5
G1 F1200 X135.456 Y131.321 E0.05259
G1 X136.813 Y129.948 E0.06421
G1 X137.953 Y127.808 E0.08065
G1 X138.821 Y125.043 E0.09639
G1 X139.364 Y121.834 E0.10825
G1 X139.549 Y118.396 E0.11451
G1 X139.364 Y114.957 E0.11455
G1 X138.821 Y111.749 E0.10822
G1 X137.953 Y108.984 E0.09639
G1 X136.813 Y106.844 E0.08065
G1 X135.456 Y105.47 E0.06423
G1 X133.951 Y104.985 E0.05259
G1 X132.446 Y105.47 E0.05259
G1 X131.09 Y106.844 E0.06421
G1 X129.95 Y108.984 E0.08065
G1 X129.082 Y111.749 E0.09639
G1 X128.539 Y114.957 E0.10822
G1 X128.354 Y118.396 E0.11455
G1 X128.539 Y121.834 E0.11451
G1 X129.082 Y125.043 E0.10825
G1 X129.95 Y127.808 E0.09639
G1 X131.09 Y129.948 E0.08065
G1 X132.446 Y131.321 E0.06418
G1 X133.951 Y131.806 E0.05259
G0 F6000 X133.951 Y132.226
;TYPE:WALL-INNER
G1 F1200 X135.672 Y131.672 E0.06013
G1 X137.139 Y130.188 E0.0694
G1 X138.324 Y127.963 E0.08384
G1 X139.211 Y125.137 E0.09851
G1 X139.762 Y121.878 E0.10993
G1 X139.95 Y118.396 E0.11598
G1 X139.762 Y114.913 E0.11601
G1 X139.211 Y111.655 E0.1099
G1 X138.324 Y108.829 E0.09851
G1 X137.139 Y106.604 E0.08384
G1 X135.672 Y105.119 E0.06943
G1 X133.951 Y104.565 E0.06013
G1 X132.23 Y105.119 E0.06013
G1 X130.764 Y106.605 E0.06943
G1 X129.579 Y108.829 E0.08382
G1 X128.692 Y111.655 E0.09851
G1 X128.141 Y114.913 E0.1099
G1 X127.953 Y118.396 E0.11601
G1 X128.141 Y121.878 E0.11598
G1 X128.692 Y125.137 E0.10993
G1 X129.579 Y127.963 E0.09851
G1 X130.764 Y130.188 E0.08384
G1 X132.23 Y131.672 E0.06938
G1 X133.951 Y132.226 E0.06013
G1 F2700 E-5
G0 F6000 X132.127 Y131.839
G0 X132.911 Y130.564
G0 X119.053 Y130.564
G0 X119.837 Y131.839
G0 X117.921 Y132.091
G0 X118.013 Y131.806
;TYPE:WALL-OUTER
G1 F2700 E5
G1 F1200 X119.518 Y131.321 E0.05259
G1 X120.875 Y129.948 E0.06421
G1 X122.014 Y127.808 E0.08063
G1 X122.882 Y125.043 E0.09639
G1 X123.425 Y121.834 E0.10825
G1 X123.61 Y118.396 E0.11451
G1 X123.425 Y114.957 E0.11455
G1 X122.882 Y111.749 E0.10822
G1 X122.014 Y108.984 E0.09639
G1 X120.875 Y106.844 E0.08063
G1 X119.518 Y105.47 E0.06423
G1 X118.013 Y104.985 E0.05259
G1 X116.508 Y105.47 E0.05259
G1 X115.151 Y106.844 E0.06423
G1 X114.026 Y108.957 E0.07962
G1 X114.002 Y109.012 E0.002
G1 X113.143 Y111.749 E0.09541
G1 X112.6 Y114.957 E0.10822
G1 X112.415 Y118.396 E0.11455
G1 X112.6 Y121.834 E0.11451
G1 X113.143 Y125.043 E0.10825
G1 X114.011 Y127.808 E0.09639
G1 X115.151 Y129.948 E0.08065
G1 X116.508 Y131.321 E0.06421
G1 X118.013 Y131.806 E0.05259
G0 F6000 X118.013 Y132.226
;TYPE:WALL-INNER
G1 F1200 X119.734 Y131.672 E0.06013
G1 X121.201 Y130.188 E0.0694
G1 X122.385 Y127.963 E0.08383
G1 X123.272 Y125.137 E0.09851
G1 X123.823 Y121.878 E0.10993
G1 X124.011 Y118.396 E0.11598
G1 X123.823 Y114.913 E0.11601
G1 X123.272 Y111.655 E0.1099
G1 X122.385 Y108.829 E0.09851
G1 X121.201 Y106.604 E0.08383
G1 X119.734 Y105.119 E0.06943
G1 X118.013 Y104.565 E0.06013
G1 X116.292 Y105.119 E0.06013
G1 X114.825 Y106.604 E0.06943
G1 X113.666 Y108.783 E0.08209
G1 X113.627 Y108.872 E0.00323
G1 X112.753 Y111.655 E0.09702
G1 X112.202 Y114.913 E0.1099
G1 X112.014 Y118.396 E0.11601
G1 X112.202 Y121.878 E0.11598
G1 X112.753 Y125.137 E0.10993
G1 X113.64 Y127.963 E0.09851
G1 X114.825 Y130.188 E0.08384
G1 X116.292 Y131.672 E0.0694
G1 X118.013 Y132.226 E0.06013
G1 F2700 E-5
G0 F6000 X116.189 Y131.839
G0 X116.973 Y130.564
G0 X116.189 Y147.439
G0 X116.189 Y145.964
G0 X88.827 Y146.174
G1 F2700 E5
G1 F1200 X88.827 Y88.826 E1.9074
G1 X146.174 Y88.826 E1.90737
G1 X146.174 Y146.174 E1.9074
G1 X88.827 Y146.174 E1.90737
G0 F6000 X89.217 Y145.784
;TYPE:SKIN
G1 F1200 X89.217 Y89.216 E1.88146
G1 X145.784 Y89.216 E1.88143
G1 X145.784 Y145.784 E1.88146
G1 X89.217 Y145.784 E1.88143
G1 F2700 E-5
G0 F6000 X88.937 Y145.784
G0 X89.037 Y131.77
G0 X87.562 Y131.77
G0 X99.473 Y129.431
G0 X98.287 Y130.303
G0 X99.851 Y131.77
G0 X99.699 Y132.014
G1 F2700 E5
G1 F1200 X101.63 Y132.636 E0.06748
G1 X103.561 Y132.014 E0.06748
G1 X105.136 Y130.422 E0.07448
G1 X106.363 Y128.115 E0.08691
G1 X107.269 Y125.228 E0.10064
G1 X107.828 Y121.921 E0.11155
G1 X108.018 Y118.396 E0.11741
G1 X107.828 Y114.87 E0.11745
G1 X107.269 Y111.563 E0.11155
G1 X106.363 Y108.677 E0.10061
G1 X105.136 Y106.37 E0.08691
G1 X103.561 Y104.777 E0.07451
G1 X101.63 Y104.155 E0.06748
G1 X99.699 Y104.777 E0.06748
G1 X98.124 Y106.37 E0.07451
G1 X96.896 Y108.677 E0.08692
G1 X95.99 Y111.563 E0.10061
G1 X95.431 Y114.87 E0.11155
G1 X95.241 Y118.396 E0.11745
G1 X95.431 Y121.921 E0.11741
G1 X95.99 Y125.228 E0.11155
G1 X96.896 Y128.115 E0.10064
G1 X98.124 Y130.422 E0.08692
G1 X99.699 Y132.014 E0.07448
G1 F2700 E-5
G0 F6000 X99.851 Y131.77
G0 X101.63 Y132.056
G0 X103.263 Y131.53
G0 X104.973 Y130.303
G0 X103.787 Y129.431
G0 X114.809 Y127.469
G0 X113.463 Y128.037
G0 X114.736 Y130.255
G0 X114.507 Y130.422
G1 F2700 E5
G1 F1200 X116.082 Y132.014 E0.07448
G1 X118.013 Y132.636 E0.06748
G1 X119.944 Y132.014 E0.06748
G1 X121.519 Y130.422 E0.07448
G1 X122.746 Y128.115 E0.08691
G1 X123.652 Y125.228 E0.10064
G1 X124.211 Y121.921 E0.11155
G1 X124.401 Y118.396 E0.11741
G1 X124.211 Y114.87 E0.11745
G1 X123.652 Y111.563 E0.11155
G1 X122.746 Y108.677 E0.10061
G1 X121.519 Y106.37 E0.08691
G1 X119.944 Y104.777 E0.07451
G1 X118.013 Y104.155 E0.06748
G1 X116.082 Y104.777 E0.06748
G1 X114.507 Y106.37 E0.07451
G1 X113.315 Y108.613 E0.08448
G1 X113.261 Y108.735 E0.00444
G1 X112.373 Y111.563 E0.09859
G1 X111.814 Y114.87 E0.11155
G1 X111.624 Y118.396 E0.11745
G1 X111.814 Y121.921 E0.11741
G1 X112.373 Y125.228 E0.11155
G1 X113.279 Y128.115 E0.10064
G1 X114.507 Y130.422 E0.08692
G1 F2700 E-5
G0 F6000 X114.736 Y130.255
G0 X116.38 Y131.53
G0 X118.013 Y132.056
G0 X119.646 Y131.53
G0 X120.927 Y130.235
G0 X122.562 Y128.037
G0 X121.216 Y127.469
G0 X130.177 Y125.648
G0 X128.771 Y126.089
G0 X129.477 Y128.007
G0 X129.218 Y128.115
G1 F2700 E5
G1 F1200 X130.446 Y130.422 E0.08692
G1 X132.02 Y132.014 E0.07446
G1 X133.951 Y132.636 E0.06748
G1 X135.882 Y132.014 E0.06748
G1 X137.457 Y130.422 E0.07448
G1 X138.685 Y128.115 E0.08692
G1 X139.591 Y125.228 E0.10064
G1 X140.15 Y121.921 E0.11155
G1 X140.34 Y118.396 E0.11741
G1 X140.15 Y114.87 E0.11745
G1 X139.591 Y111.563 E0.11155
G1 X138.685 Y108.677 E0.10061
G1 X137.457 Y106.37 E0.08692
G1 X135.882 Y104.777 E0.07451
G1 X133.951 Y104.155 E0.06748
G1 X132.019 Y104.777 E0.06751
G1 X130.446 Y106.371 E0.07448
G1 X129.218 Y108.677 E0.0869
G1 X128.312 Y111.563 E0.10061
G1 X127.753 Y114.87 E0.11155
G1 X127.563 Y118.396 E0.11745
G1 X127.753 Y121.921 E0.11741
G1 X128.312 Y125.228 E0.11155
G1 X129.218 Y128.115 E0.10064
G1 F2700 E-5
G0 F6000 X129.477 Y128.007
G0 X128.849 Y125.099
G0 X128.301 Y121.86
G0 X128.114 Y118.396
G0 X128.301 Y114.931
G0 X128.849 Y111.693
G0 X129.729 Y108.891
G0 X130.895 Y106.701
G0 X132.318 Y105.261
G0 X133.951 Y104.735
G0 X135.584 Y105.261
G0 X137.294 Y106.489
G0 X136.108 Y107.361
G0 X147.439 Y106.489
G0 X145.964 Y106.489
G0 X146.064 Y89.62
G0 X145.623 Y89.62
G1 F2700 E5
G1 F1200 X145.379 Y89.376 E0.01148
G0 F6000 X144.813 Y89.376
G1 F1200 X145.623 Y90.186 E0.0381
G0 F6000 X145.623 Y90.752
G1 F1200 X144.247 Y89.376 E0.06472
G0 F6000 X143.681 Y89.376
G1 F1200 X145.623 Y91.317 E0.09132
G0 F6000 X145.623 Y91.883
G1 F1200 X143.116 Y89.376 E0.11792
G0 F6000 X142.55 Y89.376
G1 F1200 X145.623 Y92.449 E0.14454
G0 F6000 X145.623 Y93.014
G1 F1200 X141.984 Y89.376 E0.17114
G0 F6000 X141.419 Y89.376
G1 F1200 X145.623 Y93.58 E0.19774
G0 F6000 X145.623 Y94.146
G1 F1200 X140.853 Y89.376 E0.22437
G0 F6000 X140.287 Y89.376
G1 F1200 X145.623 Y94.712 E0.25099
G0 F6000 X145.623 Y95.277
G1 F1200 X139.722 Y89.376 E0.27756
G0 F6000 X139.156 Y89.376
G1 F1200 X145.623 Y95.843 E0.30419
G0 F6000 X145.623 Y96.409
G1 F1200 X138.59 Y89.376 E0.33081
G0 F6000 X138.025 Y89.376
G1 F1200 X145.623 Y96.974 E0.35739
G0 F6000 X145.623 Y97.54
G1 F1200 X137.459 Y89.376 E0.38401
G0 F6000 X136.893 Y89.376
G1 F1200 X145.623 Y98.106 E0.41063
G0 F6000 X145.623 Y98.671
G1 F1200 X136.328 Y89.376 E0.43721
G0 F6000 X135.762 Y89.376
G1 F1200 X145.623 Y99.237 E0.46383
G0 F6000 X145.623 Y99.803
G1 F1200 X135.196 Y89.376 E0.49045
G0 F6000 X134.631 Y89.376
G1 F1200 X145.623 Y100.368 E0.51703
G0 F6000 X145.623 Y100.934
G1 F1200 X134.065 Y89.376 E0.54365
G0 F6000 X133.499 Y89.376
G1 F1200 X145.623 Y101.5 E0.57028
G0 F6000 X145.623 Y102.065
G1 F1200 X132.933 Y89.376 E0.59688
G0 F6000 X132.368 Y89.376
G1 F1200 X145.623 Y102.631 E0.62347
G0 F6000 X145.623 Y103.197
G1 F1200 X131.802 Y89.376 E0.6501
G0 F6000 X131.236 Y89.376
G1 F1200 X145.623 Y103.762 E0.6767
G0 F6000 X145.623 Y104.328
G1 F1200 X130.671 Y89.376 E0.7033
G0 F6000 X130.105 Y89.376
G1 F1200 X145.623 Y104.894 E0.72992
G0 F6000 X145.623 Y105.46
G1 F1200 X129.539 Y89.376 E0.75654
G0 F6000 X128.974 Y89.376
G1 F1200 X145.623 Y106.025 E0.78312
G0 F6000 X145.623 Y106.591
G1 F1200 X128.408 Y89.376 E0.80974
G0 F6000 X127.842 Y89.376
G1 F1200 X145.623 Y107.157 E0.83636
G0 F6000 X145.623 Y107.722
G1 F1200 X127.277 Y89.376 E0.86294
G0 F6000 X126.711 Y89.376
G1 F1200 X145.623 Y108.288 E0.88956
G0 F6000 X145.623 Y108.854
G1 F1200 X126.145 Y89.376 E0.91619
G0 F6000 X125.58 Y89.376
G1 F1200 X145.623 Y109.419 E0.94276
G0 F6000 X145.623 Y109.985
G1 F1200 X125.014 Y89.376 E0.96938
G0 F6000 X124.448 Y89.376
G1 F1200 X145.623 Y110.551 E0.99601
G0 F6000 X145.623 Y111.116
G1 F1200 X123.882 Y89.376 E1.02261
G0 F6000 X123.317 Y89.376
G1 F1200 X145.623 Y111.682 E1.04921
G0 F6000 X145.623 Y112.248
G1 F1200 X122.751 Y89.376 E1.07583
