;FLAVOR:Marlin
;TIME:5343
;Filament used: 3.50143m
;Layer height: 0.2
;MINX:103.35
;MINY:103.35
;MINZ:0.2
;MAXX:131.65
;MAXY:131.65
;MAXZ:50.8
;Generated with Cura_SteamEngine 4.8.0
M140 S60
M105
M190 S60
M104 S230
M105
M109 S230
M82 ;absolute extrusion mode
; Ender 3 Custom Start G-code
G92 E0 ; Reset Extruder
G28 ; Home all axes
G1 Z2.0 F3000 ; Move Z Axis up little to prevent scratching of Heat Bed
G1 X0.1 Y20 Z0.3 F5000.0 ; Move to start position
G1 X0.1 Y200.0 Z0.3 F1500.0 E15 ; Draw the first line
G1 X0.4 Y200.0 Z0.3 F5000.0 ; Move to side a little
G1 X0.4 Y20 Z0.3 F1500.0 E30 ; Draw the second line
G92 E0 ; Reset Extruder
G1 Z2.0 F3000 ; Move Z Axis up little to prevent scratching of Heat Bed
G1 X5 Y20 Z0.3 F5000.0 ; Move over to prevent blob squish
M83 ;relative extrusion mode
G1 F2700 E-5
;LAYER_COUNT:254
;LAYER:0
M107
M205 X8 Y8
G0 F6000 X105.773 Y105.499 Z0.2
;TYPE:SKIRT
G1 F2700 E5
G1 F1200 X106.372 Y104.984 E0.02627
G1 X107.02 Y104.533 E0.02626
G1 X107.711 Y104.149 E0.02629
G1 X108.436 Y103.837 E0.02625
G1 X109.189 Y103.6 E0.02626
G1 X109.963 Y103.441 E0.02628
G1 X110.748 Y103.36 E0.02625
G1 X111.15 Y103.35 E0.01337
G1 X123.85 Y103.35 E0.4224
G1 X124.639 Y103.39 E0.02628
G1 X125.419 Y103.509 E0.02624
G1 X126.184 Y103.707 E0.02628
G1 X126.924 Y103.981 E0.02625
G1 X127.633 Y104.329 E0.02627
G1 X128.304 Y104.747 E0.02629
G1 X128.928 Y105.23 E0.02625
G1 X129.501 Y105.773 E0.02626
G1 X130.016 Y106.372 E0.02627
G1 X130.467 Y107.02 E0.02626
G1 X130.851 Y107.711 E0.02629
G1 X131.163 Y108.436 E0.02625
G1 X131.4 Y109.189 E0.02626
G1 X131.559 Y109.963 E0.02628
G1 X131.64 Y110.748 E0.02625
G1 X131.65 Y111.15 E0.01337
G1 X131.65 Y123.85 E0.4224
G1 X131.61 Y124.639 E0.02628
G1 X131.491 Y125.419 E0.02624
G1 X131.293 Y126.184 E0.02628
G1 X131.019 Y126.924 E0.02625
G1 X130.671 Y127.633 E0.02627
G1 X130.253 Y128.304 E0.02629
G1 X129.77 Y128.928 E0.02625
G1 X129.227 Y129.501 E0.02626
G1 X128.628 Y130.016 E0.02627
G1 X127.98 Y130.467 E0.02626
G1 X127.289 Y130.851 E0.02629
G1 X126.564 Y131.163 E0.02625
G1 X125.811 Y131.4 E0.02626
G1 X125.037 Y131.559 E0.02628
G1 X124.252 Y131.64 E0.02625
G1 X123.85 Y131.65 E0.01337
G1 X111.15 Y131.65 E0.4224
G1 X110.361 Y131.61 E0.02628
G1 X109.581 Y131.491 E0.02624
G1 X108.816 Y131.293 E0.02628
G1 X108.076 Y131.019 E0.02625
G1 X107.367 Y130.671 E0.02627
G1 X106.696 Y130.253 E0.02629
G1 X106.072 Y129.77 E0.02625
G1 X105.499 Y129.227 E0.02626
G1 X104.984 Y128.628 E0.02627
G1 X104.533 Y127.98 E0.02626
G1 X104.149 Y127.289 E0.02629
G1 X103.837 Y126.564 E0.02625
G1 X103.6 Y125.811 E0.02626
G1 X103.441 Y125.037 E0.02628
G1 X103.36 Y124.252 E0.02625
G1 X103.35 Y123.85 E0.01337
G1 X103.35 Y111.15 E0.4224
G1 X103.39 Y110.361 E0.02628
G1 X103.509 Y109.581 E0.02624
G1 X103.707 Y108.816 E0.02628
G1 X103.981 Y108.076 E0.02625
G1 X104.329 Y107.367 E0.02627
G1 X104.747 Y106.696 E0.02629
G1 X105.23 Y106.072 E0.02625
G1 X105.773 Y105.499 E0.02626
G0 F6000 X106.166 Y105.68
G1 F1200 X106.761 Y105.192 E0.02559
G1 X107.403 Y104.769 E0.02557
G1 X108.086 Y104.414 E0.0256
G1 X108.801 Y104.133 E0.02555
G1 X109.543 Y103.927 E0.02561
G1 X110.301 Y103.799 E0.02557
G1 X111.15 Y103.75 E0.02828
G1 X123.85 Y103.75 E0.4224
G1 X124.618 Y103.79 E0.02558
G1 X125.378 Y103.909 E0.02559
G1 X126.121 Y104.107 E0.02557
G1 X126.84 Y104.381 E0.02559
G1 X127.526 Y104.728 E0.02557
G1 X128.173 Y105.144 E0.02558
G1 X128.773 Y105.625 E0.02558
G1 X129.32 Y106.166 E0.02559
G1 X129.808 Y106.761 E0.02559
G1 X130.231 Y107.403 E0.02557
G1 X130.586 Y108.086 E0.0256
G1 X130.867 Y108.801 E0.02555
G1 X131.073 Y109.543 E0.02561
G1 X131.201 Y110.301 E0.02557
G1 X131.25 Y111.15 E0.02828
G1 X131.25 Y123.85 E0.4224
G1 X131.21 Y124.618 E0.02558
G1 X131.091 Y125.378 E0.02559
G1 X130.893 Y126.121 E0.02557
G1 X130.619 Y126.84 E0.02559
G1 X130.272 Y127.526 E0.02557
G1 X129.856 Y128.173 E0.02558
G1 X129.375 Y128.773 E0.02558
G1 X128.834 Y129.32 E0.02559
G1 X128.239 Y129.808 E0.02559
G1 X127.597 Y130.231 E0.02557
G1 X126.914 Y130.586 E0.0256
G1 X126.199 Y130.867 E0.02555
G1 X125.457 Y131.073 E0.02561
G1 X124.699 Y131.201 E0.02557
G1 X123.85 Y131.25 E0.02828
G1 X111.15 Y131.25 E0.4224
G1 X110.382 Y131.21 E0.02558
G1 X109.622 Y131.091 E0.02559
G1 X108.879 Y130.893 E0.02557
G1 X108.16 Y130.619 E0.02559
G1 X107.474 Y130.272 E0.02557
G1 X106.827 Y129.856 E0.02558
G1 X106.227 Y129.375 E0.02558
G1 X105.68 Y128.834 E0.02559
G1 X105.192 Y128.239 E0.02559
G1 X104.769 Y127.597 E0.02557
G1 X104.414 Y126.914 E0.0256
G1 X104.133 Y126.199 E0.02555
G1 X103.927 Y125.457 E0.02561
G1 X103.799 Y124.699 E0.02557
G1 X103.75 Y123.85 E0.02828
G1 X103.75 Y111.15 E0.4224
G1 X103.79 Y110.382 E0.02558
G1 X103.909 Y109.622 E0.02559
G1 X104.107 Y108.879 E0.02557
G1 X104.381 Y108.16 E0.02559
G1 X104.728 Y107.474 E0.02557
G1 X105.144 Y106.827 E0.02558
G1 X105.625 Y106.227 E0.02558
G1 X106.166 Y105.68 E0.02559
G0 F6000 X106.558 Y105.866
G1 F1200 X107.148 Y105.407 E0.02486
G1 X107.784 Y105.012 E0.0249
G1 X108.458 Y104.688 E0.02487
G1 X109.163 Y104.438 E0.02488
G1 X109.891 Y104.264 E0.0249
G1 X110.633 Y104.169 E0.02488
G1 X111.15 Y104.15 E0.01721
G1 X123.85 Y104.15 E0.4224
G1 X124.597 Y104.19 E0.02488
G1 X125.335 Y104.309 E0.02486
G1 X126.057 Y104.507 E0.0249
G1 X126.753 Y104.78 E0.02487
G1 X127.416 Y105.127 E0.02489
G1 X128.039 Y105.542 E0.0249
G1 X128.613 Y106.021 E0.02487
G1 X129.134 Y106.558 E0.02489
G1 X129.593 Y107.148 E0.02486
G1 X129.988 Y107.784 E0.0249
G1 X130.312 Y108.458 E0.02487
G1 X130.562 Y109.163 E0.02488
G1 X130.736 Y109.891 E0.0249
G1 X130.831 Y110.633 E0.02488
G1 X130.85 Y111.15 E0.01721
G1 X130.85 Y123.85 E0.4224
G1 X130.81 Y124.597 E0.02488
G1 X130.691 Y125.335 E0.02486
G1 X130.493 Y126.057 E0.0249
G1 X130.22 Y126.753 E0.02487
G1 X129.873 Y127.416 E0.02489
G1 X129.458 Y128.039 E0.0249
G1 X128.979 Y128.613 E0.02487
G1 X128.442 Y129.134 E0.02489
G1 X127.852 Y129.593 E0.02486
G1 X127.216 Y129.988 E0.0249
G1 X126.542 Y130.312 E0.02487
G1 X125.837 Y130.562 E0.02488
G1 X125.109 Y130.736 E0.0249
G1 X124.367 Y130.831 E0.02488
G1 X123.85 Y130.85 E0.01721
G1 X111.15 Y130.85 E0.4224
G1 X110.403 Y130.81 E0.02488
G1 X109.665 Y130.691 E0.02486
G1 X108.943 Y130.493 E0.0249
G1 X108.247 Y130.22 E0.02487
G1 X107.584 Y129.873 E0.02489
G1 X106.961 Y129.458 E0.0249
G1 X106.387 Y128.979 E0.02487
G1 X105.866 Y128.442 E0.02489
G1 X105.407 Y127.852 E0.02486
G1 X105.012 Y127.216 E0.0249
G1 X104.688 Y126.542 E0.02487
G1 X104.438 Y125.837 E0.02488
G1 X104.264 Y125.109 E0.0249
G1 X104.169 Y124.367 E0.02488
G1 X104.15 Y123.85 E0.01721
G1 X104.15 Y111.15 E0.4224
G1 X104.19 Y110.403 E0.02488
G1 X104.309 Y109.665 E0.02486
G1 X104.507 Y108.943 E0.0249
G1 X104.78 Y108.247 E0.02487
G1 X105.127 Y107.584 E0.02489
G1 X105.542 Y106.961 E0.0249
G1 X106.021 Y106.387 E0.02487
G1 X106.558 Y105.866 E0.02489
G0 F6000 X106.415 Y106.552
G1 F1200 X106.949 Y106.059 E0.02417
G1 X107.534 Y105.629 E0.02415
G1 X108.163 Y105.265 E0.02417
G1 X108.828 Y104.972 E0.02417
G1 X109.521 Y104.754 E0.02416
G1 X110.233 Y104.614 E0.02413
G1 X111.15 Y104.55 E0.03057
G1 X123.85 Y104.55 E0.4224
G1 X124.575 Y104.59 E0.02415
G1 X125.292 Y104.709 E0.02417
G1 X125.991 Y104.907 E0.02416
G1 X126.664 Y105.18 E0.02416
G1 X127.303 Y105.525 E0.02415
G1 X127.9 Y105.939 E0.02416
G1 X128.448 Y106.415 E0.02414
G1 X128.941 Y106.949 E0.02417
G1 X129.371 Y107.534 E0.02415
G1 X129.735 Y108.163 E0.02417
G1 X130.028 Y108.828 E0.02417
G1 X130.246 Y109.521 E0.02416
G1 X130.386 Y110.233 E0.02413
G1 X130.45 Y111.15 E0.03057
G1 X130.45 Y123.85 E0.4224
G1 X130.41 Y124.575 E0.02415
G1 X130.291 Y125.292 E0.02417
G1 X130.093 Y125.991 E0.02416
G1 X129.82 Y126.664 E0.02416
G1 X129.475 Y127.303 E0.02415
G1 X129.061 Y127.9 E0.02416
G1 X128.585 Y128.448 E0.02414
G1 X128.051 Y128.941 E0.02417
G1 X127.466 Y129.371 E0.02415
G1 X126.837 Y129.735 E0.02417
G1 X126.172 Y130.028 E0.02417
G1 X125.479 Y130.246 E0.02416
G1 X124.767 Y130.386 E0.02413
G1 X123.85 Y130.45 E0.03057
G1 X111.15 Y130.45 E0.4224
G1 X110.425 Y130.41 E0.02415
G1 X109.708 Y130.291 E0.02417
G1 X109.009 Y130.093 E0.02416
G1 X108.336 Y129.82 E0.02416
G1 X107.697 Y129.475 E0.02415
G1 X107.1 Y129.061 E0.02416
G1 X106.552 Y128.585 E0.02414
G1 X106.059 Y128.051 E0.02417
G1 X105.629 Y127.466 E0.02415
G1 X105.265 Y126.837 E0.02417
G1 X104.972 Y126.172 E0.02417
G1 X104.754 Y125.479 E0.02416
G1 X104.614 Y124.767 E0.02413
G1 X104.55 Y123.85 E0.03057
G1 X104.55 Y111.15 E0.4224
G1 X104.59 Y110.425 E0.02415
G1 X104.709 Y109.708 E0.02417
G1 X104.907 Y109.009 E0.02416
G1 X105.18 Y108.336 E0.02416
G1 X105.525 Y107.697 E0.02415
G1 X105.939 Y107.1 E0.02416
G1 X106.415 Y106.552 E0.02414
G0 F6000 X106.809 Y106.723
G1 F1200 X107.339 Y106.259 E0.02343
G1 X107.918 Y105.859 E0.02341
G1 X108.539 Y105.527 E0.02342
G1 X109.193 Y105.267 E0.02341
G1 X109.873 Y105.083 E0.02343
G1 X110.569 Y104.977 E0.02342
G1 X111.15 Y104.95 E0.01934
G1 X123.85 Y104.95 E0.4224
G1 X124.553 Y104.99 E0.02342
G1 X125.247 Y105.109 E0.02342
G1 X125.922 Y105.307 E0.0234
G1 X126.571 Y105.579 E0.0234
G1 X127.185 Y105.924 E0.02342
G1 X127.756 Y106.335 E0.0234
G1 X128.277 Y106.809 E0.02343
G1 X128.741 Y107.339 E0.02343
G1 X129.141 Y107.918 E0.02341
G1 X129.473 Y108.539 E0.02342
G1 X129.733 Y109.193 E0.02341
G1 X129.917 Y109.873 E0.02343
G1 X130.023 Y110.569 E0.02342
G1 X130.05 Y111.15 E0.01934
G1 X130.05 Y123.85 E0.4224
G1 X130.01 Y124.553 E0.02342
G1 X129.891 Y125.247 E0.02342
G1 X129.693 Y125.922 E0.0234
G1 X129.421 Y126.571 E0.0234
G1 X129.076 Y127.185 E0.02342
G1 X128.665 Y127.756 E0.0234
G1 X128.191 Y128.277 E0.02343
G1 X127.661 Y128.741 E0.02343
G1 X127.082 Y129.141 E0.02341
G1 X126.461 Y129.473 E0.02342
G1 X125.807 Y129.733 E0.02341
G1 X125.127 Y129.917 E0.02343
G1 X124.431 Y130.023 E0.02342
G1 X123.85 Y130.05 E0.01934
G1 X111.15 Y130.05 E0.4224
G1 X110.447 Y130.01 E0.02342
G1 X109.753 Y129.891 E0.02342
G1 X109.078 Y129.693 E0.0234
G1 X108.429 Y129.421 E0.0234
G1 X107.815 Y129.076 E0.02342
G1 X107.244 Y128.665 E0.0234
G1 X106.723 Y128.191 E0.02343
G1 X106.259 Y127.661 E0.02343
G1 X105.859 Y127.082 E0.02341
G1 X105.527 Y126.461 E0.02342
G1 X105.267 Y125.807 E0.02341
G1 X105.083 Y125.127 E0.02343
G1 X104.977 Y124.431 E0.02342
G1 X104.95 Y123.85 E0.01934
G1 X104.95 Y111.15 E0.4224
G1 X104.99 Y110.447 E0.02342
G1 X105.109 Y109.753 E0.02342
G1 X105.307 Y109.078 E0.0234
G1 X105.579 Y108.429 E0.0234
G1 X105.924 Y107.815 E0.02342
G1 X106.335 Y107.244 E0.0234
G1 X106.809 Y106.723 E0.02343
G0 F6000 X107.203 Y106.901
G1 F1200 X107.728 Y106.467 E0.02266
G1 X108.3 Y106.098 E0.02264
G1 X108.912 Y105.799 E0.02265
G1 X109.554 Y105.574 E0.02263
G1 X110.219 Y105.425 E0.02267
G1 X111.15 Y105.35 E0.03107
G1 X123.85 Y105.35 E0.4224
G1 X124.53 Y105.39 E0.02266
G1 X125.2 Y105.509 E0.02263
G1 X125.852 Y105.706 E0.02265
G1 X126.476 Y105.978 E0.02264
G1 X127.064 Y106.322 E0.02266
G1 X127.608 Y106.732 E0.02266
G1 X128.099 Y107.203 E0.02263
G1 X128.533 Y107.728 E0.02266
G1 X128.902 Y108.3 E0.02264
G1 X129.201 Y108.912 E0.02265
G1 X129.426 Y109.554 E0.02263
G1 X129.575 Y110.219 E0.02267
G1 X129.65 Y111.15 E0.03107
G1 X129.65 Y123.85 E0.4224
G1 X129.61 Y124.53 E0.02266
G1 X129.491 Y125.2 E0.02263
G1 X129.294 Y125.852 E0.02265
G1 X129.022 Y126.476 E0.02264
G1 X128.678 Y127.064 E0.02266
G1 X128.268 Y127.608 E0.02266
G1 X127.797 Y128.099 E0.02263
G1 X127.272 Y128.533 E0.02266
G1 X126.7 Y128.902 E0.02264
G1 X126.088 Y129.201 E0.02265
G1 X125.446 Y129.426 E0.02263
G1 X124.781 Y129.575 E0.02267
G1 X123.85 Y129.65 E0.03107
G1 X111.15 Y129.65 E0.4224
G1 X110.47 Y129.61 E0.02266
G1 X109.8 Y129.491 E0.02263
G1 X109.148 Y129.294 E0.02265
G1 X108.524 Y129.022 E0.02264
G1 X107.936 Y128.678 E0.02266
G1 X107.392 Y128.268 E0.02266
G1 X106.901 Y127.797 E0.02263
G1 X106.467 Y127.272 E0.02266
G1 X106.098 Y126.7 E0.02264
G1 X105.799 Y126.088 E0.02265
G1 X105.574 Y125.446 E0.02263
G1 X105.425 Y124.781 E0.02267
G1 X105.35 Y123.85 E0.03107
G1 X105.35 Y111.15 E0.4224
G1 X105.39 Y110.47 E0.02266
G1 X105.509 Y109.8 E0.02263
G1 X105.706 Y109.148 E0.02265
G1 X105.978 Y108.524 E0.02264
G1 X106.322 Y107.936 E0.02266
G1 X106.732 Y107.392 E0.02266
G1 X107.203 Y106.901 E0.02263
G0 F6000 X107.595 Y107.085
G1 F1200 X108.115 Y106.684 E0.02184
G1 X108.679 Y106.348 E0.02184
G1 X109.281 Y106.084 E0.02186
G1 X109.91 Y105.894 E0.02185
G1 X110.557 Y105.783 E0.02183
G1 X111.15 Y105.75 E0.01975
G1 X123.85 Y105.75 E0.4224
G1 X124.506 Y105.79 E0.02186
G1 X125.152 Y105.909 E0.02185
G1 X125.779 Y106.106 E0.02186
G1 X126.377 Y106.378 E0.02185
G1 X126.938 Y106.72 E0.02185
G1 X127.453 Y107.128 E0.02185
G1 X127.915 Y107.595 E0.02185
G1 X128.316 Y108.115 E0.02184
G1 X128.652 Y108.679 E0.02184
G1 X128.916 Y109.281 E0.02186
G1 X129.106 Y109.91 E0.02185
G1 X129.217 Y110.557 E0.02183
G1 X129.25 Y111.15 E0.01975
G1 X129.25 Y123.85 E0.4224
G1 X129.21 Y124.506 E0.02186
G1 X129.091 Y125.152 E0.02185
G1 X128.894 Y125.779 E0.02186
G1 X128.622 Y126.377 E0.02185
G1 X128.28 Y126.938 E0.02185
G1 X127.872 Y127.453 E0.02185
G1 X127.405 Y127.915 E0.02185
G1 X126.885 Y128.316 E0.02184
G1 X126.321 Y128.652 E0.02184
G1 X125.719 Y128.916 E0.02186
G1 X125.09 Y129.106 E0.02185
G1 X124.443 Y129.217 E0.02183
G1 X123.85 Y129.25 E0.01975
G1 X111.15 Y129.25 E0.4224
G1 X110.494 Y129.21 E0.02186
G1 X109.848 Y129.091 E0.02185
G1 X109.221 Y128.894 E0.02186
G1 X108.623 Y128.622 E0.02185
G1 X108.062 Y128.28 E0.02185
G1 X107.547 Y127.872 E0.02185
G1 X107.085 Y127.405 E0.02185
G1 X106.684 Y126.885 E0.02184
G1 X106.348 Y126.321 E0.02184
G1 X106.084 Y125.719 E0.02186
G1 X105.894 Y125.09 E0.02185
G1 X105.783 Y124.443 E0.02183
G1 X105.75 Y123.85 E0.01975
G1 X105.75 Y111.15 E0.4224
G1 X105.79 Y110.494 E0.02186
G1 X105.909 Y109.848 E0.02185
G1 X106.106 Y109.221 E0.02186
G1 X106.378 Y108.623 E0.02185
G1 X106.72 Y108.062 E0.02185
G1 X107.128 Y107.547 E0.02185
G1 X107.595 Y107.085 E0.02185
G0 F6000 X107.523 Y107.709
G1 F1200 X107.986 Y107.279 E0.02102
G1 X108.5 Y106.91 E0.02104
G1 X109.056 Y106.61 E0.02101
G1 X109.645 Y106.382 E0.02101
G1 X110.259 Y106.23 E0.02104
G1 X111.15 Y106.15 E0.02975
G1 X123.85 Y106.15 E0.4224
G1 X124.481 Y106.19 E0.02103
G1 X125.102 Y106.309 E0.02103
G1 X125.702 Y106.506 E0.021
G1 X126.274 Y106.777 E0.02105
G1 X126.806 Y107.117 E0.021
G1 X127.291 Y107.523 E0.02104
G1 X127.721 Y107.986 E0.02102
G1 X128.09 Y108.5 E0.02104
G1 X128.39 Y109.056 E0.02101
G1 X128.618 Y109.645 E0.02101
G1 X128.77 Y110.259 E0.02104
G1 X128.85 Y111.15 E0.02975
G1 X128.85 Y123.85 E0.4224
G1 X128.81 Y124.481 E0.02103
G1 X128.691 Y125.102 E0.02103
G1 X128.494 Y125.702 E0.021
G1 X128.223 Y126.274 E0.02105
G1 X127.883 Y126.806 E0.021
G1 X127.477 Y127.291 E0.02104
G1 X127.014 Y127.721 E0.02102
G1 X126.5 Y128.09 E0.02104
G1 X125.944 Y128.39 E0.02101
G1 X125.355 Y128.618 E0.02101
G1 X124.741 Y128.77 E0.02104
G1 X123.85 Y128.85 E0.02975
G1 X111.15 Y128.85 E0.4224
G1 X110.519 Y128.81 E0.02103
G1 X109.898 Y128.691 E0.02103
G1 X109.298 Y128.494 E0.021
G1 X108.726 Y128.223 E0.02105
G1 X108.194 Y127.883 E0.021
G1 X107.709 Y127.477 E0.02104
G1 X107.279 Y127.014 E0.02102
G1 X106.91 Y126.5 E0.02104
G1 X106.61 Y125.944 E0.02101
G1 X106.382 Y125.355 E0.02101
G1 X106.23 Y124.741 E0.02104
G1 X106.15 Y123.85 E0.02975
G1 X106.15 Y111.15 E0.4224
G1 X106.19 Y110.519 E0.02103
G1 X106.309 Y109.898 E0.02103
G1 X106.506 Y109.298 E0.021
G1 X106.777 Y108.726 E0.02105
G1 X107.117 Y108.194 E0.021
G1 X107.523 Y107.709 E0.02104
G0 F6000 X107.917 Y107.878
G1 F1200 X108.375 Y107.481 E0.02016
G1 X108.882 Y107.148 E0.02017
G1 X109.428 Y106.884 E0.02017
G1 X110.004 Y106.695 E0.02016
G1 X110.6 Y106.583 E0.02017
G1 X111.15 Y106.55 E0.01833
G1 X123.85 Y106.55 E0.4224
G1 X124.455 Y106.59 E0.02017
G1 X125.049 Y106.709 E0.02015
G1 X125.623 Y106.905 E0.02017
G1 X126.166 Y107.176 E0.02018
G1 X126.669 Y107.515 E0.02017
G1 X127.122 Y107.917 E0.02014
G1 X127.519 Y108.375 E0.02016
G1 X127.852 Y108.882 E0.02017
G1 X128.116 Y109.428 E0.02017
G1 X128.305 Y110.004 E0.02016
G1 X128.417 Y110.6 E0.02017
G1 X128.45 Y111.15 E0.01833
G1 X128.45 Y123.85 E0.4224
G1 X128.41 Y124.455 E0.02017
G1 X128.291 Y125.049 E0.02015
G1 X128.095 Y125.623 E0.02017
G1 X127.824 Y126.166 E0.02018
G1 X127.485 Y126.669 E0.02017
