;FLAVOR:Marlin
;TIME:23978
;Filament used: 10.4008m
;Layer height: 0.2
;MINX:88.15
;MINY:108.15
;MINZ:0.2
;MAXX:146.85
;MAXY:126.85
;MAXZ:50.8
;Generated with Cura_SteamEngine 4.8.0
M140 S60
M105
M190 S60
M104 S210
M105
M109 S210
M82 ;absolute extrusion mode
; Ender 3 Custom Start G-code
G92 E0 ; Reset Extruder
G28 ; Home all axes
G1 Z2.0 F3000 ; Move Z Axis up little to prevent scratching of Heat Bed
G1 X0.1 Y20 Z0.3 F5000.0 ; Move to start position
G1 X0.1 Y200.0 Z0.3 F1500.0 E15 ; Draw the first line
G1 X0.4 Y200.0 Z0.3 F5000.0 ; Move to side a little
G1 X0.4 Y20 Z0.3 F1500.0 E30 ; Draw the second line
G92 E0 ; Reset Extruder
G1 Z2.0 F3000 ; Move Z Axis up little to prevent scratching of Heat Bed
G1 X5 Y20 Z0.3 F5000.0 ; Move over to prevent blob squish
M83 ;relative extrusion mode
G1 F2700 E-5
;LAYER_COUNT:254
;LAYER:0
M107
G0 F6000 X89.096 Y108.963 Z0.2
;TYPE:SKIRT
G1 F2700 E5
G1 F1200 X89.479 Y108.658 E0.01628
G1 X89.907 Y108.42 E0.01629
G1 X90.367 Y108.254 E0.01627
G1 X90.848 Y108.165 E0.01627
G1 X91.15 Y108.15 E0.01006
G1 X103.85 Y108.15 E0.4224
G1 X104.338 Y108.19 E0.01629
G1 X104.813 Y108.309 E0.01629
G1 X105.262 Y108.503 E0.01627
G1 X105.674 Y108.768 E0.01629
G1 X106.037 Y109.096 E0.01627
G1 X106.342 Y109.479 E0.01628
G1 X106.58 Y109.907 E0.01629
G1 X106.746 Y110.367 E0.01627
G1 X106.835 Y110.848 E0.01627
G1 X106.85 Y111.15 E0.01006
G1 X106.85 Y123.85 E0.4224
G1 X106.81 Y124.338 E0.01629
G1 X106.691 Y124.813 E0.01629
G1 X106.497 Y125.262 E0.01627
G1 X106.232 Y125.674 E0.01629
G1 X105.904 Y126.037 E0.01627
G1 X105.521 Y126.342 E0.01628
G1 X105.093 Y126.58 E0.01629
G1 X104.633 Y126.746 E0.01627
G1 X104.152 Y126.835 E0.01627
G1 X103.85 Y126.85 E0.01006
G1 X91.15 Y126.85 E0.4224
G1 X90.662 Y126.81 E0.01629
G1 X90.187 Y126.691 E0.01629
G1 X89.738 Y126.497 E0.01627
G1 X89.326 Y126.232 E0.01629
G1 X88.963 Y125.904 E0.01627
G1 X88.658 Y125.521 E0.01628
G1 X88.42 Y125.093 E0.01629
G1 X88.254 Y124.633 E0.01627
G1 X88.165 Y124.152 E0.01627
G1 X88.15 Y123.85 E0.01006
G1 X88.15 Y111.15 E0.4224
G1 X88.19 Y110.662 E0.01629
G1 X88.309 Y110.187 E0.01629
G1 X88.503 Y109.738 E0.01627
G1 X88.768 Y109.326 E0.01629
G1 X89.096 Y108.963 E0.01627
G0 F6000 X89.488 Y109.15
G1 F1200 X89.863 Y108.891 E0.01516
G1 X90.277 Y108.701 E0.01515
G1 X90.718 Y108.586 E0.01516
G1 X91.15 Y108.55 E0.01442
G1 X103.85 Y108.55 E0.4224
G1 X104.304 Y108.59 E0.01516
G1 X104.744 Y108.708 E0.01515
G1 X105.156 Y108.902 E0.01515
G1 X105.529 Y109.165 E0.01518
G1 X105.85 Y109.488 E0.01515
G1 X106.109 Y109.863 E0.01516
G1 X106.299 Y110.277 E0.01515
G1 X106.414 Y110.718 E0.01516
G1 X106.45 Y111.15 E0.01442
G1 X106.45 Y123.85 E0.4224
G1 X106.41 Y124.304 E0.01516
G1 X106.292 Y124.744 E0.01515
G1 X106.098 Y125.156 E0.01515
G1 X105.835 Y125.529 E0.01518
G1 X105.512 Y125.85 E0.01515
G1 X105.137 Y126.109 E0.01516
G1 X104.723 Y126.299 E0.01515
G1 X104.282 Y126.414 E0.01516
G1 X103.85 Y126.45 E0.01442
G1 X91.15 Y126.45 E0.4224
G1 X90.696 Y126.41 E0.01516
G1 X90.256 Y126.292 E0.01515
G1 X89.844 Y126.098 E0.01515
G1 X89.471 Y125.835 E0.01518
G1 X89.15 Y125.512 E0.01515
G1 X88.891 Y125.137 E0.01516
G1 X88.701 Y124.723 E0.01515
G1 X88.586 Y124.282 E0.01516
G1 X88.55 Y123.85 E0.01442
G1 X88.55 Y111.15 E0.4224
G1 X88.59 Y110.696 E0.01516
G1 X88.708 Y110.256 E0.01515
G1 X88.902 Y109.844 E0.01515
G1 X89.165 Y109.471 E0.01518
G1 X89.488 Y109.15 E0.01515
G0 F6000 X89.56 Y109.63
G1 F1200 X89.877 Y109.356 E0.01394
G1 X90.24 Y109.147 E0.01393
G1 X90.637 Y109.011 E0.01396
G1 X91.15 Y108.95 E0.01718
G1 X103.85 Y108.95 E0.4224
G1 X104.267 Y108.99 E0.01393
G1 X104.669 Y109.108 E0.01393
G1 X105.041 Y109.301 E0.01394
G1 X105.37 Y109.56 E0.01393
G1 X105.644 Y109.877 E0.01394
G1 X105.853 Y110.24 E0.01393
G1 X105.989 Y110.637 E0.01396
G1 X106.05 Y111.15 E0.01718
G1 X106.05 Y123.85 E0.4224
G1 X106.01 Y124.267 E0.01393
G1 X105.892 Y124.669 E0.01393
G1 X105.699 Y125.041 E0.01394
G1 X105.44 Y125.37 E0.01393
G1 X105.123 Y125.644 E0.01394
G1 X104.76 Y125.853 E0.01393
G1 X104.363 Y125.989 E0.01396
G1 X103.85 Y126.05 E0.01718
G1 X91.15 Y126.05 E0.4224
G1 X90.733 Y126.01 E0.01393
G1 X90.331 Y125.892 E0.01393
G1 X89.959 Y125.699 E0.01394
G1 X89.63 Y125.44 E0.01393
G1 X89.356 Y125.123 E0.01394
G1 X89.147 Y124.76 E0.01393
G1 X89.011 Y124.363 E0.01396
G1 X88.95 Y123.85 E0.01718
G1 X88.95 Y111.15 E0.4224
G1 X88.99 Y110.733 E0.01393
G1 X89.108 Y110.331 E0.01393
G1 X89.301 Y109.959 E0.01394
G1 X89.56 Y109.63 E0.01393
G0 F6000 X89.953 Y109.805
G1 F1200 X90.262 Y109.585 E0.01262
G1 X90.609 Y109.433 E0.0126
G1 X91.15 Y109.35 E0.0182
G1 X103.85 Y109.35 E0.4224
G1 X104.227 Y109.39 E0.01261
G1 X104.587 Y109.508 E0.0126
G1 X104.914 Y109.698 E0.01258
G1 X105.195 Y109.953 E0.01262
G1 X105.415 Y110.262 E0.01262
G1 X105.567 Y110.609 E0.0126
G1 X105.65 Y111.15 E0.0182
G1 X105.65 Y123.85 E0.4224
G1 X105.61 Y124.227 E0.01261
G1 X105.492 Y124.587 E0.0126
G1 X105.302 Y124.914 E0.01258
G1 X105.047 Y125.195 E0.01262
G1 X104.738 Y125.415 E0.01262
G1 X104.391 Y125.567 E0.0126
G1 X103.85 Y125.65 E0.0182
G1 X91.15 Y125.65 E0.4224
G1 X90.773 Y125.61 E0.01261
G1 X90.413 Y125.492 E0.0126
G1 X90.086 Y125.302 E0.01258
G1 X89.805 Y125.047 E0.01262
G1 X89.585 Y124.738 E0.01262
G1 X89.433 Y124.391 E0.0126
G1 X89.35 Y123.85 E0.0182
G1 X89.35 Y111.15 E0.4224
G1 X89.39 Y110.773 E0.01261
G1 X89.508 Y110.413 E0.0126
G1 X89.698 Y110.086 E0.01258
G1 X89.953 Y109.805 E0.01262
G0 F6000 X90.095 Y110.229
G1 F1200 X90.343 Y110.006 E0.01109
G1 X90.637 Y109.847 E0.01112
G1 X90.961 Y109.763 E0.01113
G1 X91.15 Y109.75 E0.0063
G1 X103.85 Y109.75 E0.4224
G1 X104.182 Y109.79 E0.01112
G1 X104.494 Y109.907 E0.01108
G1 X104.771 Y110.095 E0.01113
G1 X104.994 Y110.343 E0.01109
G1 X105.153 Y110.637 E0.01112
G1 X105.237 Y110.961 E0.01113
G1 X105.25 Y111.15 E0.0063
G1 X105.25 Y123.85 E0.4224
G1 X105.21 Y124.182 E0.01112
G1 X105.093 Y124.494 E0.01108
G1 X104.905 Y124.771 E0.01113
G1 X104.657 Y124.994 E0.01109
G1 X104.363 Y125.153 E0.01112
G1 X104.039 Y125.237 E0.01113
G1 X103.85 Y125.25 E0.0063
G1 X91.15 Y125.25 E0.4224
G1 X90.818 Y125.21 E0.01112
G1 X90.506 Y125.093 E0.01108
G1 X90.229 Y124.905 E0.01113
G1 X90.006 Y124.657 E0.01109
G1 X89.847 Y124.363 E0.01112
G1 X89.763 Y124.039 E0.01113
G1 X89.75 Y123.85 E0.0063
G1 X89.75 Y111.15 E0.4224
G1 X89.79 Y110.818 E0.01112
G1 X89.907 Y110.506 E0.01108
G1 X90.095 Y110.229 E0.01113
G0 F6000 X90.489 Y110.399
G1 F1200 X90.725 Y110.245 E0.00937
G1 X90.995 Y110.162 E0.00939
G1 X91.15 Y110.15 E0.00517
G1 X103.85 Y110.15 E0.4224
G1 X104.129 Y110.19 E0.00937
G1 X104.386 Y110.306 E0.00938
G1 X104.601 Y110.489 E0.00939
G1 X104.755 Y110.725 E0.00937
G1 X104.838 Y110.995 E0.00939
G1 X104.85 Y111.15 E0.00517
G1 X104.85 Y123.85 E0.4224
G1 X104.81 Y124.129 E0.00937
G1 X104.694 Y124.386 E0.00938
G1 X104.511 Y124.601 E0.00939
G1 X104.275 Y124.755 E0.00937
G1 X104.005 Y124.838 E0.00939
G1 X103.85 Y124.85 E0.00517
G1 X91.15 Y124.85 E0.4224
G1 X90.871 Y124.81 E0.00937
G1 X90.614 Y124.694 E0.00938
G1 X90.399 Y124.511 E0.00939
G1 X90.245 Y124.275 E0.00937
G1 X90.162 Y124.005 E0.00939
G1 X90.15 Y123.85 E0.00517
G1 X90.15 Y111.15 E0.4224
G1 X90.19 Y110.871 E0.00937
G1 X90.306 Y110.614 E0.00938
G1 X90.489 Y110.399 E0.00939
G0 F6000 X90.703 Y110.749
G1 F1200 X90.876 Y110.616 E0.00726
G1 X91.15 Y110.55 E0.00937
G1 X103.85 Y110.55 E0.4224
G1 X104.065 Y110.59 E0.00727
G1 X104.251 Y110.703 E0.00724
G1 X104.384 Y110.876 E0.00726
G1 X104.45 Y111.15 E0.00937
G1 X104.45 Y123.85 E0.4224
G1 X104.41 Y124.065 E0.00727
G1 X104.297 Y124.251 E0.00724
G1 X104.124 Y124.384 E0.00726
G1 X103.85 Y124.45 E0.00937
G1 X91.15 Y124.45 E0.4224
G1 X90.935 Y124.41 E0.00727
G1 X90.749 Y124.297 E0.00724
G1 X90.616 Y124.124 E0.00726
G1 X90.55 Y123.85 E0.00937
G1 X90.55 Y111.15 E0.4224
G1 X90.59 Y110.935 E0.00727
G1 X90.703 Y110.749 E0.00724
G0 F6000 X90.989 Y111.031
G1 F1200 X91.15 Y110.95 E0.00599
G1 X103.85 Y110.95 E0.4224
G1 X103.969 Y110.989 E0.00417
G1 X104.05 Y111.15 E0.00599
G1 X104.05 Y123.85 E0.4224
G1 X104.011 Y123.969 E0.00417
G1 X103.85 Y124.05 E0.00599
G1 X91.15 Y124.05 E0.4224
G1 X91.031 Y124.011 E0.00417
G1 X90.95 Y123.85 E0.00599
G1 X90.95 Y111.15 E0.4224
G1 X90.989 Y111.031 E0.00417
G1 F2700 E-5
G0 F6000 X90.989 Y110.485
G0 X104.503 Y110.497
G0 X108.19 Y110.662
G1 F2700 E5
G1 F1200 X108.309 Y110.187 E0.01629
G1 X108.503 Y109.738 E0.01627
G1 X108.768 Y109.326 E0.01629
G1 X109.096 Y108.963 E0.01627
G1 X109.479 Y108.658 E0.01628
G1 X109.907 Y108.42 E0.01629
G1 X110.367 Y108.254 E0.01627
G1 X110.848 Y108.165 E0.01627
G1 X111.15 Y108.15 E0.01006
G1 X123.85 Y108.15 E0.4224
G1 X124.338 Y108.19 E0.01629
G1 X124.813 Y108.309 E0.01629
G1 X125.262 Y108.503 E0.01627
G1 X125.674 Y108.768 E0.01629
G1 X126.037 Y109.096 E0.01627
G1 X126.342 Y109.479 E0.01628
G1 X126.58 Y109.907 E0.01629
G1 X126.746 Y110.367 E0.01627
G1 X126.835 Y110.848 E0.01627
G1 X126.85 Y111.15 E0.01006
G1 X126.85 Y123.85 E0.4224
G1 X126.81 Y124.338 E0.01629
G1 X126.691 Y124.813 E0.01629
G1 X126.497 Y125.262 E0.01627
G1 X126.232 Y125.674 E0.01629
G1 X125.904 Y126.037 E0.01627
G1 X125.521 Y126.342 E0.01628
G1 X125.093 Y126.58 E0.01629
G1 X124.633 Y126.746 E0.01627
G1 X124.152 Y126.835 E0.01627
G1 X123.85 Y126.85 E0.01006
G1 X111.15 Y126.85 E0.4224
G1 X110.662 Y126.81 E0.01629
G1 X110.187 Y126.691 E0.01629
G1 X109.738 Y126.497 E0.01627
G1 X109.326 Y126.232 E0.01629
G1 X108.963 Y125.904 E0.01627
G1 X108.658 Y125.521 E0.01628
G1 X108.42 Y125.093 E0.01629
G1 X108.254 Y124.633 E0.01627
G1 X108.165 Y124.152 E0.01627
G1 X108.15 Y123.85 E0.01006
G1 X108.15 Y111.15 E0.4224
G1 X108.19 Y110.662 E0.01629
G0 F6000 X108.59 Y110.696
G1 F1200 X108.708 Y110.256 E0.01515
G1 X108.902 Y109.844 E0.01515
G1 X109.165 Y109.471 E0.01518
G1 X109.488 Y109.15 E0.01515
G1 X109.863 Y108.891 E0.01516
G1 X110.277 Y108.701 E0.01515
G1 X110.718 Y108.586 E0.01516
G1 X111.15 Y108.55 E0.01442
G1 X123.85 Y108.55 E0.4224
G1 X124.304 Y108.59 E0.01516
G1 X124.744 Y108.708 E0.01515
G1 X125.156 Y108.902 E0.01515
G1 X125.529 Y109.165 E0.01518
G1 X125.85 Y109.488 E0.01515
G1 X126.109 Y109.863 E0.01516
G1 X126.299 Y110.277 E0.01515
G1 X126.414 Y110.718 E0.01516
G1 X126.45 Y111.15 E0.01442
G1 X126.45 Y123.85 E0.4224
G1 X126.41 Y124.304 E0.01516
G1 X126.292 Y124.744 E0.01515
G1 X126.098 Y125.156 E0.01515
G1 X125.835 Y125.529 E0.01518
G1 X125.512 Y125.85 E0.01515
G1 X125.137 Y126.109 E0.01516
G1 X124.723 Y126.299 E0.01515
G1 X124.282 Y126.414 E0.01516
G1 X123.85 Y126.45 E0.01442
G1 X111.15 Y126.45 E0.4224
G1 X110.696 Y126.41 E0.01516
G1 X110.256 Y126.292 E0.01515
G1 X109.844 Y126.098 E0.01515
G1 X109.471 Y125.835 E0.01518
G1 X109.15 Y125.512 E0.01515
G1 X108.891 Y125.137 E0.01516
G1 X108.701 Y124.723 E0.01515
G1 X108.586 Y124.282 E0.01516
G1 X108.55 Y123.85 E0.01442
G1 X108.55 Y111.15 E0.4224
G1 X108.59 Y110.696 E0.01516
G0 F6000 X108.99 Y110.733
G1 F1200 X109.108 Y110.331 E0.01393
G1 X109.301 Y109.959 E0.01394
G1 X109.56 Y109.63 E0.01393
G1 X109.877 Y109.356 E0.01394
G1 X110.24 Y109.147 E0.01393
G1 X110.637 Y109.011 E0.01396
G1 X111.15 Y108.95 E0.01718
G1 X123.85 Y108.95 E0.4224
G1 X124.267 Y108.99 E0.01393
G1 X124.669 Y109.108 E0.01393
G1 X125.041 Y109.301 E0.01394
G1 X125.37 Y109.56 E0.01393
G1 X125.644 Y109.877 E0.01394
G1 X125.853 Y110.24 E0.01393
G1 X125.989 Y110.637 E0.01396
G1 X126.05 Y111.15 E0.01718
G1 X126.05 Y123.85 E0.4224
G1 X126.01 Y124.267 E0.01393
G1 X125.892 Y124.669 E0.01393
G1 X125.699 Y125.041 E0.01394
G1 X125.44 Y125.37 E0.01393
G1 X125.123 Y125.644 E0.01394
G1 X124.76 Y125.853 E0.01393
G1 X124.363 Y125.989 E0.01396
G1 X123.85 Y126.05 E0.01718
G1 X111.15 Y126.05 E0.4224
G1 X110.733 Y126.01 E0.01393
G1 X110.331 Y125.892 E0.01393
G1 X109.959 Y125.699 E0.01394
G1 X109.63 Y125.44 E0.01393
G1 X109.356 Y125.123 E0.01394
G1 X109.147 Y124.76 E0.01393
G1 X109.011 Y124.363 E0.01396
G1 X108.95 Y123.85 E0.01718
G1 X108.95 Y111.15 E0.4224
G1 X108.99 Y110.733 E0.01393
G0 F6000 X109.35 Y111.15
G1 F1200 X109.39 Y110.773 E0.01261
G1 X109.508 Y110.413 E0.0126
G1 X109.698 Y110.086 E0.01258
G1 X109.953 Y109.805 E0.01262
G1 X110.262 Y109.585 E0.01262
G1 X110.609 Y109.433 E0.0126
G1 X111.15 Y109.35 E0.0182
G1 X123.85 Y109.35 E0.4224
G1 X124.227 Y109.39 E0.01261
G1 X124.587 Y109.508 E0.0126
G1 X124.914 Y109.698 E0.01258
G1 X125.195 Y109.953 E0.01262
G1 X125.415 Y110.262 E0.01262
G1 X125.567 Y110.609 E0.0126
G1 X125.65 Y111.15 E0.0182
G1 X125.65 Y123.85 E0.4224
G1 X125.61 Y124.227 E0.01261
G1 X125.492 Y124.587 E0.0126
G1 X125.302 Y124.914 E0.01258
G1 X125.047 Y125.195 E0.01262
G1 X124.738 Y125.415 E0.01262
G1 X124.391 Y125.567 E0.0126
G1 X123.85 Y125.65 E0.0182
G1 X111.15 Y125.65 E0.4224
G1 X110.773 Y125.61 E0.01261
G1 X110.413 Y125.492 E0.0126
G1 X110.086 Y125.302 E0.01258
G1 X109.805 Y125.047 E0.01262
G1 X109.585 Y124.738 E0.01262
G1 X109.433 Y124.391 E0.0126
G1 X109.35 Y123.85 E0.0182
G1 X109.35 Y111.15 E0.4224
G0 F6000 X109.75 Y111.15
G1 F1200 X109.79 Y110.818 E0.01112
G1 X109.907 Y110.506 E0.01108
G1 X110.095 Y110.229 E0.01113
G1 X110.343 Y110.006 E0.01109
G1 X110.637 Y109.847 E0.01112
G1 X110.961 Y109.763 E0.01113
G1 X111.15 Y109.75 E0.0063
G1 X123.85 Y109.75 E0.4224
G1 X124.182 Y109.79 E0.01112
G1 X124.494 Y109.907 E0.01108
G1 X124.771 Y110.095 E0.01113
G1 X124.994 Y110.343 E0.01109
G1 X125.153 Y110.637 E0.01112
G1 X125.237 Y110.961 E0.01113
G1 X125.25 Y111.15 E0.0063
G1 X125.25 Y123.85 E0.4224
G1 X125.21 Y124.182 E0.01112
G1 X125.093 Y124.494 E0.01108
G1 X124.905 Y124.771 E0.01113
G1 X124.657 Y124.994 E0.01109
G1 X124.363 Y125.153 E0.01112
G1 X124.039 Y125.237 E0.01113
G1 X123.85 Y125.25 E0.0063
G1 X111.15 Y125.25 E0.4224
G1 X110.818 Y125.21 E0.01112
G1 X110.506 Y125.093 E0.01108
G1 X110.229 Y124.905 E0.01113
G1 X110.006 Y124.657 E0.01109
G1 X109.847 Y124.363 E0.01112
G1 X109.763 Y124.039 E0.01113
G1 X109.75 Y123.85 E0.0063
G1 X109.75 Y111.15 E0.4224
G0 F6000 X110.15 Y111.15
G1 F1200 X110.19 Y110.871 E0.00937
G1 X110.306 Y110.614 E0.00938
G1 X110.489 Y110.399 E0.00939
G1 X110.725 Y110.245 E0.00937
G1 X110.995 Y110.162 E0.00939
G1 X111.15 Y110.15 E0.00517
G1 X123.85 Y110.15 E0.4224
G1 X124.129 Y110.19 E0.00937
G1 X124.386 Y110.306 E0.00938
G1 X124.601 Y110.489 E0.00939
G1 X124.755 Y110.725 E0.00937
G1 X124.838 Y110.995 E0.00939
G1 X124.85 Y111.15 E0.00517
G1 X124.85 Y123.85 E0.4224
G1 X124.81 Y124.129 E0.00937
G1 X124.694 Y124.386 E0.00938
G1 X124.511 Y124.601 E0.00939
G1 X124.275 Y124.755 E0.00937
G1 X124.005 Y124.838 E0.00939
G1 X123.85 Y124.85 E0.00517
G1 X111.15 Y124.85 E0.4224
G1 X110.871 Y124.81 E0.00937
G1 X110.614 Y124.694 E0.00938
G1 X110.399 Y124.511 E0.00939
G1 X110.245 Y124.275 E0.00937
G1 X110.162 Y124.005 E0.00939
G1 X110.15 Y123.85 E0.00517
G1 X110.15 Y111.15 E0.4224
G0 F6000 X110.55 Y111.15
G1 F1200 X110.59 Y110.935 E0.00727
G1 X110.703 Y110.749 E0.00724
G1 X110.876 Y110.616 E0.00726
G1 X111.15 Y110.55 E0.00937
G1 X123.85 Y110.55 E0.4224
G1 X124.065 Y110.59 E0.00727
G1 X124.251 Y110.703 E0.00724
G1 X124.384 Y110.876 E0.00726
G1 X124.45 Y111.15 E0.00937
G1 X124.45 Y123.85 E0.4224
G1 X124.41 Y124.065 E0.00727
G1 X124.297 Y124.251 E0.00724
G1 X124.124 Y124.384 E0.00726
G1 X123.85 Y124.45 E0.00937
G1 X111.15 Y124.45 E0.4224
G1 X110.935 Y124.41 E0.00727
G1 X110.749 Y124.297 E0.00724
G1 X110.616 Y124.124 E0.00726
G1 X110.55 Y123.85 E0.00937
G1 X110.55 Y111.15 E0.4224
G0 F6000 X110.95 Y111.15
G1 F1200 X110.989 Y111.031 E0.00417
G1 X111.15 Y110.95 E0.00599
G1 X123.85 Y110.95 E0.4224
G1 X123.969 Y110.989 E0.00417
G1 X124.05 Y111.15 E0.00599
G1 X124.05 Y123.85 E0.4224
G1 X124.011 Y123.969 E0.00417
G1 X123.85 Y124.05 E0.00599
G1 X111.15 Y124.05 E0.4224
G1 X111.031 Y124.011 E0.00417
G1 X110.95 Y123.85 E0.00599
G1 X110.95 Y111.15 E0.4224
G1 F2700 E-5
G0 F6000 X110.95 Y110.485
G0 X124.503 Y110.497
G0 X128.15 Y111.15
G1 F2700 E5
G1 F1200 X128.19 Y110.662 E0.01629
G1 X128.309 Y110.187 E0.01629
G1 X128.503 Y109.738 E0.01627
G1 X128.768 Y109.326 E0.01629
G1 X129.096 Y108.963 E0.01627
G1 X129.479 Y108.658 E0.01628
G1 X129.907 Y108.42 E0.01629
G1 X130.367 Y108.254 E0.01627
G1 X130.848 Y108.165 E0.01627
G1 X131.15 Y108.15 E0.01006
G1 X143.85 Y108.15 E0.4224
G1 X144.338 Y108.19 E0.01629
G1 X144.813 Y108.309 E0.01629
