;START_OF_HEADER
;HEADER_VERSION:0.1
;FLAVOR:Griffin
;GENERATOR.NAME:Cura_SteamEngine
;GENERATOR.VERSION:4.7.1
;GENERATOR.BUILD_DATE:2020-09-02
;TARGET_MACHINE.NAME:Ultimaker S5
;EXTRUDER_TRAIN.0.INITIAL_TEMPERATURE:200
;EXTRUDER_TRAIN.0.MATERIAL.VOLUME_USED:11124
;EXTRUDER_TRAIN.0.MATERIAL.GUID:506c9f0d-e3aa-4bd4-b2d2-23e2425b1aa9
;EXTRUDER_TRAIN.0.NOZZLE.DIAMETER:0.4
;EXTRUDER_TRAIN.0.NOZZLE.NAME:AA 0.4
;EXTRUDER_TRAIN.1.INITIAL_TEMPERATURE:100
;EXTRUDER_TRAIN.1.MATERIAL.VOLUME_USED:5623
;EXTRUDER_TRAIN.1.MATERIAL.GUID:1d52b2be-a3a2-41de-a8b1-3bcdb5618695
;EXTRUDER_TRAIN.1.NOZZLE.DIAMETER:0.4
;EXTRUDER_TRAIN.1.NOZZLE.NAME:AA 0.4
;BUILD_PLATE.TYPE:glass
;BUILD_PLATE.INITIAL_TEMPERATURE:60
;BUILD_VOLUME.TEMPERATURE:27
;PRINT.TIME:17477
;PRINT.GROUPS:1
;PRINT.SIZE.MIN.X:120.176
;PRINT.SIZE.MIN.Y:105.676
;PRINT.SIZE.MIN.Z:0.2
;PRINT.SIZE.MAX.X:330
;PRINT.SIZE.MAX.Y:237.548
;PRINT.SIZE.MAX.Z:90
;END_OF_HEADER
;Generated with Cura_SteamEngine 4.7.1
T0
M82 ;absolute extrusion mode

G92 E0
M109 S200
G280 S1
G0 Z20.001
G1 F1500 E-6.5
;LAYER_COUNT:899
;LAYER:0
M107
M204 S625
M205 X10 Y10
G1 F600 Z2.2
G0 F2571.4 X185.539 Y130.665 Z2.2
M204 S500
M205 X5 Y5
;TYPE:SKIRT
G1 F600 Z0.2
G1 F1500 E0
G1 F1200 X185.06 Y131.235 E0.0098
G1 X184.523 Y131.75 E0.0196
G1 X183.934 Y132.205 E0.0294
G1 X183.3 Y132.594 E0.0392
G1 X182.627 Y132.913 E0.049
G1 X181.924 Y133.158 E0.0588
G1 X181.199 Y133.326 E0.0686
G1 X180 Y133.43 E0.08445
G1 X150 Y133.43 E0.47947
G1 X149.257 Y133.39 E0.48927
G1 X148.522 Y133.271 E0.49907
G1 X147.804 Y133.073 E0.50888
G1 X147.112 Y132.8 E0.51868
G1 X146.453 Y132.454 E0.52848
G1 X145.835 Y132.039 E0.53828
G1 X145.265 Y131.56 E0.54808
G1 X144.75 Y131.023 E0.55788
G1 X144.295 Y130.434 E0.56768
G1 X143.906 Y129.8 E0.57747
G1 X143.587 Y129.127 E0.58728
G1 X143.342 Y128.424 E0.59708
G1 X143.174 Y127.699 E0.60688
G1 X143.07 Y126.5 E0.62273
G1 X143.07 Y113.5 E0.79391
G1 X143.11 Y112.757 E0.8037
G1 X143.229 Y112.022 E0.81351
G1 X143.427 Y111.304 E0.82331
G1 X143.7 Y110.612 E0.83311
G1 X144.046 Y109.953 E0.84291
G1 X144.461 Y109.335 E0.85271
G1 X144.94 Y108.765 E0.86252
G1 X145.477 Y108.25 E0.87231
G1 X146.066 Y107.795 E0.88211
G1 X146.7 Y107.406 E0.89191
G1 X147.373 Y107.087 E0.90171
G1 X148.076 Y106.842 E0.91152
G1 X148.801 Y106.674 E0.92132
G1 X150 Y106.57 E0.93716
G1 X180 Y106.57 E1.33219
G1 X180.743 Y106.61 E1.34198
G1 X181.478 Y106.729 E1.35179
G1 X182.196 Y106.927 E1.36159
G1 X182.888 Y107.2 E1.37139
G1 X183.547 Y107.546 E1.38119
G1 X184.165 Y107.961 E1.39099
G1 X184.735 Y108.44 E1.4008
G1 X185.25 Y108.977 E1.41059
G1 X185.705 Y109.566 E1.42039
G1 X186.094 Y110.2 E1.43019
G1 X186.413 Y110.873 E1.43999
G1 X186.658 Y111.576 E1.4498
G1 X186.826 Y112.301 E1.4596
G1 X186.93 Y113.5 E1.47544
G1 X186.93 Y126.5 E1.64662
G1 X186.89 Y127.243 E1.65642
G1 X186.771 Y127.978 E1.66622
G1 X186.573 Y128.696 E1.67603
G1 X186.3 Y129.388 E1.68582
G1 X185.954 Y130.047 E1.69562
G1 X185.539 Y130.665 E1.70543
M204 S625
M205 X10 Y10
G0 F2571.4 X185.122 Y130.518
M204 S500
M205 X5 Y5
G1 F1200 X184.646 Y131.06 E1.71492
G1 X184.113 Y131.546 E1.72442
G1 X183.529 Y131.97 E1.73392
G1 X182.902 Y132.327 E1.74342
G1 X182.24 Y132.613 E1.75292
G1 X181.55 Y132.823 E1.76242
G1 X180.841 Y132.955 E1.77191
G1 X180 Y133.01 E1.78301
G1 X150 Y133.01 E2.17803
G1 X149.28 Y132.97 E2.18753
G1 X148.568 Y132.851 E2.19703
G1 X147.874 Y132.653 E2.20654
G1 X147.207 Y132.38 E2.21602
G1 X146.573 Y132.035 E2.22553
G1 X145.982 Y131.622 E2.23502
G1 X145.44 Y131.146 E2.24452
G1 X144.954 Y130.613 E2.25402
G1 X144.53 Y130.029 E2.26352
G1 X144.173 Y129.402 E2.27302
G1 X143.887 Y128.74 E2.28252
G1 X143.677 Y128.05 E2.29201
G1 X143.545 Y127.341 E2.30151
G1 X143.49 Y126.5 E2.31261
G1 X143.49 Y113.5 E2.48378
G1 X143.53 Y112.78 E2.49328
G1 X143.649 Y112.068 E2.50278
G1 X143.847 Y111.374 E2.51229
G1 X144.12 Y110.707 E2.52178
G1 X144.465 Y110.073 E2.53128
G1 X144.878 Y109.482 E2.54077
G1 X145.354 Y108.94 E2.55027
G1 X145.887 Y108.454 E2.55977
G1 X146.471 Y108.03 E2.56927
G1 X147.098 Y107.673 E2.57877
G1 X147.76 Y107.387 E2.58827
G1 X148.45 Y107.177 E2.59777
G1 X149.159 Y107.045 E2.60726
G1 X150 Y106.99 E2.61836
G1 X180 Y106.99 E3.01338
G1 X180.72 Y107.03 E3.02288
G1 X181.432 Y107.149 E3.03238
G1 X182.126 Y107.347 E3.04188
G1 X182.793 Y107.62 E3.05137
G1 X183.427 Y107.965 E3.06088
G1 X184.018 Y108.378 E3.07037
G1 X184.56 Y108.854 E3.07987
G1 X185.046 Y109.387 E3.08937
G1 X185.47 Y109.971 E3.09887
G1 X185.827 Y110.598 E3.10837
G1 X186.113 Y111.26 E3.11787
G1 X186.323 Y111.95 E3.12736
G1 X186.455 Y112.659 E3.13686
G1 X186.51 Y113.5 E3.14796
G1 X186.51 Y126.5 E3.31913
G1 X186.47 Y127.22 E3.32863
G1 X186.351 Y127.932 E3.33813
G1 X186.153 Y128.626 E3.34764
G1 X185.88 Y129.293 E3.35713
G1 X185.535 Y129.927 E3.36663
G1 X185.122 Y130.518 E3.37612
M204 S625
M205 X10 Y10
G0 F2571.4 X184.705 Y130.366
M204 S500
M205 X5 Y5
G1 F1200 X184.232 Y130.879 E3.38531
G1 X183.704 Y131.334 E3.39449
G1 X183.127 Y131.726 E3.40368
G1 X182.508 Y132.049 E3.41287
G1 X181.857 Y132.3 E3.42206
G1 X181.181 Y132.474 E3.43125
G1 X180.49 Y132.57 E3.44043
G1 X180 Y132.59 E3.44689
G1 X150 Y132.59 E3.84191
G1 X149.303 Y132.55 E3.8511
G1 X148.616 Y132.431 E3.86029
G1 X147.947 Y132.233 E3.86947
G1 X147.304 Y131.961 E3.87867
G1 X146.698 Y131.617 E3.88784
G1 X146.134 Y131.205 E3.89704
G1 X145.621 Y130.732 E3.90623
G1 X145.166 Y130.204 E3.9154
G1 X144.774 Y129.627 E3.92459
G1 X144.451 Y129.008 E3.93378
G1 X144.2 Y128.357 E3.94297
G1 X144.026 Y127.681 E3.95216
G1 X143.93 Y126.99 E3.96135
G1 X143.91 Y126.5 E3.9678
G1 X143.91 Y113.5 E4.13898
G1 X143.95 Y112.803 E4.14817
G1 X144.069 Y112.116 E4.15735
G1 X144.267 Y111.447 E4.16654
G1 X144.539 Y110.804 E4.17573
G1 X144.883 Y110.198 E4.18491
G1 X145.295 Y109.634 E4.19411
G1 X145.768 Y109.121 E4.20329
G1 X146.296 Y108.666 E4.21247
G1 X146.873 Y108.274 E4.22166
G1 X147.492 Y107.951 E4.23085
G1 X148.143 Y107.7 E4.24004
G1 X148.819 Y107.526 E4.24923
G1 X149.51 Y107.43 E4.25841
G1 X150 Y107.41 E4.26487
G1 X180 Y107.41 E4.65989
G1 X180.697 Y107.45 E4.66909
G1 X181.384 Y107.569 E4.67827
G1 X182.053 Y107.767 E4.68745
G1 X182.696 Y108.039 E4.69665
G1 X183.302 Y108.383 E4.70582
G1 X183.866 Y108.795 E4.71502
G1 X184.379 Y109.268 E4.72421
G1 X184.834 Y109.796 E4.73338
G1 X185.226 Y110.373 E4.74257
G1 X185.549 Y110.992 E4.75176
G1 X185.8 Y111.643 E4.76095
G1 X185.974 Y112.319 E4.77014
G1 X186.07 Y113.01 E4.77933
G1 X186.09 Y113.5 E4.78578
G1 X186.09 Y126.5 E4.95696
G1 X186.05 Y127.197 E4.96615
G1 X185.931 Y127.884 E4.97533
G1 X185.733 Y128.553 E4.98452
G1 X185.461 Y129.196 E4.99371
G1 X185.117 Y129.802 E5.00289
G1 X184.705 Y130.366 E5.01209
M204 S625
M205 X10 Y10
G0 F2571.4 X184.699 Y129.673
M204 S500
M205 X5 Y5
G1 F1200 X184.29 Y130.208 E5.02095
G1 X183.82 Y130.69 E5.02982
G1 X183.296 Y131.113 E5.03868
G1 X182.726 Y131.472 E5.04755
G1 X182.118 Y131.76 E5.05641
G1 X181.48 Y131.974 E5.06527
G1 X180.82 Y132.11 E5.07415
G1 X180 Y132.17 E5.08497
G1 X150 Y132.17 E5.48
G1 X149.328 Y132.13 E5.48886
G1 X148.665 Y132.011 E5.49773
G1 X148.022 Y131.814 E5.50658
G1 X147.406 Y131.542 E5.51545
G1 X146.827 Y131.199 E5.52431
G1 X146.292 Y130.79 E5.53318
G1 X145.81 Y130.32 E5.54204
G1 X145.387 Y129.796 E5.55091
G1 X145.028 Y129.226 E5.55978
G1 X144.74 Y128.618 E5.56864
G1 X144.526 Y127.98 E5.5775
G1 X144.39 Y127.32 E5.58637
G1 X144.33 Y126.5 E5.5972
G1 X144.33 Y113.5 E5.76838
G1 X144.37 Y112.828 E5.77724
G1 X144.489 Y112.165 E5.78611
G1 X144.686 Y111.522 E5.79496
G1 X144.958 Y110.906 E5.80383
G1 X145.301 Y110.327 E5.81269
G1 X145.71 Y109.792 E5.82156
G1 X146.18 Y109.31 E5.83042
G1 X146.704 Y108.887 E5.83929
G1 X147.274 Y108.528 E5.84816
G1 X147.882 Y108.24 E5.85702
G1 X148.52 Y108.026 E5.86588
G1 X149.18 Y107.89 E5.87475
G1 X150 Y107.83 E5.88558
G1 X180 Y107.83 E6.2806
G1 X180.672 Y107.87 E6.28947
G1 X181.335 Y107.989 E6.29833
G1 X181.978 Y108.186 E6.30719
G1 X182.594 Y108.458 E6.31606
G1 X183.173 Y108.801 E6.32492
G1 X183.708 Y109.21 E6.33379
G1 X184.19 Y109.68 E6.34265
G1 X184.613 Y110.204 E6.35152
G1 X184.972 Y110.774 E6.36039
G1 X185.26 Y111.382 E6.36925
G1 X185.474 Y112.02 E6.37811
G1 X185.61 Y112.68 E6.38698
G1 X185.67 Y113.5 E6.39781
G1 X185.67 Y126.5 E6.56898
G1 X185.63 Y127.172 E6.57785
G1 X185.511 Y127.835 E6.58672
G1 X185.314 Y128.478 E6.59557
G1 X185.042 Y129.094 E6.60444
G1 X184.699 Y129.673 E6.6133
M204 S625
M205 X10 Y10
G0 F2571.4 X184.281 Y129.539
M204 S500
M205 X5 Y5
G1 F1200 X183.874 Y130.043 E6.62183
G1 X183.408 Y130.493 E6.63036
G1 X182.891 Y130.882 E6.63888
G1 X182.329 Y131.205 E6.64741
G1 X181.732 Y131.456 E6.65594
G1 X181.108 Y131.632 E6.66448
G1 X180.468 Y131.729 E6.673
G1 X180 Y131.75 E6.67917
G1 X150 Y131.75 E7.07419
G1 X149.353 Y131.71 E7.08273
G1 X148.717 Y131.591 E7.09125
G1 X148.1 Y131.394 E7.09977
G1 X147.511 Y131.123 E7.10831
G1 X146.961 Y130.781 E7.11684
G1 X146.457 Y130.374 E7.12537
G1 X146.007 Y129.908 E7.1339
G1 X145.618 Y129.391 E7.14242
G1 X145.295 Y128.829 E7.15095
G1 X145.044 Y128.232 E7.15948
G1 X144.868 Y127.608 E7.16802
G1 X144.771 Y126.968 E7.17654
G1 X144.75 Y126.5 E7.18271
G1 X144.75 Y113.5 E7.35389
G1 X144.79 Y112.853 E7.36242
G1 X144.909 Y112.217 E7.37094
G1 X145.106 Y111.6 E7.37947
G1 X145.377 Y111.011 E7.38801
G1 X145.719 Y110.461 E7.39654
G1 X146.126 Y109.957 E7.40507
G1 X146.592 Y109.507 E7.4136
G1 X147.109 Y109.118 E7.42211
G1 X147.671 Y108.795 E7.43065
G1 X148.268 Y108.544 E7.43918
G1 X148.892 Y108.368 E7.44771
G1 X149.532 Y108.271 E7.45624
G1 X150 Y108.25 E7.46241
G1 X180 Y108.25 E7.85743
G1 X180.647 Y108.29 E7.86596
G1 X181.283 Y108.409 E7.87448
G1 X181.9 Y108.606 E7.88301
G1 X182.489 Y108.877 E7.89155
G1 X183.039 Y109.219 E7.90008
G1 X183.543 Y109.626 E7.90861
G1 X183.993 Y110.092 E7.91714
G1 X184.382 Y110.609 E7.92566
G1 X184.705 Y111.171 E7.93419
G1 X184.956 Y111.768 E7.94272
G1 X185.132 Y112.392 E7.95126
G1 X185.229 Y113.032 E7.95978
G1 X185.25 Y113.5 E7.96595
G1 X185.25 Y126.5 E8.13712
G1 X185.21 Y127.147 E8.14566
G1 X185.091 Y127.783 E8.15418
G1 X184.894 Y128.4 E8.16271
G1 X184.623 Y128.989 E8.17124
G1 X184.281 Y129.539 E8.17977
M204 S625
M205 X10 Y10
G0 F2571.4 X183.864 Y129.398
M204 S500
M205 X5 Y5
G1 F1200 X183.46 Y129.87 E8.18795
G1 X182.998 Y130.287 E8.19615
G1 X182.488 Y130.64 E8.20432
G1 X181.936 Y130.925 E8.2125
G1 X181.351 Y131.137 E8.22069
G1 X180.745 Y131.272 E8.22886
G1 X180 Y131.33 E8.2387
G1 X150 Y131.33 E8.63372
G1 X149.38 Y131.29 E8.64191
G1 X148.77 Y131.171 E8.65009
G1 X148.181 Y130.974 E8.65827
G1 X147.622 Y130.704 E8.66644
G1 X147.102 Y130.364 E8.67462
G1 X146.63 Y129.96 E8.6828
G1 X146.213 Y129.498 E8.691
G1 X145.86 Y128.988 E8.69916
G1 X145.575 Y128.436 E8.70734
G1 X145.363 Y127.851 E8.71554
G1 X145.228 Y127.245 E8.72371
G1 X145.17 Y126.5 E8.73355
G1 X145.17 Y113.5 E8.90473
G1 X145.21 Y112.88 E8.91291
G1 X145.329 Y112.27 E8.92109
G1 X145.526 Y111.681 E8.92927
G1 X145.796 Y111.122 E8.93744
G1 X146.136 Y110.602 E8.94562
G1 X146.54 Y110.13 E8.95381
G1 X147.002 Y109.713 E8.962
G1 X147.512 Y109.36 E8.97017
G1 X148.064 Y109.075 E8.97835
G1 X148.649 Y108.863 E8.98654
G1 X149.255 Y108.728 E8.99472
G1 X150 Y108.67 E9.00456
G1 X180 Y108.67 E9.39958
G1 X180.62 Y108.71 E9.40776
G1 X181.23 Y108.829 E9.41594
G1 X181.819 Y109.026 E9.42412
G1 X182.378 Y109.296 E9.43229
G1 X182.898 Y109.636 E9.44047
G1 X183.37 Y110.04 E9.44865
G1 X183.787 Y110.502 E9.45685
G1 X184.14 Y111.012 E9.46502
G1 X184.425 Y111.564 E9.4732
G1 X184.637 Y112.149 E9.48139
G1 X184.772 Y112.755 E9.48956
G1 X184.83 Y113.5 E9.4994
G1 X184.83 Y126.5 E9.67058
G1 X184.79 Y127.12 E9.67876
G1 X184.671 Y127.73 E9.68694
G1 X184.474 Y128.319 E9.69512
G1 X184.204 Y128.878 E9.7033
G1 X183.864 Y129.398 E9.71148
M204 S625
M205 X10 Y10
G0 F2571.4 X183.447 Y129.251
M204 S500
M205 X5 Y5
G1 F1200 X183.046 Y129.689 E9.7193
G1 X182.59 Y130.069 E9.72711
G1 X182.087 Y130.385 E9.73493
G1 X181.547 Y130.63 E9.74274
G1 X180.978 Y130.8 E9.75056
G1 X180.392 Y130.893 E9.75837
G1 X180 Y130.91 E9.76354
G1 X150 Y130.91 E10.15856
G1 X149.408 Y130.87 E10.16638
G1 X148.826 Y130.751 E10.1742
G1 X148.266 Y130.555 E10.18201
G1 X147.737 Y130.285 E10.18983
G1 X147.249 Y129.947 E10.19765
G1 X146.811 Y129.546 E10.20547
G1 X146.431 Y129.09 E10.21328
G1 X146.115 Y128.587 E10.2211
G1 X145.87 Y128.047 E10.22891
G1 X145.7 Y127.478 E10.23673
G1 X145.607 Y126.892 E10.24454
G1 X145.59 Y126.5 E10.24971
G1 X145.59 Y113.5 E10.42089
G1 X145.63 Y112.908 E10.4287
G1 X145.749 Y112.326 E10.43652
G1 X145.945 Y111.766 E10.44433
G1 X146.215 Y111.237 E10.45215
G1 X146.553 Y110.749 E10.45997
G1 X146.954 Y110.311 E10.46779
G1 X147.41 Y109.931 E10.47561
G1 X147.913 Y109.615 E10.48343
G1 X148.453 Y109.37 E10.49124
G1 X149.022 Y109.2 E10.49905
G1 X149.608 Y109.107 E10.50687
G1 X150 Y109.09 E10.51203
G1 X180 Y109.09 E10.90706
G1 X180.592 Y109.13 E10.91487
G1 X181.174 Y109.249 E10.92269
G1 X181.734 Y109.445 E10.9305
G1 X182.263 Y109.715 E10.93832
G1 X182.751 Y110.053 E10.94614
G1 X183.189 Y110.454 E10.95396
G1 X183.569 Y110.91 E10.96177
G1 X183.885 Y111.413 E10.9696
G1 X184.13 Y111.953 E10.9774
G1 X184.3 Y112.522 E10.98522
G1 X184.393 Y113.108 E10.99304
G1 X184.41 Y113.5 E10.9982
G1 X184.41 Y126.5 E11.16938
G1 X184.37 Y127.092 E11.17719
G1 X184.251 Y127.674 E11.18501
G1 X184.055 Y128.234 E11.19283
G1 X183.785 Y128.763 E11.20065
G1 X183.447 Y129.251 E11.20846
M204 S625
M205 X10 Y10
G0 F2571.4 X183.031 Y129.095
M204 S500
M205 X5 Y5
G1 F1200 X182.634 Y129.497 E11.2159
G1 X182.185 Y129.839 E11.22333
G1 X181.691 Y130.114 E11.23078
G1 X181.164 Y130.316 E11.23821
G1 X180.614 Y130.442 E11.24564
G1 X180 Y130.49 E11.25375
G1 X150 Y130.49 E11.64877
G1 X149.437 Y130.45 E11.6562
G1 X148.885 Y130.331 E11.66364
G1 X148.355 Y130.135 E11.67108
G1 X147.859 Y129.867 E11.6785
G1 X147.405 Y129.531 E11.68594
G1 X147.003 Y129.134 E11.69338
G1 X146.661 Y128.685 E11.70081
G1 X146.386 Y128.191 E11.70826
G1 X146.184 Y127.664 E11.71569
G1 X146.058 Y127.114 E11.72312
G1 X146.01 Y126.5 E11.73123
G1 X146.01 Y113.5 E11.9024
G1 X146.05 Y112.937 E11.90983
G1 X146.169 Y112.385 E11.91727
G1 X146.365 Y111.855 E11.92471
G1 X146.633 Y111.359 E11.93213
G1 X146.969 Y110.905 E11.93957
G1 X147.366 Y110.503 E11.94701
G1 X147.815 Y110.161 E11.95444
G1 X148.309 Y109.886 E11.96189
G1 X148.836 Y109.684 E11.96932
G1 X149.386 Y109.558 E11.97675
G1 X150 Y109.51 E11.98486
G1 X180 Y109.51 E12.37988
G1 X180.563 Y109.55 E12.38731
G1 X181.115 Y109.669 E12.39475
G1 X181.645 Y109.865 E12.40219
G1 X182.141 Y110.133 E12.40961
G1 X182.595 Y110.469 E12.41705
G1 X182.997 Y110.866 E12.42449
G1 X183.339 Y111.315 E12.43192
G1 X183.614 Y111.809 E12.43936
G1 X183.816 Y112.336 E12.4468
G1 X183.942 Y112.886 E12.45422
G1 X183.99 Y113.5 E12.46233
G1 X183.99 Y126.5 E12.63351
G1 X183.95 Y127.063 E12.64094
G1 X183.831 Y127.615 E12.64838
G1 X183.635 Y128.145 E12.65582
G1 X183.367 Y128.641 E12.66324
G1 X183.031 Y129.095 E12.67068
M204 S625
M205 X10 Y10
G0 F2571.4 X182.949 Y128.513
M204 S500
M205 X5 Y5
G1 F1200 X182.615 Y128.93 E12.67771
G1 X182.224 Y129.293 E12.68474
G1 X181.782 Y129.593 E12.69177
G1 X181.301 Y129.825 E12.6988
G1 X180.79 Y129.981 E12.70584
G1 X180 Y130.07 E12.71631
G1 X150 Y130.07 E13.11133
G1 X149.467 Y130.03 E13.11837
G1 X148.947 Y129.911 E13.12539
G1 X148.45 Y129.716 E13.13242
G1 X147.987 Y129.449 E13.13946
G1 X147.57 Y129.115 E13.14649
G1 X147.207 Y128.724 E13.15352
G1 X146.907 Y128.282 E13.16055
G1 X146.675 Y127.801 E13.16758
G1 X146.519 Y127.29 E13.17462
G1 X146.43 Y126.5 E13.18509
G1 X146.43 Y113.5 E13.35626
G1 X146.47 Y112.967 E13.3633
G1 X146.589 Y112.447 E13.37033
G1 X146.784 Y111.95 E13.37736
G1 X147.051 Y111.487 E13.38439
G1 X147.385 Y111.07 E13.39143
G1 X147.776 Y110.707 E13.39845
G1 X148.218 Y110.407 E13.40549
G1 X148.699 Y110.175 E13.41252
G1 X149.21 Y110.019 E13.41955
G1 X150 Y109.93 E13.43002
G1 X180 Y109.93 E13.82504
G1 X180.533 Y109.97 E13.83208
G1 X181.053 Y110.089 E13.83911
G1 X181.55 Y110.284 E13.84614
G1 X182.013 Y110.551 E13.85317
G1 X182.43 Y110.885 E13.86021
G1 X182.793 Y111.276 E13.86723
G1 X183.093 Y111.718 E13.87427
G1 X183.325 Y112.199 E13.8813
G1 X183.481 Y112.71 E13.88833
G1 X183.57 Y113.5 E13.8988
G1 X183.57 Y126.5 E14.06998
G1 X183.53 Y127.033 E14.07702
