;START_OF_HEADER
;HEADER_VERSION:0.1
;FLAVOR:Griffin
;GENERATOR.NAME:Cura_SteamEngine
;GENERATOR.VERSION:4.7.1
;GENERATOR.BUILD_DATE:2020-09-02
;TARGET_MACHINE.NAME:Ultimaker S5
;EXTRUDER_TRAIN.0.INITIAL_TEMPERATURE:200
;EXTRUDER_TRAIN.0.MATERIAL.VOLUME_USED:4458
;EXTRUDER_TRAIN.0.MATERIAL.GUID:506c9f0d-e3aa-4bd4-b2d2-23e2425b1aa9
;EXTRUDER_TRAIN.0.NOZZLE.DIAMETER:0.4
;EXTRUDER_TRAIN.0.NOZZLE.NAME:AA 0.4
;EXTRUDER_TRAIN.1.INITIAL_TEMPERATURE:100
;EXTRUDER_TRAIN.1.MATERIAL.VOLUME_USED:2827
;EXTRUDER_TRAIN.1.MATERIAL.GUID:1d52b2be-a3a2-41de-a8b1-3bcdb5618695
;EXTRUDER_TRAIN.1.NOZZLE.DIAMETER:0.4
;EXTRUDER_TRAIN.1.NOZZLE.NAME:AA 0.4
;BUILD_PLATE.TYPE:glass
;BUILD_PLATE.INITIAL_TEMPERATURE:60
;BUILD_VOLUME.TEMPERATURE:27
;PRINT.TIME:7879
;PRINT.GROUPS:1
;PRINT.SIZE.MIN.X:125.632
;PRINT.SIZE.MIN.Y:102.687
;PRINT.SIZE.MIN.Z:0.2
;PRINT.SIZE.MAX.X:330
;PRINT.SIZE.MAX.Y:237.092
;PRINT.SIZE.MAX.Z:22
;END_OF_HEADER
;Generated with Cura_SteamEngine 4.7.1
T0
M82 ;absolute extrusion mode

G92 E0
M109 S200
G280 S1
G0 Z20.001
G1 F1500 E-6.5
;LAYER_COUNT:199
;LAYER:0
M107
M204 S625
M205 X10 Y10
G1 F600 Z2.2
G0 F2571.4 X180.456 Y152.907 Z2.2
M204 S500
M205 X5 Y5
;TYPE:SKIRT
G1 F600 Z0.2
G1 F1500 E0
G1 F1200 X180.138 Y153.529 E0.0092
G1 X179.095 Y155.338 E0.03669
G1 X178.689 Y155.962 E0.0465
G1 X178.24 Y156.515 E0.05588
G1 X176.841 Y158.068 E0.0834
G1 X176.314 Y158.594 E0.0932
G1 X175.765 Y159.037 E0.10249
G1 X174.072 Y160.267 E0.13005
G1 X173.447 Y160.671 E0.13985
G1 X172.82 Y160.99 E0.14911
G1 X170.913 Y161.84 E0.1766
G1 X170.218 Y162.106 E0.1864
G1 X169.531 Y162.289 E0.19576
G1 X167.482 Y162.724 E0.22334
G1 X166.747 Y162.839 E0.23314
G1 X166.043 Y162.875 E0.24242
G1 X163.957 Y162.875 E0.26989
G1 X163.214 Y162.835 E0.27968
G1 X162.518 Y162.724 E0.28896
G1 X160.469 Y162.289 E0.31655
G1 X159.75 Y162.095 E0.32635
G1 X159.087 Y161.84 E0.3357
G1 X157.18 Y160.99 E0.3632
G1 X156.517 Y160.651 E0.373
G1 X155.928 Y160.267 E0.38226
G1 X154.235 Y159.037 E0.40981
G1 X153.657 Y158.567 E0.41962
G1 X153.159 Y158.068 E0.42891
G1 X151.76 Y156.515 E0.45643
G1 X151.292 Y155.936 E0.46623
G1 X150.905 Y155.338 E0.47561
G1 X149.862 Y153.529 E0.50311
G1 X149.526 Y152.866 E0.51289
G1 X149.276 Y152.213 E0.5221
G1 X148.629 Y150.225 E0.54963
G1 X148.437 Y149.506 E0.55943
G1 X148.327 Y148.806 E0.56876
G1 X148.108 Y146.728 E0.59627
G1 X148.07 Y145.985 E0.60607
G1 X148.108 Y145.277 E0.6154
G1 X148.327 Y143.194 E0.64298
G1 X148.444 Y142.459 E0.65278
G1 X148.629 Y141.774 E0.66213
G1 X149.276 Y139.786 E0.68965
G1 X149.544 Y139.092 E0.69945
G1 X149.863 Y138.468 E0.70868
G1 X150.906 Y136.66 E0.73616
G1 X151.312 Y136.036 E0.74596
G1 X151.76 Y135.485 E0.75531
G1 X153.159 Y133.932 E0.78284
G1 X153.686 Y133.406 E0.79264
G1 X154.189 Y133 E0.80115
G1 X153.657 Y132.567 E0.81018
G1 X153.159 Y132.068 E0.81947
G1 X151.76 Y130.515 E0.84699
G1 X151.292 Y129.936 E0.85679
G1 X150.905 Y129.338 E0.86617
G1 X149.862 Y127.529 E0.89367
G1 X149.526 Y126.866 E0.90346
G1 X149.276 Y126.213 E0.91266
G1 X148.629 Y124.225 E0.94019
G1 X148.437 Y123.506 E0.94999
G1 X148.327 Y122.806 E0.95932
G1 X148.108 Y120.728 E0.98683
G1 X148.07 Y119.985 E0.99663
G1 X148.108 Y119.277 E1.00596
G1 X148.327 Y117.194 E1.03354
G1 X148.444 Y116.459 E1.04334
G1 X148.629 Y115.774 E1.05269
G1 X149.276 Y113.786 E1.08021
G1 X149.544 Y113.092 E1.09001
G1 X149.863 Y112.468 E1.09924
G1 X150.906 Y110.66 E1.12672
G1 X151.312 Y110.036 E1.13652
G1 X151.76 Y109.485 E1.14588
G1 X153.159 Y107.932 E1.1734
G1 X153.686 Y107.406 E1.1832
G1 X154.234 Y106.964 E1.19247
G1 X155.928 Y105.733 E1.22005
G1 X156.553 Y105.328 E1.22985
G1 X157.182 Y105.009 E1.23914
G1 X159.088 Y104.16 E1.26661
G1 X159.783 Y103.894 E1.27641
G1 X160.469 Y103.711 E1.28576
G1 X162.518 Y103.276 E1.31334
G1 X163.253 Y103.161 E1.32314
G1 X163.957 Y103.125 E1.33242
G1 X166.043 Y103.125 E1.35989
G1 X166.786 Y103.165 E1.36968
G1 X167.482 Y103.276 E1.37896
G1 X169.531 Y103.711 E1.40655
G1 X170.25 Y103.905 E1.41635
G1 X170.912 Y104.16 E1.42569
G1 X172.818 Y105.009 E1.45317
G1 X173.48 Y105.348 E1.46296
G1 X174.072 Y105.733 E1.47226
G1 X175.766 Y106.964 E1.49983
G1 X176.344 Y107.433 E1.50963
G1 X176.841 Y107.932 E1.51891
G1 X178.24 Y109.485 E1.54643
G1 X178.708 Y110.064 E1.55623
G1 X179.094 Y110.66 E1.56558
G1 X180.137 Y112.468 E1.59307
G1 X180.474 Y113.132 E1.60287
G1 X180.724 Y113.786 E1.61209
G1 X181.371 Y115.774 E1.63962
G1 X181.563 Y116.493 E1.64942
G1 X181.673 Y117.193 E1.65875
G1 X181.892 Y119.272 E1.68627
G1 X181.93 Y120.015 E1.69607
G1 X181.892 Y120.723 E1.70541
G1 X181.673 Y122.805 E1.73297
G1 X181.555 Y123.54 E1.74277
G1 X181.371 Y124.225 E1.75211
G1 X180.724 Y126.213 E1.77964
G1 X180.456 Y126.907 E1.78944
G1 X180.138 Y127.529 E1.79864
G1 X179.095 Y129.338 E1.82613
G1 X178.689 Y129.962 E1.83593
G1 X178.24 Y130.515 E1.84531
G1 X176.841 Y132.068 E1.87284
G1 X176.314 Y132.594 E1.88264
G1 X175.811 Y133 E1.89115
G1 X176.344 Y133.433 E1.90019
G1 X176.841 Y133.932 E1.90947
G1 X178.24 Y135.485 E1.93699
G1 X178.708 Y136.064 E1.94679
G1 X179.094 Y136.66 E1.95614
G1 X180.137 Y138.468 E1.98363
G1 X180.474 Y139.132 E1.99343
G1 X180.724 Y139.786 E2.00265
G1 X181.371 Y141.774 E2.03018
G1 X181.563 Y142.493 E2.03998
G1 X181.673 Y143.193 E2.04931
G1 X181.892 Y145.272 E2.07683
G1 X181.93 Y146.015 E2.08663
G1 X181.892 Y146.723 E2.09597
G1 X181.673 Y148.805 E2.12353
G1 X181.555 Y149.54 E2.13333
G1 X181.371 Y150.225 E2.14267
G1 X180.724 Y152.213 E2.1702
G1 X180.456 Y152.907 E2.18
M204 S625
M205 X10 Y10
G0 F2571.4 X180.063 Y152.755
M204 S500
M205 X5 Y5
G1 F1200 X179.774 Y153.32 E2.18835
G1 X178.731 Y155.129 E2.21585
G1 X178.336 Y155.733 E2.22535
G1 X177.928 Y156.234 E2.23386
G1 X176.529 Y157.787 E2.26138
G1 X176.017 Y158.296 E2.27089
G1 X175.518 Y158.697 E2.27932
G1 X173.825 Y159.927 E2.30687
G1 X173.219 Y160.318 E2.31637
G1 X172.649 Y160.606 E2.32478
G1 X170.742 Y161.456 E2.35227
G1 X170.068 Y161.713 E2.36177
G1 X169.444 Y161.878 E2.37027
G1 X167.395 Y162.313 E2.39785
G1 X166.682 Y162.424 E2.40735
G1 X166.043 Y162.455 E2.41577
G1 X163.957 Y162.455 E2.44324
G1 X163.237 Y162.415 E2.45274
G1 X162.605 Y162.313 E2.46117
G1 X160.556 Y161.878 E2.48875
G1 X159.86 Y161.689 E2.49824
G1 X159.258 Y161.456 E2.50674
G1 X157.351 Y160.606 E2.53423
G1 X156.709 Y160.276 E2.54374
G1 X156.175 Y159.927 E2.55214
G1 X154.482 Y158.697 E2.57969
G1 X153.922 Y158.241 E2.5892
G1 X153.471 Y157.787 E2.59763
G1 X152.072 Y156.234 E2.62515
G1 X151.62 Y155.672 E2.63465
G1 X151.269 Y155.129 E2.64316
G1 X150.226 Y153.32 E2.67066
G1 X149.901 Y152.676 E2.68016
G1 X149.676 Y152.083 E2.68851
G1 X149.029 Y150.095 E2.71604
G1 X148.844 Y149.397 E2.72554
G1 X148.745 Y148.762 E2.73401
G1 X148.526 Y146.684 E2.76152
G1 X148.49 Y145.964 E2.77101
G1 X148.526 Y145.321 E2.77949
G1 X148.745 Y143.238 E2.80707
G1 X148.86 Y142.526 E2.81657
G1 X149.029 Y141.904 E2.82505
G1 X149.676 Y139.916 E2.85258
G1 X149.937 Y139.244 E2.86207
G1 X150.227 Y138.678 E2.87045
G1 X151.27 Y136.87 E2.89793
G1 X151.665 Y136.266 E2.90744
G1 X152.072 Y135.766 E2.91592
G1 X153.471 Y134.213 E2.94345
G1 X153.983 Y133.704 E2.95295
G1 X154.899 Y133 E2.96817
G1 X153.922 Y132.241 E2.98446
G1 X153.471 Y131.787 E2.99288
G1 X152.072 Y130.234 E3.02041
G1 X151.62 Y129.672 E3.0299
G1 X151.269 Y129.129 E3.03842
G1 X150.226 Y127.32 E3.06591
G1 X149.901 Y126.676 E3.07541
G1 X149.676 Y126.083 E3.08376
G1 X149.029 Y124.095 E3.11129
G1 X148.844 Y123.397 E3.1208
G1 X148.745 Y122.762 E3.12926
G1 X148.526 Y120.684 E3.15677
G1 X148.49 Y119.964 E3.16626
G1 X148.526 Y119.321 E3.17474
G1 X148.745 Y117.238 E3.20232
G1 X148.86 Y116.526 E3.21182
G1 X149.029 Y115.904 E3.22031
G1 X149.676 Y113.916 E3.24784
G1 X149.937 Y113.244 E3.25733
G1 X150.227 Y112.678 E3.2657
G1 X151.27 Y110.87 E3.29319
G1 X151.665 Y110.266 E3.30269
G1 X152.072 Y109.766 E3.31118
G1 X153.471 Y108.213 E3.3387
G1 X153.983 Y107.704 E3.34821
G1 X154.481 Y107.304 E3.35662
G1 X156.175 Y106.073 E3.38419
G1 X156.781 Y105.682 E3.39369
G1 X157.353 Y105.392 E3.40213
G1 X159.259 Y104.543 E3.42961
G1 X159.933 Y104.287 E3.4391
G1 X160.556 Y104.122 E3.44759
G1 X162.605 Y103.687 E3.47517
G1 X163.318 Y103.576 E3.48467
G1 X163.957 Y103.545 E3.49309
G1 X166.043 Y103.545 E3.52056
G1 X166.763 Y103.585 E3.53005
G1 X167.395 Y103.687 E3.53848
G1 X169.444 Y104.122 E3.56606
G1 X170.14 Y104.311 E3.57556
G1 X170.741 Y104.543 E3.58404
G1 X172.647 Y105.392 E3.61152
G1 X173.289 Y105.722 E3.62102
G1 X173.825 Y106.073 E3.62946
G1 X175.519 Y107.304 E3.65703
G1 X176.078 Y107.759 E3.66652
G1 X176.529 Y108.213 E3.67495
G1 X177.928 Y109.766 E3.70247
G1 X178.38 Y110.328 E3.71197
G1 X178.73 Y110.87 E3.72046
G1 X179.773 Y112.678 E3.74795
G1 X180.098 Y113.322 E3.75745
G1 X180.324 Y113.916 E3.76581
G1 X180.971 Y115.904 E3.79334
G1 X181.156 Y116.602 E3.80285
G1 X181.255 Y117.237 E3.81131
G1 X181.474 Y119.316 E3.83884
G1 X181.51 Y120.037 E3.84835
G1 X181.474 Y120.679 E3.85681
G1 X181.255 Y122.761 E3.88438
G1 X181.14 Y123.473 E3.89387
G1 X180.971 Y124.095 E3.90236
G1 X180.324 Y126.083 E3.92989
G1 X180.063 Y126.755 E3.93938
G1 X179.774 Y127.32 E3.94774
G1 X178.731 Y129.129 E3.97523
G1 X178.336 Y129.733 E3.98474
G1 X177.928 Y130.234 E3.99324
G1 X176.529 Y131.787 E4.02077
G1 X176.017 Y132.296 E4.03027
G1 X175.101 Y133 E4.04549
G1 X176.078 Y133.759 E4.06178
G1 X176.529 Y134.213 E4.0702
G1 X177.928 Y135.766 E4.09772
G1 X178.38 Y136.328 E4.10722
G1 X178.73 Y136.87 E4.11572
G1 X179.773 Y138.678 E4.1432
G1 X180.098 Y139.322 E4.1527
G1 X180.324 Y139.916 E4.16107
G1 X180.971 Y141.904 E4.1886
G1 X181.156 Y142.602 E4.1981
G1 X181.255 Y143.237 E4.20657
G1 X181.474 Y145.316 E4.23409
G1 X181.51 Y146.037 E4.2436
G1 X181.474 Y146.679 E4.25206
G1 X181.255 Y148.761 E4.27963
G1 X181.14 Y149.473 E4.28913
G1 X180.971 Y150.095 E4.29761
G1 X180.324 Y152.083 E4.32514
G1 X180.063 Y152.755 E4.33464
M204 S625
M205 X10 Y10
G0 F2571.4 X179.671 Y152.603
M204 S500
M205 X5 Y5
G1 F1200 X179.41 Y153.11 E4.34214
G1 X178.367 Y154.919 E4.36964
G1 X177.984 Y155.502 E4.37882
G1 X177.616 Y155.953 E4.38649
G1 X176.217 Y157.506 E4.41401
G1 X175.721 Y157.997 E4.4232
G1 X175.272 Y158.357 E4.43078
G1 X173.579 Y159.587 E4.45833
G1 X172.992 Y159.964 E4.46752
G1 X172.478 Y160.222 E4.47509
G1 X170.571 Y161.072 E4.50258
G1 X169.919 Y161.32 E4.51177
G1 X169.357 Y161.467 E4.51942
G1 X167.308 Y161.902 E4.547
G1 X166.618 Y162.008 E4.55619
G1 X166.043 Y162.035 E4.56377
G1 X163.957 Y162.035 E4.59124
G1 X163.26 Y161.995 E4.60043
G1 X162.692 Y161.902 E4.60801
G1 X160.643 Y161.467 E4.63559
G1 X159.97 Y161.283 E4.64478
G1 X159.429 Y161.072 E4.65242
G1 X157.522 Y160.222 E4.67992
G1 X156.902 Y159.902 E4.6891
G1 X156.421 Y159.587 E4.69667
G1 X154.728 Y158.357 E4.72423
G1 X154.188 Y157.915 E4.73342
G1 X153.783 Y157.506 E4.741
G1 X152.384 Y155.953 E4.76852
G1 X151.948 Y155.409 E4.7777
G1 X151.633 Y154.919 E4.78537
G1 X150.59 Y153.11 E4.81286
G1 X150.277 Y152.486 E4.82206
G1 X150.075 Y151.953 E4.82956
G1 X149.428 Y149.965 E4.85709
G1 X149.25 Y149.29 E4.86628
G1 X149.163 Y148.718 E4.8739
G1 X148.944 Y146.64 E4.90141
G1 X148.91 Y145.943 E4.9106
G1 X148.943 Y145.365 E4.91822
G1 X149.162 Y143.282 E4.9458
G1 X149.275 Y142.594 E4.95498
G1 X149.428 Y142.034 E4.96263
G1 X150.075 Y140.046 E4.99016
G1 X150.329 Y139.396 E4.99935
G1 X150.591 Y138.888 E5.00687
G1 X151.634 Y137.08 E5.03436
G1 X152.017 Y136.496 E5.04355
G1 X152.384 Y136.047 E5.05119
G1 X153.783 Y134.494 E5.07871
G1 X154.279 Y134.003 E5.0879
G1 X154.728 Y133.643 E5.09548
G1 X155.613 Y133 E5.10988
G1 X154.728 Y132.357 E5.12429
G1 X154.188 Y131.915 E5.13347
G1 X153.783 Y131.506 E5.14105
G1 X152.384 Y129.953 E5.16858
G1 X151.948 Y129.409 E5.17776
G1 X151.633 Y128.919 E5.18543
G1 X150.59 Y127.11 E5.21292
G1 X150.277 Y126.486 E5.22211
G1 X150.075 Y125.953 E5.22962
G1 X149.428 Y123.965 E5.25715
G1 X149.25 Y123.29 E5.26634
G1 X149.163 Y122.718 E5.27396
G1 X148.944 Y120.64 E5.30147
G1 X148.91 Y119.943 E5.31066
G1 X148.943 Y119.365 E5.31828
G1 X149.162 Y117.282 E5.34586
G1 X149.275 Y116.594 E5.35504
G1 X149.428 Y116.034 E5.36269
G1 X150.075 Y114.046 E5.39021
G1 X150.329 Y113.396 E5.3994
G1 X150.591 Y112.888 E5.40693
G1 X151.634 Y111.08 E5.43441
G1 X152.017 Y110.496 E5.44361
G1 X152.384 Y110.047 E5.45125
G1 X153.783 Y108.494 E5.47877
G1 X154.279 Y108.003 E5.48796
G1 X154.728 Y107.643 E5.49554
G1 X156.422 Y106.412 E5.52311
G1 X157.009 Y106.035 E5.53229
G1 X157.524 Y105.776 E5.53989
G1 X159.43 Y104.927 E5.56736
G1 X160.083 Y104.68 E5.57655
G1 X160.643 Y104.533 E5.58418
G1 X162.692 Y104.098 E5.61176
G1 X163.382 Y103.992 E5.62095
G1 X163.957 Y103.965 E5.62853
G1 X166.043 Y103.965 E5.656
G1 X166.74 Y104.005 E5.66519
G1 X167.308 Y104.098 E5.67277
G1 X169.357 Y104.533 E5.70035
G1 X170.03 Y104.717 E5.70954
G1 X170.57 Y104.927 E5.71716
G1 X172.476 Y105.776 E5.74464
G1 X173.096 Y106.096 E5.75383
G1 X173.578 Y106.412 E5.76142
G1 X175.272 Y107.643 E5.78899
G1 X175.812 Y108.085 E5.79818
G1 X176.217 Y108.494 E5.80576
G1 X177.616 Y110.047 E5.83328
G1 X178.052 Y110.591 E5.84246
G1 X178.366 Y111.08 E5.85011
G1 X179.409 Y112.888 E5.87759
G1 X179.723 Y113.511 E5.88678
G1 X179.925 Y114.046 E5.89431
G1 X180.572 Y116.034 E5.92184
G1 X180.75 Y116.709 E5.93103
G1 X180.837 Y117.281 E5.93865
G1 X181.056 Y119.36 E5.96618
G1 X181.09 Y120.057 E5.97536
G1 X181.057 Y120.635 E5.98299
G1 X180.838 Y122.717 E6.01055
G1 X180.725 Y123.406 E6.01975
G1 X180.572 Y123.965 E6.02738
G1 X179.925 Y125.953 E6.05491
G1 X179.671 Y126.603 E6.0641
G1 X179.41 Y127.11 E6.0716
G1 X178.367 Y128.919 E6.0991
G1 X177.984 Y129.502 E6.10828
G1 X177.616 Y129.953 E6.11595
G1 X176.217 Y131.506 E6.14347
G1 X175.721 Y131.997 E6.15266
G1 X175.272 Y132.357 E6.16024
G1 X174.387 Y133 E6.17464
G1 X175.272 Y133.643 E6.18905
G1 X175.812 Y134.085 E6.19824
G1 X176.217 Y134.494 E6.20581
G1 X177.616 Y136.047 E6.23334
G1 X178.052 Y136.591 E6.24252
G1 X178.366 Y137.08 E6.25017
G1 X179.409 Y138.888 E6.27765
G1 X179.723 Y139.511 E6.28684
G1 X179.925 Y140.046 E6.29437
G1 X180.572 Y142.034 E6.3219
G1 X180.75 Y142.709 E6.33109
G1 X180.837 Y143.281 E6.33871
G1 X181.056 Y145.36 E6.36623
G1 X181.09 Y146.057 E6.37542
G1 X181.057 Y146.635 E6.38305
G1 X180.838 Y148.717 E6.41061
G1 X180.725 Y149.406 E6.41981
G1 X180.572 Y149.965 E6.42744
G1 X179.925 Y151.953 E6.45496
G1 X179.671 Y152.603 E6.46415
M204 S625
M205 X10 Y10
G0 F2571.4 X179.28 Y152.449
M204 S500
M205 X5 Y5
G1 F1200 X179.046 Y152.9 E6.47084
G1 X178.003 Y154.709 E6.49834
G1 X177.633 Y155.271 E6.5072
G1 X177.304 Y155.672 E6.51403
G1 X175.905 Y157.225 E6.54155
G1 X175.425 Y157.698 E6.55043
G1 X175.025 Y158.017 E6.55716
G1 X173.332 Y159.247 E6.58472
G1 X172.765 Y159.61 E6.59358
G1 X172.307 Y159.839 E6.60032
G1 X170.4 Y160.689 E6.62782
G1 X169.77 Y160.926 E6.63668
G1 X169.269 Y161.056 E6.64349
G1 X167.22 Y161.491 E6.67108
G1 X166.555 Y161.592 E6.67993
G1 X166.043 Y161.615 E6.68668
G1 X163.957 Y161.615 E6.71415
G1 X163.285 Y161.575 E6.72301
G1 X162.78 Y161.491 E6.72975
G1 X160.731 Y161.056 E6.75733
G1 X160.081 Y160.878 E6.76621
G1 X159.6 Y160.689 E6.77301
G1 X157.693 Y159.839 E6.8005
G1 X157.095 Y159.529 E6.80937
G1 X156.668 Y159.247 E6.81611
G1 X154.975 Y158.017 E6.84367
G1 X154.455 Y157.59 E6.85253
G1 X154.095 Y157.225 E6.85928
G1 X152.696 Y155.672 E6.8868
G1 X152.276 Y155.146 E6.89566
G1 X151.997 Y154.709 E6.90249
G1 X150.954 Y152.9 E6.92998
G1 X150.653 Y152.298 E6.93885
G1 X150.474 Y151.823 E6.94553
G1 X149.827 Y149.835 E6.97306
G1 X149.657 Y149.183 E6.98193
G1 X149.58 Y148.674 E6.98871
G1 X149.361 Y146.596 E7.01622
G1 X149.331 Y145.924 E7.02508
G1 X149.361 Y145.409 E7.03187
G1 X149.58 Y143.326 E7.05945
G1 X149.69 Y142.662 E7.06831
G1 X149.827 Y142.164 E7.07512
G1 X150.474 Y140.176 E7.10264
G1 X150.72 Y139.55 E7.1115
G1 X150.955 Y139.098 E7.11821
G1 X151.998 Y137.29 E7.14569
G1 X152.368 Y136.728 E7.15455
G1 X152.696 Y136.328 E7.16136
G1 X154.095 Y134.775 E7.18889
G1 X154.575 Y134.302 E7.19776
G1 X154.975 Y133.983 E7.2045
G1 X156.328 Y133 E7.22652
G1 X154.975 Y132.017 E7.24854
G1 X154.455 Y131.59 E7.2574
G1 X154.095 Y131.225 E7.26415
G1 X152.696 Y129.672 E7.29167
G1 X152.276 Y129.146 E7.30053
G1 X151.997 Y128.709 E7.30736
G1 X150.954 Y126.9 E7.33486
G1 X150.653 Y126.298 E7.34372
