;FLAVOR:Marlin
;TIME:5333
;Filament used: 3.50146m
;Layer height: 0.2
;MINX:89.75
;MINY:129.681
;MINZ:0.2
;MAXX:118.05
;MAXY:157.981
;MAXZ:50.8
;Generated with Cura_SteamEngine 4.8.0
M140 S100
M105
M190 S100
M104 S230
M105
M109 S230
M82 ;absolute extrusion mode
; Ender 3 Custom Start G-code
G92 E0 ; Reset Extruder
G28 ; Home all axes
G1 Z2.0 F3000 ; Move Z Axis up little to prevent scratching of Heat Bed
G1 X0.1 Y20 Z0.3 F5000.0 ; Move to start position
G1 X0.1 Y200.0 Z0.3 F1500.0 E15 ; Draw the first line
G1 X0.4 Y200.0 Z0.3 F5000.0 ; Move to side a little
G1 X0.4 Y20 Z0.3 F1500.0 E30 ; Draw the second line
G92 E0 ; Reset Extruder
G1 Z2.0 F3000 ; Move Z Axis up little to prevent scratching of Heat Bed
G1 X5 Y20 Z0.3 F5000.0 ; Move over to prevent blob squish
M83 ;relative extrusion mode
G1 F2700 E-5
;LAYER_COUNT:254
;LAYER:0
M107
M205 X8 Y8
G0 F6000 X92.772 Y131.315 Z0.2
;TYPE:SKIRT
G1 F2700 E5
G1 F1200 X93.42 Y130.864 E0.02626
G1 X94.111 Y130.48 E0.02629
G1 X94.836 Y130.168 E0.02625
G1 X95.589 Y129.931 E0.02626
G1 X96.363 Y129.772 E0.02628
G1 X97.148 Y129.691 E0.02625
G1 X97.55 Y129.681 E0.01337
G1 X110.25 Y129.681 E0.4224
G1 X111.039 Y129.721 E0.02628
G1 X111.819 Y129.84 E0.02624
G1 X112.584 Y130.038 E0.02628
G1 X113.324 Y130.312 E0.02625
G1 X114.033 Y130.66 E0.02627
G1 X114.704 Y131.078 E0.02629
G1 X115.328 Y131.561 E0.02625
G1 X115.901 Y132.104 E0.02626
G1 X116.416 Y132.703 E0.02627
G1 X116.867 Y133.351 E0.02626
G1 X117.251 Y134.042 E0.02629
G1 X117.563 Y134.767 E0.02625
G1 X117.8 Y135.52 E0.02626
G1 X117.959 Y136.294 E0.02628
G1 X118.04 Y137.079 E0.02625
G1 X118.05 Y137.481 E0.01337
G1 X118.05 Y150.181 E0.4224
G1 X118.01 Y150.97 E0.02628
G1 X117.891 Y151.75 E0.02624
G1 X117.693 Y152.515 E0.02628
G1 X117.419 Y153.255 E0.02625
G1 X117.071 Y153.964 E0.02627
G1 X116.653 Y154.635 E0.02629
G1 X116.17 Y155.259 E0.02625
G1 X115.627 Y155.832 E0.02626
G1 X115.028 Y156.347 E0.02627
G1 X114.38 Y156.798 E0.02626
G1 X113.689 Y157.182 E0.02629
G1 X112.964 Y157.494 E0.02625
G1 X112.211 Y157.731 E0.02626
G1 X111.437 Y157.89 E0.02628
G1 X110.652 Y157.971 E0.02625
G1 X110.25 Y157.981 E0.01337
G1 X97.55 Y157.981 E0.4224
G1 X96.761 Y157.941 E0.02628
G1 X95.981 Y157.822 E0.02624
G1 X95.216 Y157.624 E0.02628
G1 X94.476 Y157.35 E0.02625
G1 X93.767 Y157.002 E0.02627
G1 X93.096 Y156.584 E0.02629
G1 X92.472 Y156.101 E0.02625
G1 X91.899 Y155.558 E0.02626
G1 X91.384 Y154.959 E0.02627
G1 X90.933 Y154.311 E0.02626
G1 X90.549 Y153.62 E0.02629
G1 X90.237 Y152.895 E0.02625
G1 X90 Y152.142 E0.02626
G1 X89.841 Y151.368 E0.02628
G1 X89.76 Y150.583 E0.02625
G1 X89.75 Y150.181 E0.01337
G1 X89.75 Y137.481 E0.4224
G1 X89.79 Y136.692 E0.02628
G1 X89.909 Y135.912 E0.02624
G1 X90.107 Y135.147 E0.02628
G1 X90.381 Y134.407 E0.02625
G1 X90.729 Y133.698 E0.02627
G1 X91.147 Y133.027 E0.02629
G1 X91.63 Y132.403 E0.02625
G1 X92.173 Y131.83 E0.02626
G1 X92.772 Y131.315 E0.02627
G0 F6000 X93.161 Y131.523
G1 F1200 X93.803 Y131.1 E0.02557
G1 X94.486 Y130.745 E0.0256
G1 X95.201 Y130.464 E0.02555
G1 X95.943 Y130.258 E0.02561
G1 X96.701 Y130.13 E0.02557
G1 X97.55 Y130.081 E0.02828
G1 X110.25 Y130.081 E0.4224
G1 X111.018 Y130.121 E0.02558
G1 X111.778 Y130.24 E0.02559
G1 X112.521 Y130.438 E0.02557
G1 X113.24 Y130.712 E0.02559
G1 X113.926 Y131.059 E0.02557
G1 X114.573 Y131.475 E0.02558
G1 X115.173 Y131.956 E0.02558
G1 X115.72 Y132.497 E0.02559
G1 X116.208 Y133.092 E0.02559
G1 X116.631 Y133.734 E0.02557
G1 X116.986 Y134.417 E0.0256
G1 X117.267 Y135.132 E0.02555
G1 X117.473 Y135.874 E0.02561
G1 X117.601 Y136.632 E0.02557
G1 X117.65 Y137.481 E0.02828
G1 X117.65 Y150.181 E0.4224
G1 X117.61 Y150.949 E0.02558
G1 X117.491 Y151.709 E0.02559
G1 X117.293 Y152.452 E0.02557
G1 X117.019 Y153.171 E0.02559
G1 X116.672 Y153.857 E0.02557
G1 X116.256 Y154.504 E0.02558
G1 X115.775 Y155.104 E0.02558
G1 X115.234 Y155.651 E0.02559
G1 X114.639 Y156.139 E0.02559
G1 X113.997 Y156.562 E0.02557
G1 X113.314 Y156.917 E0.0256
G1 X112.599 Y157.198 E0.02555
G1 X111.857 Y157.404 E0.02561
G1 X111.099 Y157.532 E0.02557
G1 X110.25 Y157.581 E0.02828
G1 X97.55 Y157.581 E0.4224
G1 X96.782 Y157.541 E0.02558
G1 X96.022 Y157.422 E0.02559
G1 X95.279 Y157.224 E0.02557
G1 X94.56 Y156.95 E0.02559
G1 X93.874 Y156.603 E0.02557
G1 X93.227 Y156.187 E0.02558
G1 X92.627 Y155.706 E0.02558
G1 X92.08 Y155.165 E0.02559
G1 X91.592 Y154.57 E0.02559
G1 X91.169 Y153.928 E0.02557
G1 X90.814 Y153.245 E0.0256
G1 X90.533 Y152.53 E0.02555
G1 X90.327 Y151.788 E0.02561
G1 X90.199 Y151.03 E0.02557
G1 X90.15 Y150.181 E0.02828
G1 X90.15 Y137.481 E0.4224
G1 X90.19 Y136.713 E0.02558
G1 X90.309 Y135.953 E0.02559
G1 X90.507 Y135.21 E0.02557
G1 X90.781 Y134.491 E0.02559
G1 X91.128 Y133.805 E0.02557
G1 X91.544 Y133.158 E0.02558
G1 X92.025 Y132.558 E0.02558
G1 X92.566 Y132.011 E0.02559
G1 X93.161 Y131.523 E0.02559
G0 F6000 X93.548 Y131.738
G1 F1200 X94.184 Y131.343 E0.0249
G1 X94.858 Y131.019 E0.02487
G1 X95.563 Y130.769 E0.02488
G1 X96.291 Y130.595 E0.0249
G1 X97.033 Y130.5 E0.02488
G1 X97.55 Y130.481 E0.01721
G1 X110.25 Y130.481 E0.4224
G1 X110.997 Y130.521 E0.02488
G1 X111.735 Y130.64 E0.02486
G1 X112.457 Y130.838 E0.0249
G1 X113.153 Y131.111 E0.02487
G1 X113.816 Y131.458 E0.02489
G1 X114.439 Y131.873 E0.0249
G1 X115.013 Y132.352 E0.02487
G1 X115.534 Y132.889 E0.02489
G1 X115.993 Y133.479 E0.02486
G1 X116.388 Y134.115 E0.0249
G1 X116.712 Y134.789 E0.02487
G1 X116.962 Y135.494 E0.02488
G1 X117.136 Y136.222 E0.0249
G1 X117.231 Y136.964 E0.02488
G1 X117.25 Y137.481 E0.01721
G1 X117.25 Y150.181 E0.4224
G1 X117.21 Y150.928 E0.02488
G1 X117.091 Y151.666 E0.02486
G1 X116.893 Y152.388 E0.0249
G1 X116.62 Y153.084 E0.02487
G1 X116.273 Y153.747 E0.02489
G1 X115.858 Y154.37 E0.0249
G1 X115.379 Y154.944 E0.02487
G1 X114.842 Y155.465 E0.02489
G1 X114.252 Y155.924 E0.02486
G1 X113.616 Y156.319 E0.0249
G1 X112.942 Y156.643 E0.02487
G1 X112.237 Y156.893 E0.02488
G1 X111.509 Y157.067 E0.0249
G1 X110.767 Y157.162 E0.02488
G1 X110.25 Y157.181 E0.01721
G1 X97.55 Y157.181 E0.4224
G1 X96.803 Y157.141 E0.02488
G1 X96.065 Y157.022 E0.02486
G1 X95.343 Y156.824 E0.0249
G1 X94.647 Y156.551 E0.02487
G1 X93.984 Y156.204 E0.02489
G1 X93.361 Y155.789 E0.0249
G1 X92.787 Y155.31 E0.02487
G1 X92.266 Y154.773 E0.02489
G1 X91.807 Y154.183 E0.02486
G1 X91.412 Y153.547 E0.0249
G1 X91.088 Y152.873 E0.02487
G1 X90.838 Y152.168 E0.02488
G1 X90.664 Y151.44 E0.0249
G1 X90.569 Y150.698 E0.02488
G1 X90.55 Y150.181 E0.01721
G1 X90.55 Y137.481 E0.4224
G1 X90.59 Y136.734 E0.02488
G1 X90.709 Y135.996 E0.02486
G1 X90.907 Y135.274 E0.0249
G1 X91.18 Y134.578 E0.02487
G1 X91.527 Y133.915 E0.02489
G1 X91.942 Y133.292 E0.0249
G1 X92.421 Y132.718 E0.02487
G1 X92.958 Y132.197 E0.02489
G1 X93.548 Y131.738 E0.02486
G0 F6000 X93.349 Y132.39
G1 F1200 X93.934 Y131.96 E0.02415
G1 X94.563 Y131.596 E0.02417
G1 X95.228 Y131.303 E0.02417
G1 X95.921 Y131.085 E0.02416
G1 X96.633 Y130.945 E0.02413
G1 X97.55 Y130.881 E0.03057
G1 X110.25 Y130.881 E0.4224
G1 X110.975 Y130.921 E0.02415
G1 X111.692 Y131.04 E0.02417
G1 X112.391 Y131.238 E0.02416
G1 X113.064 Y131.511 E0.02416
G1 X113.703 Y131.856 E0.02415
G1 X114.3 Y132.27 E0.02416
G1 X114.848 Y132.746 E0.02414
G1 X115.341 Y133.28 E0.02417
G1 X115.771 Y133.865 E0.02415
G1 X116.135 Y134.494 E0.02417
G1 X116.428 Y135.159 E0.02417
G1 X116.646 Y135.852 E0.02416
G1 X116.786 Y136.564 E0.02413
G1 X116.85 Y137.481 E0.03057
G1 X116.85 Y150.181 E0.4224
G1 X116.81 Y150.906 E0.02415
G1 X116.691 Y151.623 E0.02417
G1 X116.493 Y152.322 E0.02416
G1 X116.22 Y152.995 E0.02416
G1 X115.875 Y153.634 E0.02415
G1 X115.461 Y154.231 E0.02416
G1 X114.985 Y154.779 E0.02414
G1 X114.451 Y155.272 E0.02417
G1 X113.866 Y155.702 E0.02415
G1 X113.237 Y156.066 E0.02417
G1 X112.572 Y156.359 E0.02417
G1 X111.879 Y156.577 E0.02416
G1 X111.167 Y156.717 E0.02413
G1 X110.25 Y156.781 E0.03057
G1 X97.55 Y156.781 E0.4224
G1 X96.825 Y156.741 E0.02415
G1 X96.108 Y156.622 E0.02417
G1 X95.409 Y156.424 E0.02416
G1 X94.736 Y156.151 E0.02416
G1 X94.097 Y155.806 E0.02415
G1 X93.5 Y155.392 E0.02416
G1 X92.952 Y154.916 E0.02414
G1 X92.459 Y154.382 E0.02417
G1 X92.029 Y153.797 E0.02415
G1 X91.665 Y153.168 E0.02417
G1 X91.372 Y152.503 E0.02417
G1 X91.154 Y151.81 E0.02416
G1 X91.014 Y151.098 E0.02413
G1 X90.95 Y150.181 E0.03057
G1 X90.95 Y137.481 E0.4224
G1 X90.99 Y136.756 E0.02415
G1 X91.109 Y136.039 E0.02417
G1 X91.307 Y135.34 E0.02416
G1 X91.58 Y134.667 E0.02416
G1 X91.925 Y134.028 E0.02415
G1 X92.339 Y133.431 E0.02416
G1 X92.815 Y132.883 E0.02414
G1 X93.349 Y132.39 E0.02417
G0 F6000 X93.739 Y132.59
G1 F1200 X94.318 Y132.19 E0.02341
G1 X94.939 Y131.858 E0.02342
G1 X95.593 Y131.598 E0.02341
G1 X96.273 Y131.414 E0.02343
G1 X96.969 Y131.308 E0.02342
G1 X97.55 Y131.281 E0.01934
G1 X110.25 Y131.281 E0.4224
G1 X110.953 Y131.321 E0.02342
G1 X111.647 Y131.44 E0.02342
G1 X112.322 Y131.638 E0.0234
G1 X112.971 Y131.91 E0.0234
G1 X113.585 Y132.255 E0.02342
G1 X114.156 Y132.666 E0.0234
G1 X114.677 Y133.14 E0.02343
G1 X115.141 Y133.67 E0.02343
G1 X115.541 Y134.249 E0.02341
G1 X115.873 Y134.87 E0.02342
G1 X116.133 Y135.524 E0.02341
G1 X116.317 Y136.204 E0.02343
G1 X116.423 Y136.9 E0.02342
G1 X116.45 Y137.481 E0.01934
G1 X116.45 Y150.181 E0.4224
G1 X116.41 Y150.884 E0.02342
G1 X116.291 Y151.578 E0.02342
G1 X116.093 Y152.253 E0.0234
G1 X115.821 Y152.902 E0.0234
G1 X115.476 Y153.516 E0.02342
G1 X115.065 Y154.087 E0.0234
G1 X114.591 Y154.608 E0.02343
G1 X114.061 Y155.072 E0.02343
G1 X113.482 Y155.472 E0.02341
G1 X112.861 Y155.804 E0.02342
G1 X112.207 Y156.064 E0.02341
G1 X111.527 Y156.248 E0.02343
G1 X110.831 Y156.354 E0.02342
G1 X110.25 Y156.381 E0.01934
G1 X97.55 Y156.381 E0.4224
G1 X96.847 Y156.341 E0.02342
G1 X96.153 Y156.222 E0.02342
G1 X95.478 Y156.024 E0.0234
G1 X94.829 Y155.752 E0.0234
G1 X94.215 Y155.407 E0.02342
G1 X93.644 Y154.996 E0.0234
G1 X93.123 Y154.522 E0.02343
G1 X92.659 Y153.992 E0.02343
G1 X92.259 Y153.413 E0.02341
G1 X91.927 Y152.792 E0.02342
G1 X91.667 Y152.138 E0.02341
G1 X91.483 Y151.458 E0.02343
G1 X91.377 Y150.762 E0.02342
G1 X91.35 Y150.181 E0.01934
G1 X91.35 Y137.481 E0.4224
G1 X91.39 Y136.778 E0.02342
G1 X91.509 Y136.084 E0.02342
G1 X91.707 Y135.409 E0.0234
G1 X91.979 Y134.76 E0.0234
G1 X92.324 Y134.146 E0.02342
G1 X92.735 Y133.575 E0.0234
G1 X93.209 Y133.054 E0.02343
G1 X93.739 Y132.59 E0.02343
G0 F6000 X94.128 Y132.798
G1 F1200 X94.7 Y132.429 E0.02264
G1 X95.312 Y132.13 E0.02265
G1 X95.954 Y131.905 E0.02263
G1 X96.619 Y131.756 E0.02267
G1 X97.55 Y131.681 E0.03107
G1 X110.25 Y131.681 E0.4224
G1 X110.93 Y131.721 E0.02266
G1 X111.6 Y131.84 E0.02263
G1 X112.252 Y132.037 E0.02265
G1 X112.876 Y132.309 E0.02264
G1 X113.464 Y132.653 E0.02266
G1 X114.008 Y133.063 E0.02266
G1 X114.499 Y133.534 E0.02263
G1 X114.933 Y134.059 E0.02266
G1 X115.302 Y134.631 E0.02264
G1 X115.601 Y135.243 E0.02265
G1 X115.826 Y135.885 E0.02263
G1 X115.975 Y136.55 E0.02267
G1 X116.05 Y137.481 E0.03107
G1 X116.05 Y150.181 E0.4224
G1 X116.01 Y150.861 E0.02266
G1 X115.891 Y151.531 E0.02263
G1 X115.694 Y152.183 E0.02265
G1 X115.422 Y152.807 E0.02264
G1 X115.078 Y153.395 E0.02266
G1 X114.668 Y153.939 E0.02266
G1 X114.197 Y154.43 E0.02263
G1 X113.672 Y154.864 E0.02266
G1 X113.1 Y155.233 E0.02264
G1 X112.488 Y155.532 E0.02265
G1 X111.846 Y155.757 E0.02263
G1 X111.181 Y155.906 E0.02267
G1 X110.25 Y155.981 E0.03107
G1 X97.55 Y155.981 E0.4224
G1 X96.87 Y155.941 E0.02266
G1 X96.2 Y155.822 E0.02263
G1 X95.548 Y155.625 E0.02265
G1 X94.924 Y155.353 E0.02264
G1 X94.336 Y155.009 E0.02266
G1 X93.792 Y154.599 E0.02266
G1 X93.301 Y154.128 E0.02263
G1 X92.867 Y153.603 E0.02266
G1 X92.498 Y153.031 E0.02264
G1 X92.199 Y152.419 E0.02265
G1 X91.974 Y151.777 E0.02263
G1 X91.825 Y151.112 E0.02267
G1 X91.75 Y150.181 E0.03107
G1 X91.75 Y137.481 E0.4224
G1 X91.79 Y136.801 E0.02266
G1 X91.909 Y136.131 E0.02263
G1 X92.106 Y135.479 E0.02265
G1 X92.378 Y134.855 E0.02264
G1 X92.722 Y134.267 E0.02266
G1 X93.132 Y133.723 E0.02266
G1 X93.603 Y133.232 E0.02263
G1 X94.128 Y132.798 E0.02266
G0 F6000 X93.995 Y133.416
G1 F1200 X94.515 Y133.015 E0.02184
G1 X95.079 Y132.679 E0.02184
G1 X95.681 Y132.415 E0.02186
G1 X96.31 Y132.225 E0.02185
G1 X96.957 Y132.114 E0.02183
G1 X97.55 Y132.081 E0.01975
G1 X110.25 Y132.081 E0.4224
G1 X110.906 Y132.121 E0.02186
G1 X111.552 Y132.24 E0.02185
G1 X112.179 Y132.437 E0.02186
G1 X112.777 Y132.709 E0.02185
G1 X113.338 Y133.051 E0.02185
G1 X113.853 Y133.459 E0.02185
G1 X114.315 Y133.926 E0.02185
G1 X114.716 Y134.446 E0.02184
G1 X115.052 Y135.01 E0.02184
G1 X115.316 Y135.612 E0.02186
G1 X115.506 Y136.241 E0.02185
G1 X115.617 Y136.888 E0.02183
G1 X115.65 Y137.481 E0.01975
G1 X115.65 Y150.181 E0.4224
G1 X115.61 Y150.837 E0.02186
G1 X115.491 Y151.483 E0.02185
G1 X115.294 Y152.11 E0.02186
G1 X115.022 Y152.708 E0.02185
G1 X114.68 Y153.269 E0.02185
G1 X114.272 Y153.784 E0.02185
G1 X113.805 Y154.246 E0.02185
G1 X113.285 Y154.647 E0.02184
G1 X112.721 Y154.983 E0.02184
G1 X112.119 Y155.247 E0.02186
G1 X111.49 Y155.437 E0.02185
G1 X110.843 Y155.548 E0.02183
G1 X110.25 Y155.581 E0.01975
G1 X97.55 Y155.581 E0.4224
G1 X96.894 Y155.541 E0.02186
G1 X96.248 Y155.422 E0.02185
G1 X95.621 Y155.225 E0.02186
G1 X95.023 Y154.953 E0.02185
G1 X94.462 Y154.611 E0.02185
G1 X93.947 Y154.203 E0.02185
G1 X93.485 Y153.736 E0.02185
G1 X93.084 Y153.216 E0.02184
G1 X92.748 Y152.652 E0.02184
G1 X92.484 Y152.05 E0.02186
G1 X92.294 Y151.421 E0.02185
G1 X92.183 Y150.774 E0.02183
G1 X92.15 Y150.181 E0.01975
G1 X92.15 Y137.481 E0.4224
G1 X92.19 Y136.825 E0.02186
G1 X92.309 Y136.179 E0.02185
G1 X92.506 Y135.552 E0.02186
G1 X92.778 Y134.954 E0.02185
G1 X93.12 Y134.393 E0.02185
G1 X93.528 Y133.878 E0.02185
G1 X93.995 Y133.416 E0.02185
G0 F6000 X94.386 Y133.61
G1 F1200 X94.9 Y133.241 E0.02104
G1 X95.456 Y132.941 E0.02101
G1 X96.045 Y132.713 E0.02101
G1 X96.659 Y132.561 E0.02104
G1 X97.55 Y132.481 E0.02975
G1 X110.25 Y132.481 E0.4224
G1 X110.881 Y132.521 E0.02103
G1 X111.502 Y132.64 E0.02103
G1 X112.102 Y132.837 E0.021
G1 X112.674 Y133.108 E0.02105
G1 X113.206 Y133.448 E0.021
G1 X113.691 Y133.854 E0.02104
G1 X114.121 Y134.317 E0.02102
G1 X114.49 Y134.831 E0.02104
G1 X114.79 Y135.387 E0.02101
G1 X115.018 Y135.976 E0.02101
G1 X115.17 Y136.59 E0.02104
G1 X115.25 Y137.481 E0.02975
G1 X115.25 Y150.181 E0.4224
G1 X115.21 Y150.812 E0.02103
G1 X115.091 Y151.433 E0.02103
G1 X114.894 Y152.033 E0.021
G1 X114.623 Y152.605 E0.02105
G1 X114.283 Y153.137 E0.021
G1 X113.877 Y153.622 E0.02104
G1 X113.414 Y154.052 E0.02102
G1 X112.9 Y154.421 E0.02104
G1 X112.344 Y154.721 E0.02101
G1 X111.755 Y154.949 E0.02101
G1 X111.141 Y155.101 E0.02104
G1 X110.25 Y155.181 E0.02975
G1 X97.55 Y155.181 E0.4224
G1 X96.919 Y155.141 E0.02103
G1 X96.298 Y155.022 E0.02103
G1 X95.698 Y154.825 E0.021
G1 X95.126 Y154.554 E0.02105
G1 X94.594 Y154.214 E0.021
G1 X94.109 Y153.808 E0.02104
G1 X93.679 Y153.345 E0.02102
G1 X93.31 Y152.831 E0.02104
G1 X93.01 Y152.275 E0.02101
G1 X92.782 Y151.686 E0.02101
G1 X92.63 Y151.072 E0.02104
G1 X92.55 Y150.181 E0.02975
G1 X92.55 Y137.481 E0.4224
G1 X92.59 Y136.85 E0.02103
G1 X92.709 Y136.229 E0.02103
G1 X92.906 Y135.629 E0.021
G1 X93.177 Y135.057 E0.02105
G1 X93.517 Y134.525 E0.021
G1 X93.923 Y134.04 E0.02104
G1 X94.386 Y133.61 E0.02102
G0 F6000 X94.775 Y133.812
G1 F1200 X95.282 Y133.479 E0.02017
G1 X95.828 Y133.215 E0.02017
G1 X96.404 Y133.026 E0.02016
G1 X97 Y132.914 E0.02017
G1 X97.55 Y132.881 E0.01833
G1 X110.25 Y132.881 E0.4224
G1 X110.855 Y132.921 E0.02017
G1 X111.449 Y133.04 E0.02015
G1 X112.023 Y133.236 E0.02017
G1 X112.566 Y133.507 E0.02018
G1 X113.069 Y133.846 E0.02017
G1 X113.522 Y134.248 E0.02014
G1 X113.919 Y134.706 E0.02016
G1 X114.252 Y135.213 E0.02017
G1 X114.516 Y135.759 E0.02017
G1 X114.705 Y136.335 E0.02016
G1 X114.817 Y136.931 E0.02017
G1 X114.85 Y137.481 E0.01833
G1 X114.85 Y150.181 E0.4224
G1 X114.81 Y150.786 E0.02017
G1 X114.691 Y151.38 E0.02015
G1 X114.495 Y151.954 E0.02017
G1 X114.224 Y152.497 E0.02018
G1 X113.885 Y153 E0.02017
G1 X113.483 Y153.453 E0.02014
G1 X113.025 Y153.85 E0.02016
G1 X112.518 Y154.183 E0.02017
G1 X111.972 Y154.447 E0.02017
G1 X111.396 Y154.636 E0.02016
G1 X110.8 Y154.748 E0.02017
G1 X110.25 Y154.781 E0.01833
G1 X97.55 Y154.781 E0.4224
