;FLAVOR:Marlin
;TIME:5352
;Filament used: 3.50143m
;Layer height: 0.2
;MINX:81.13
;MINY:103.35
;MINZ:0.2
;MAXX:109.43
;MAXY:131.65
;MAXZ:50.8
;Generated with Cura_SteamEngine 4.8.0
M140 S100
M105
M190 S100
M104 S230
M105
M109 S230
M82 ;absolute extrusion mode
; Ender 3 Custom Start G-code
G92 E0 ; Reset Extruder
G28 ; Home all axes
G1 Z2.0 F3000 ; Move Z Axis up little to prevent scratching of Heat Bed
G1 X0.1 Y20 Z0.3 F5000.0 ; Move to start position
G1 X0.1 Y200.0 Z0.3 F1500.0 E15 ; Draw the first line
G1 X0.4 Y200.0 Z0.3 F5000.0 ; Move to side a little
G1 X0.4 Y20 Z0.3 F1500.0 E30 ; Draw the second line
G92 E0 ; Reset Extruder
G1 Z2.0 F3000 ; Move Z Axis up little to prevent scratching of Heat Bed
G1 X5 Y20 Z0.3 F5000.0 ; Move over to prevent blob squish
M83 ;relative extrusion mode
G1 F2700 E-5
;LAYER_COUNT:254
;LAYER:0
M107
M205 X8 Y8
G0 F6000 X84.152 Y104.984 Z0.2
;TYPE:SKIRT
G1 F2700 E5
G1 F1200 X84.8 Y104.533 E0.02626
G1 X85.491 Y104.149 E0.02629
G1 X86.216 Y103.837 E0.02625
G1 X86.969 Y103.6 E0.02626
G1 X87.743 Y103.441 E0.02628
G1 X88.528 Y103.36 E0.02625
G1 X88.93 Y103.35 E0.01337
G1 X101.63 Y103.35 E0.4224
G1 X102.419 Y103.39 E0.02628
G1 X103.199 Y103.509 E0.02624
G1 X103.964 Y103.707 E0.02628
G1 X104.704 Y103.981 E0.02625
G1 X105.413 Y104.329 E0.02627
G1 X106.084 Y104.747 E0.02629
G1 X106.708 Y105.23 E0.02625
G1 X107.281 Y105.773 E0.02626
G1 X107.796 Y106.372 E0.02627
G1 X108.247 Y107.02 E0.02626
G1 X108.631 Y107.711 E0.02629
G1 X108.943 Y108.436 E0.02625
G1 X109.18 Y109.189 E0.02626
G1 X109.339 Y109.963 E0.02628
G1 X109.42 Y110.748 E0.02625
G1 X109.43 Y111.15 E0.01337
G1 X109.43 Y123.85 E0.4224
G1 X109.39 Y124.639 E0.02628
G1 X109.271 Y125.419 E0.02624
G1 X109.073 Y126.184 E0.02628
G1 X108.799 Y126.924 E0.02625
G1 X108.451 Y127.633 E0.02627
G1 X108.033 Y128.304 E0.02629
G1 X107.55 Y128.928 E0.02625
G1 X107.007 Y129.501 E0.02626
G1 X106.408 Y130.016 E0.02627
G1 X105.76 Y130.467 E0.02626
G1 X105.069 Y130.851 E0.02629
G1 X104.344 Y131.163 E0.02625
G1 X103.591 Y131.4 E0.02626
G1 X102.817 Y131.559 E0.02628
G1 X102.032 Y131.64 E0.02625
G1 X101.63 Y131.65 E0.01337
G1 X88.93 Y131.65 E0.4224
G1 X88.141 Y131.61 E0.02628
G1 X87.361 Y131.491 E0.02624
G1 X86.596 Y131.293 E0.02628
G1 X85.856 Y131.019 E0.02625
G1 X85.147 Y130.671 E0.02627
G1 X84.476 Y130.253 E0.02629
G1 X83.852 Y129.77 E0.02625
G1 X83.279 Y129.227 E0.02626
G1 X82.764 Y128.628 E0.02627
G1 X82.313 Y127.98 E0.02626
G1 X81.929 Y127.289 E0.02629
G1 X81.617 Y126.564 E0.02625
G1 X81.38 Y125.811 E0.02626
G1 X81.221 Y125.037 E0.02628
G1 X81.14 Y124.252 E0.02625
G1 X81.13 Y123.85 E0.01337
G1 X81.13 Y111.15 E0.4224
G1 X81.17 Y110.361 E0.02628
G1 X81.289 Y109.581 E0.02624
G1 X81.487 Y108.816 E0.02628
G1 X81.761 Y108.076 E0.02625
G1 X82.109 Y107.367 E0.02627
G1 X82.527 Y106.696 E0.02629
G1 X83.01 Y106.072 E0.02625
G1 X83.553 Y105.499 E0.02626
G1 X84.152 Y104.984 E0.02627
G0 F6000 X84.541 Y105.192
G1 F1200 X85.183 Y104.769 E0.02557
G1 X85.866 Y104.414 E0.0256
G1 X86.581 Y104.133 E0.02555
G1 X87.323 Y103.927 E0.02561
G1 X88.081 Y103.799 E0.02557
G1 X88.93 Y103.75 E0.02828
G1 X101.63 Y103.75 E0.4224
G1 X102.398 Y103.79 E0.02558
G1 X103.158 Y103.909 E0.02559
G1 X103.901 Y104.107 E0.02557
G1 X104.62 Y104.381 E0.02559
G1 X105.306 Y104.728 E0.02557
G1 X105.953 Y105.144 E0.02558
G1 X106.553 Y105.625 E0.02558
G1 X107.1 Y106.166 E0.02559
G1 X107.588 Y106.761 E0.02559
G1 X108.011 Y107.403 E0.02557
G1 X108.366 Y108.086 E0.0256
G1 X108.647 Y108.801 E0.02555
G1 X108.853 Y109.543 E0.02561
G1 X108.981 Y110.301 E0.02557
G1 X109.03 Y111.15 E0.02828
G1 X109.03 Y123.85 E0.4224
G1 X108.99 Y124.618 E0.02558
G1 X108.871 Y125.378 E0.02559
G1 X108.673 Y126.121 E0.02557
G1 X108.399 Y126.84 E0.02559
G1 X108.052 Y127.526 E0.02557
G1 X107.636 Y128.173 E0.02558
G1 X107.155 Y128.773 E0.02558
G1 X106.614 Y129.32 E0.02559
G1 X106.019 Y129.808 E0.02559
G1 X105.377 Y130.231 E0.02557
G1 X104.694 Y130.586 E0.0256
G1 X103.979 Y130.867 E0.02555
G1 X103.237 Y131.073 E0.02561
G1 X102.479 Y131.201 E0.02557
G1 X101.63 Y131.25 E0.02828
G1 X88.93 Y131.25 E0.4224
G1 X88.162 Y131.21 E0.02558
G1 X87.402 Y131.091 E0.02559
G1 X86.659 Y130.893 E0.02557
G1 X85.94 Y130.619 E0.02559
G1 X85.254 Y130.272 E0.02557
G1 X84.607 Y129.856 E0.02558
G1 X84.007 Y129.375 E0.02558
G1 X83.46 Y128.834 E0.02559
G1 X82.972 Y128.239 E0.02559
G1 X82.549 Y127.597 E0.02557
G1 X82.194 Y126.914 E0.0256
G1 X81.913 Y126.199 E0.02555
G1 X81.707 Y125.457 E0.02561
G1 X81.579 Y124.699 E0.02557
G1 X81.53 Y123.85 E0.02828
G1 X81.53 Y111.15 E0.4224
G1 X81.57 Y110.382 E0.02558
G1 X81.689 Y109.622 E0.02559
G1 X81.887 Y108.879 E0.02557
G1 X82.161 Y108.16 E0.02559
G1 X82.508 Y107.474 E0.02557
G1 X82.924 Y106.827 E0.02558
G1 X83.405 Y106.227 E0.02558
G1 X83.946 Y105.68 E0.02559
G1 X84.541 Y105.192 E0.02559
G0 F6000 X84.928 Y105.407
G1 F1200 X85.564 Y105.012 E0.0249
G1 X86.238 Y104.688 E0.02487
G1 X86.943 Y104.438 E0.02488
G1 X87.671 Y104.264 E0.0249
G1 X88.413 Y104.169 E0.02488
G1 X88.93 Y104.15 E0.01721
G1 X101.63 Y104.15 E0.4224
G1 X102.377 Y104.19 E0.02488
G1 X103.115 Y104.309 E0.02486
G1 X103.837 Y104.507 E0.0249
G1 X104.533 Y104.78 E0.02487
G1 X105.196 Y105.127 E0.02489
G1 X105.819 Y105.542 E0.0249
G1 X106.393 Y106.021 E0.02487
G1 X106.914 Y106.558 E0.02489
G1 X107.373 Y107.148 E0.02486
G1 X107.768 Y107.784 E0.0249
G1 X108.092 Y108.458 E0.02487
G1 X108.342 Y109.163 E0.02488
G1 X108.516 Y109.891 E0.0249
G1 X108.611 Y110.633 E0.02488
G1 X108.63 Y111.15 E0.01721
G1 X108.63 Y123.85 E0.4224
G1 X108.59 Y124.597 E0.02488
G1 X108.471 Y125.335 E0.02486
G1 X108.273 Y126.057 E0.0249
G1 X108 Y126.753 E0.02487
G1 X107.653 Y127.416 E0.02489
G1 X107.238 Y128.039 E0.0249
G1 X106.759 Y128.613 E0.02487
G1 X106.222 Y129.134 E0.02489
G1 X105.632 Y129.593 E0.02486
G1 X104.996 Y129.988 E0.0249
G1 X104.322 Y130.312 E0.02487
G1 X103.617 Y130.562 E0.02488
G1 X102.889 Y130.736 E0.0249
G1 X102.147 Y130.831 E0.02488
G1 X101.63 Y130.85 E0.01721
G1 X88.93 Y130.85 E0.4224
G1 X88.183 Y130.81 E0.02488
G1 X87.445 Y130.691 E0.02486
G1 X86.723 Y130.493 E0.0249
G1 X86.027 Y130.22 E0.02487
G1 X85.364 Y129.873 E0.02489
G1 X84.741 Y129.458 E0.0249
G1 X84.167 Y128.979 E0.02487
G1 X83.646 Y128.442 E0.02489
G1 X83.187 Y127.852 E0.02486
G1 X82.792 Y127.216 E0.0249
G1 X82.468 Y126.542 E0.02487
G1 X82.218 Y125.837 E0.02488
G1 X82.044 Y125.109 E0.0249
G1 X81.949 Y124.367 E0.02488
G1 X81.93 Y123.85 E0.01721
G1 X81.93 Y111.15 E0.4224
G1 X81.97 Y110.403 E0.02488
G1 X82.089 Y109.665 E0.02486
G1 X82.287 Y108.943 E0.0249
G1 X82.56 Y108.247 E0.02487
G1 X82.907 Y107.584 E0.02489
G1 X83.322 Y106.961 E0.0249
G1 X83.801 Y106.387 E0.02487
G1 X84.338 Y105.866 E0.02489
G1 X84.928 Y105.407 E0.02486
G0 F6000 X84.729 Y106.059
G1 F1200 X85.314 Y105.629 E0.02415
G1 X85.943 Y105.265 E0.02417
G1 X86.608 Y104.972 E0.02417
G1 X87.301 Y104.754 E0.02416
G1 X88.013 Y104.614 E0.02413
G1 X88.93 Y104.55 E0.03057
G1 X101.63 Y104.55 E0.4224
G1 X102.355 Y104.59 E0.02415
G1 X103.072 Y104.709 E0.02417
G1 X103.771 Y104.907 E0.02416
G1 X104.444 Y105.18 E0.02416
G1 X105.083 Y105.525 E0.02415
G1 X105.68 Y105.939 E0.02416
G1 X106.228 Y106.415 E0.02414
G1 X106.721 Y106.949 E0.02417
G1 X107.151 Y107.534 E0.02415
G1 X107.515 Y108.163 E0.02417
G1 X107.808 Y108.828 E0.02417
G1 X108.026 Y109.521 E0.02416
G1 X108.166 Y110.233 E0.02413
G1 X108.23 Y111.15 E0.03057
G1 X108.23 Y123.85 E0.4224
G1 X108.19 Y124.575 E0.02415
G1 X108.071 Y125.292 E0.02417
G1 X107.873 Y125.991 E0.02416
G1 X107.6 Y126.664 E0.02416
G1 X107.255 Y127.303 E0.02415
G1 X106.841 Y127.9 E0.02416
G1 X106.365 Y128.448 E0.02414
G1 X105.831 Y128.941 E0.02417
G1 X105.246 Y129.371 E0.02415
G1 X104.617 Y129.735 E0.02417
G1 X103.952 Y130.028 E0.02417
G1 X103.259 Y130.246 E0.02416
G1 X102.547 Y130.386 E0.02413
G1 X101.63 Y130.45 E0.03057
G1 X88.93 Y130.45 E0.4224
G1 X88.205 Y130.41 E0.02415
G1 X87.488 Y130.291 E0.02417
G1 X86.789 Y130.093 E0.02416
G1 X86.116 Y129.82 E0.02416
G1 X85.477 Y129.475 E0.02415
G1 X84.88 Y129.061 E0.02416
G1 X84.332 Y128.585 E0.02414
G1 X83.839 Y128.051 E0.02417
G1 X83.409 Y127.466 E0.02415
G1 X83.045 Y126.837 E0.02417
G1 X82.752 Y126.172 E0.02417
G1 X82.534 Y125.479 E0.02416
G1 X82.394 Y124.767 E0.02413
G1 X82.33 Y123.85 E0.03057
G1 X82.33 Y111.15 E0.4224
G1 X82.37 Y110.425 E0.02415
G1 X82.489 Y109.708 E0.02417
G1 X82.687 Y109.009 E0.02416
G1 X82.96 Y108.336 E0.02416
G1 X83.305 Y107.697 E0.02415
G1 X83.719 Y107.1 E0.02416
G1 X84.195 Y106.552 E0.02414
G1 X84.729 Y106.059 E0.02417
G0 F6000 X85.119 Y106.259
G1 F1200 X85.698 Y105.859 E0.02341
G1 X86.319 Y105.527 E0.02342
G1 X86.973 Y105.267 E0.02341
G1 X87.653 Y105.083 E0.02343
G1 X88.349 Y104.977 E0.02342
G1 X88.93 Y104.95 E0.01934
G1 X101.63 Y104.95 E0.4224
G1 X102.333 Y104.99 E0.02342
G1 X103.027 Y105.109 E0.02342
G1 X103.702 Y105.307 E0.0234
G1 X104.351 Y105.579 E0.0234
G1 X104.965 Y105.924 E0.02342
G1 X105.536 Y106.335 E0.0234
G1 X106.057 Y106.809 E0.02343
G1 X106.521 Y107.339 E0.02343
G1 X106.921 Y107.918 E0.02341
G1 X107.253 Y108.539 E0.02342
G1 X107.513 Y109.193 E0.02341
G1 X107.697 Y109.873 E0.02343
G1 X107.803 Y110.569 E0.02342
G1 X107.83 Y111.15 E0.01934
G1 X107.83 Y123.85 E0.4224
G1 X107.79 Y124.553 E0.02342
G1 X107.671 Y125.247 E0.02342
G1 X107.473 Y125.922 E0.0234
G1 X107.201 Y126.571 E0.0234
G1 X106.856 Y127.185 E0.02342
G1 X106.445 Y127.756 E0.0234
G1 X105.971 Y128.277 E0.02343
G1 X105.441 Y128.741 E0.02343
G1 X104.862 Y129.141 E0.02341
G1 X104.241 Y129.473 E0.02342
G1 X103.587 Y129.733 E0.02341
G1 X102.907 Y129.917 E0.02343
G1 X102.211 Y130.023 E0.02342
G1 X101.63 Y130.05 E0.01934
G1 X88.93 Y130.05 E0.4224
G1 X88.227 Y130.01 E0.02342
G1 X87.533 Y129.891 E0.02342
G1 X86.858 Y129.693 E0.0234
G1 X86.209 Y129.421 E0.0234
G1 X85.595 Y129.076 E0.02342
G1 X85.024 Y128.665 E0.0234
G1 X84.503 Y128.191 E0.02343
G1 X84.039 Y127.661 E0.02343
G1 X83.639 Y127.082 E0.02341
G1 X83.307 Y126.461 E0.02342
G1 X83.047 Y125.807 E0.02341
G1 X82.863 Y125.127 E0.02343
G1 X82.757 Y124.431 E0.02342
G1 X82.73 Y123.85 E0.01934
G1 X82.73 Y111.15 E0.4224
G1 X82.77 Y110.447 E0.02342
G1 X82.889 Y109.753 E0.02342
G1 X83.087 Y109.078 E0.0234
G1 X83.359 Y108.429 E0.0234
G1 X83.704 Y107.815 E0.02342
G1 X84.115 Y107.244 E0.0234
G1 X84.589 Y106.723 E0.02343
G1 X85.119 Y106.259 E0.02343
G0 F6000 X85.508 Y106.467
G1 F1200 X86.08 Y106.098 E0.02264
G1 X86.692 Y105.799 E0.02265
G1 X87.334 Y105.574 E0.02263
G1 X87.999 Y105.425 E0.02267
G1 X88.93 Y105.35 E0.03107
G1 X101.63 Y105.35 E0.4224
G1 X102.31 Y105.39 E0.02266
G1 X102.98 Y105.509 E0.02263
G1 X103.632 Y105.706 E0.02265
G1 X104.256 Y105.978 E0.02264
G1 X104.844 Y106.322 E0.02266
G1 X105.388 Y106.732 E0.02266
G1 X105.879 Y107.203 E0.02263
G1 X106.313 Y107.728 E0.02266
G1 X106.682 Y108.3 E0.02264
G1 X106.981 Y108.912 E0.02265
G1 X107.206 Y109.554 E0.02263
G1 X107.355 Y110.219 E0.02267
G1 X107.43 Y111.15 E0.03107
G1 X107.43 Y123.85 E0.4224
G1 X107.39 Y124.53 E0.02266
G1 X107.271 Y125.2 E0.02263
G1 X107.074 Y125.852 E0.02265
G1 X106.802 Y126.476 E0.02264
G1 X106.458 Y127.064 E0.02266
G1 X106.048 Y127.608 E0.02266
G1 X105.577 Y128.099 E0.02263
G1 X105.052 Y128.533 E0.02266
G1 X104.48 Y128.902 E0.02264
G1 X103.868 Y129.201 E0.02265
G1 X103.226 Y129.426 E0.02263
G1 X102.561 Y129.575 E0.02267
G1 X101.63 Y129.65 E0.03107
G1 X88.93 Y129.65 E0.4224
G1 X88.25 Y129.61 E0.02266
G1 X87.58 Y129.491 E0.02263
G1 X86.928 Y129.294 E0.02265
G1 X86.304 Y129.022 E0.02264
G1 X85.716 Y128.678 E0.02266
G1 X85.172 Y128.268 E0.02266
G1 X84.681 Y127.797 E0.02263
G1 X84.247 Y127.272 E0.02266
G1 X83.878 Y126.7 E0.02264
G1 X83.579 Y126.088 E0.02265
G1 X83.354 Y125.446 E0.02263
G1 X83.205 Y124.781 E0.02267
G1 X83.13 Y123.85 E0.03107
G1 X83.13 Y111.15 E0.4224
G1 X83.17 Y110.47 E0.02266
G1 X83.289 Y109.8 E0.02263
G1 X83.486 Y109.148 E0.02265
G1 X83.758 Y108.524 E0.02264
G1 X84.102 Y107.936 E0.02266
G1 X84.512 Y107.392 E0.02266
G1 X84.983 Y106.901 E0.02263
G1 X85.508 Y106.467 E0.02266
G0 F6000 X85.375 Y107.085
G1 F1200 X85.895 Y106.684 E0.02184
G1 X86.459 Y106.348 E0.02184
G1 X87.061 Y106.084 E0.02186
G1 X87.69 Y105.894 E0.02185
G1 X88.337 Y105.783 E0.02183
G1 X88.93 Y105.75 E0.01975
G1 X101.63 Y105.75 E0.4224
G1 X102.286 Y105.79 E0.02186
G1 X102.932 Y105.909 E0.02185
G1 X103.559 Y106.106 E0.02186
G1 X104.157 Y106.378 E0.02185
G1 X104.718 Y106.72 E0.02185
G1 X105.233 Y107.128 E0.02185
G1 X105.695 Y107.595 E0.02185
G1 X106.096 Y108.115 E0.02184
G1 X106.432 Y108.679 E0.02184
G1 X106.696 Y109.281 E0.02186
G1 X106.886 Y109.91 E0.02185
G1 X106.997 Y110.557 E0.02183
G1 X107.03 Y111.15 E0.01975
G1 X107.03 Y123.85 E0.4224
G1 X106.99 Y124.506 E0.02186
G1 X106.871 Y125.152 E0.02185
G1 X106.674 Y125.779 E0.02186
G1 X106.402 Y126.377 E0.02185
G1 X106.06 Y126.938 E0.02185
G1 X105.652 Y127.453 E0.02185
G1 X105.185 Y127.915 E0.02185
G1 X104.665 Y128.316 E0.02184
G1 X104.101 Y128.652 E0.02184
G1 X103.499 Y128.916 E0.02186
G1 X102.87 Y129.106 E0.02185
G1 X102.223 Y129.217 E0.02183
G1 X101.63 Y129.25 E0.01975
G1 X88.93 Y129.25 E0.4224
G1 X88.274 Y129.21 E0.02186
G1 X87.628 Y129.091 E0.02185
G1 X87.001 Y128.894 E0.02186
G1 X86.403 Y128.622 E0.02185
G1 X85.842 Y128.28 E0.02185
G1 X85.327 Y127.872 E0.02185
G1 X84.865 Y127.405 E0.02185
G1 X84.464 Y126.885 E0.02184
G1 X84.128 Y126.321 E0.02184
G1 X83.864 Y125.719 E0.02186
G1 X83.674 Y125.09 E0.02185
G1 X83.563 Y124.443 E0.02183
G1 X83.53 Y123.85 E0.01975
G1 X83.53 Y111.15 E0.4224
G1 X83.57 Y110.494 E0.02186
G1 X83.689 Y109.848 E0.02185
G1 X83.886 Y109.221 E0.02186
G1 X84.158 Y108.623 E0.02185
G1 X84.5 Y108.062 E0.02185
G1 X84.908 Y107.547 E0.02185
G1 X85.375 Y107.085 E0.02185
G0 F6000 X85.766 Y107.279
G1 F1200 X86.28 Y106.91 E0.02104
G1 X86.836 Y106.61 E0.02101
G1 X87.425 Y106.382 E0.02101
G1 X88.039 Y106.23 E0.02104
G1 X88.93 Y106.15 E0.02975
G1 X101.63 Y106.15 E0.4224
G1 X102.261 Y106.19 E0.02103
G1 X102.882 Y106.309 E0.02103
G1 X103.482 Y106.506 E0.021
G1 X104.054 Y106.777 E0.02105
G1 X104.586 Y107.117 E0.021
G1 X105.071 Y107.523 E0.02104
G1 X105.501 Y107.986 E0.02102
G1 X105.87 Y108.5 E0.02104
G1 X106.17 Y109.056 E0.02101
G1 X106.398 Y109.645 E0.02101
G1 X106.55 Y110.259 E0.02104
G1 X106.63 Y111.15 E0.02975
G1 X106.63 Y123.85 E0.4224
G1 X106.59 Y124.481 E0.02103
G1 X106.471 Y125.102 E0.02103
G1 X106.274 Y125.702 E0.021
G1 X106.003 Y126.274 E0.02105
G1 X105.663 Y126.806 E0.021
G1 X105.257 Y127.291 E0.02104
G1 X104.794 Y127.721 E0.02102
G1 X104.28 Y128.09 E0.02104
G1 X103.724 Y128.39 E0.02101
G1 X103.135 Y128.618 E0.02101
G1 X102.521 Y128.77 E0.02104
G1 X101.63 Y128.85 E0.02975
G1 X88.93 Y128.85 E0.4224
G1 X88.299 Y128.81 E0.02103
G1 X87.678 Y128.691 E0.02103
G1 X87.078 Y128.494 E0.021
G1 X86.506 Y128.223 E0.02105
G1 X85.974 Y127.883 E0.021
G1 X85.489 Y127.477 E0.02104
G1 X85.059 Y127.014 E0.02102
G1 X84.69 Y126.5 E0.02104
G1 X84.39 Y125.944 E0.02101
G1 X84.162 Y125.355 E0.02101
G1 X84.01 Y124.741 E0.02104
G1 X83.93 Y123.85 E0.02975
G1 X83.93 Y111.15 E0.4224
G1 X83.97 Y110.519 E0.02103
G1 X84.089 Y109.898 E0.02103
G1 X84.286 Y109.298 E0.021
G1 X84.557 Y108.726 E0.02105
G1 X84.897 Y108.194 E0.021
G1 X85.303 Y107.709 E0.02104
G1 X85.766 Y107.279 E0.02102
G0 F6000 X86.155 Y107.481
G1 F1200 X86.662 Y107.148 E0.02017
G1 X87.208 Y106.884 E0.02017
G1 X87.784 Y106.695 E0.02016
G1 X88.38 Y106.583 E0.02017
G1 X88.93 Y106.55 E0.01833
G1 X101.63 Y106.55 E0.4224
G1 X102.235 Y106.59 E0.02017
G1 X102.829 Y106.709 E0.02015
G1 X103.403 Y106.905 E0.02017
G1 X103.946 Y107.176 E0.02018
G1 X104.449 Y107.515 E0.02017
G1 X104.902 Y107.917 E0.02014
G1 X105.299 Y108.375 E0.02016
G1 X105.632 Y108.882 E0.02017
G1 X105.896 Y109.428 E0.02017
G1 X106.085 Y110.004 E0.02016
G1 X106.197 Y110.6 E0.02017
G1 X106.23 Y111.15 E0.01833
G1 X106.23 Y123.85 E0.4224
G1 X106.19 Y124.455 E0.02017
G1 X106.071 Y125.049 E0.02015
G1 X105.875 Y125.623 E0.02017
G1 X105.604 Y126.166 E0.02018
G1 X105.265 Y126.669 E0.02017
G1 X104.863 Y127.122 E0.02014
G1 X104.405 Y127.519 E0.02016
G1 X103.898 Y127.852 E0.02017
G1 X103.352 Y128.116 E0.02017
G1 X102.776 Y128.305 E0.02016
G1 X102.18 Y128.417 E0.02017
G1 X101.63 Y128.45 E0.01833
G1 X88.93 Y128.45 E0.4224
G1 X88.325 Y128.41 E0.02017
G1 X87.731 Y128.291 E0.02015
