;FLAVOR:Marlin
;TIME:5334
;Filament used: 3.50163m
;Layer height: 0.2
;MINX:103.35
;MINY:81.039
;MINZ:0.2
;MAXX:131.65
;MAXY:109.339
;MAXZ:50.8
;Generated with Cura_SteamEngine 4.8.0
M140 S100
M105
M190 S100
M104 S230
M105
M109 S230
M82 ;absolute extrusion mode
; Ender 3 Custom Start G-code
G92 E0 ; Reset Extruder
G28 ; Home all axes
G1 Z2.0 F3000 ; Move Z Axis up little to prevent scratching of Heat Bed
G1 X0.1 Y20 Z0.3 F5000.0 ; Move to start position
G1 X0.1 Y200.0 Z0.3 F1500.0 E15 ; Draw the first line
G1 X0.4 Y200.0 Z0.3 F5000.0 ; Move to side a little
G1 X0.4 Y20 Z0.3 F1500.0 E30 ; Draw the second line
G92 E0 ; Reset Extruder
G1 Z2.0 F3000 ; Move Z Axis up little to prevent scratching of Heat Bed
G1 X5 Y20 Z0.3 F5000.0 ; Move over to prevent blob squish
M83 ;relative extrusion mode
G1 F2700 E-5
;LAYER_COUNT:254
;LAYER:0
M107
M205 X8 Y8
G0 F6000 X105.23 Y83.761 Z0.2
;TYPE:SKIRT
G1 F2700 E5
G1 F1200 X105.773 Y83.188 E0.02626
G1 X106.372 Y82.673 E0.02627
G1 X107.02 Y82.222 E0.02626
G1 X107.711 Y81.838 E0.02629
G1 X108.436 Y81.526 E0.02625
G1 X109.189 Y81.289 E0.02626
G1 X109.963 Y81.13 E0.02628
G1 X110.748 Y81.049 E0.02625
G1 X111.15 Y81.039 E0.01337
G1 X123.85 Y81.039 E0.4224
G1 X124.639 Y81.079 E0.02628
G1 X125.419 Y81.198 E0.02624
G1 X126.184 Y81.396 E0.02628
G1 X126.924 Y81.67 E0.02625
G1 X127.633 Y82.018 E0.02627
G1 X128.304 Y82.436 E0.02629
G1 X128.928 Y82.919 E0.02625
G1 X129.501 Y83.462 E0.02626
G1 X130.016 Y84.061 E0.02627
G1 X130.467 Y84.709 E0.02626
G1 X130.851 Y85.4 E0.02629
G1 X131.163 Y86.125 E0.02625
G1 X131.4 Y86.878 E0.02626
G1 X131.559 Y87.652 E0.02628
G1 X131.64 Y88.437 E0.02625
G1 X131.65 Y88.839 E0.01337
G1 X131.65 Y101.539 E0.4224
G1 X131.61 Y102.328 E0.02628
G1 X131.491 Y103.108 E0.02624
G1 X131.293 Y103.873 E0.02628
G1 X131.019 Y104.613 E0.02625
G1 X130.671 Y105.322 E0.02627
G1 X130.253 Y105.993 E0.02629
G1 X129.77 Y106.617 E0.02625
G1 X129.227 Y107.19 E0.02626
G1 X128.628 Y107.705 E0.02627
G1 X127.98 Y108.156 E0.02626
G1 X127.289 Y108.54 E0.02629
G1 X126.564 Y108.852 E0.02625
G1 X125.811 Y109.089 E0.02626
G1 X125.037 Y109.248 E0.02628
G1 X124.252 Y109.329 E0.02625
G1 X123.85 Y109.339 E0.01337
G1 X111.15 Y109.339 E0.4224
G1 X110.361 Y109.299 E0.02628
G1 X109.581 Y109.18 E0.02624
G1 X108.816 Y108.982 E0.02628
G1 X108.076 Y108.708 E0.02625
G1 X107.367 Y108.36 E0.02627
G1 X106.696 Y107.942 E0.02629
G1 X106.072 Y107.459 E0.02625
G1 X105.499 Y106.916 E0.02626
G1 X104.984 Y106.317 E0.02627
G1 X104.533 Y105.669 E0.02626
G1 X104.149 Y104.978 E0.02629
G1 X103.837 Y104.253 E0.02625
G1 X103.6 Y103.5 E0.02626
G1 X103.441 Y102.726 E0.02628
G1 X103.36 Y101.941 E0.02625
G1 X103.35 Y101.539 E0.01337
G1 X103.35 Y88.839 E0.4224
G1 X103.39 Y88.05 E0.02628
G1 X103.509 Y87.27 E0.02624
G1 X103.707 Y86.505 E0.02628
G1 X103.981 Y85.765 E0.02625
G1 X104.329 Y85.056 E0.02627
G1 X104.747 Y84.385 E0.02629
G1 X105.23 Y83.761 E0.02625
G0 F6000 X105.625 Y83.916
G1 F1200 X106.166 Y83.369 E0.02559
G1 X106.761 Y82.881 E0.02559
G1 X107.403 Y82.458 E0.02557
G1 X108.086 Y82.103 E0.0256
G1 X108.801 Y81.822 E0.02555
G1 X109.543 Y81.616 E0.02561
G1 X110.301 Y81.488 E0.02557
G1 X111.15 Y81.439 E0.02828
G1 X123.85 Y81.439 E0.4224
G1 X124.618 Y81.479 E0.02558
G1 X125.378 Y81.598 E0.02559
G1 X126.121 Y81.796 E0.02557
G1 X126.84 Y82.07 E0.02559
G1 X127.526 Y82.417 E0.02557
G1 X128.173 Y82.833 E0.02558
G1 X128.773 Y83.314 E0.02558
G1 X129.32 Y83.855 E0.02559
G1 X129.808 Y84.45 E0.02559
G1 X130.231 Y85.092 E0.02557
G1 X130.586 Y85.775 E0.0256
G1 X130.867 Y86.49 E0.02555
G1 X131.073 Y87.232 E0.02561
G1 X131.201 Y87.99 E0.02557
G1 X131.25 Y88.839 E0.02828
G1 X131.25 Y101.539 E0.4224
G1 X131.21 Y102.307 E0.02558
G1 X131.091 Y103.067 E0.02559
G1 X130.893 Y103.81 E0.02557
G1 X130.619 Y104.529 E0.02559
G1 X130.272 Y105.215 E0.02557
G1 X129.856 Y105.862 E0.02558
G1 X129.375 Y106.462 E0.02558
G1 X128.834 Y107.009 E0.02559
G1 X128.239 Y107.497 E0.02559
G1 X127.597 Y107.92 E0.02557
G1 X126.914 Y108.275 E0.0256
G1 X126.199 Y108.556 E0.02555
G1 X125.457 Y108.762 E0.02561
G1 X124.699 Y108.89 E0.02557
G1 X123.85 Y108.939 E0.02828
G1 X111.15 Y108.939 E0.4224
G1 X110.382 Y108.899 E0.02558
G1 X109.622 Y108.78 E0.02559
G1 X108.879 Y108.582 E0.02557
G1 X108.16 Y108.308 E0.02559
G1 X107.474 Y107.961 E0.02557
G1 X106.827 Y107.545 E0.02558
G1 X106.227 Y107.064 E0.02558
G1 X105.68 Y106.523 E0.02559
G1 X105.192 Y105.928 E0.02559
G1 X104.769 Y105.286 E0.02557
G1 X104.414 Y104.603 E0.0256
G1 X104.133 Y103.888 E0.02555
G1 X103.927 Y103.146 E0.02561
G1 X103.799 Y102.388 E0.02557
G1 X103.75 Y101.539 E0.02828
G1 X103.75 Y88.839 E0.4224
G1 X103.79 Y88.071 E0.02558
G1 X103.909 Y87.311 E0.02559
G1 X104.107 Y86.568 E0.02557
G1 X104.381 Y85.849 E0.02559
G1 X104.728 Y85.163 E0.02557
G1 X105.144 Y84.516 E0.02558
G1 X105.625 Y83.916 E0.02558
G0 F6000 X106.021 Y84.076
G1 F1200 X106.558 Y83.555 E0.02489
G1 X107.148 Y83.096 E0.02486
G1 X107.784 Y82.701 E0.0249
G1 X108.458 Y82.377 E0.02487
G1 X109.163 Y82.127 E0.02488
G1 X109.891 Y81.953 E0.0249
G1 X110.633 Y81.858 E0.02488
G1 X111.15 Y81.839 E0.01721
G1 X123.85 Y81.839 E0.4224
G1 X124.597 Y81.879 E0.02488
G1 X125.335 Y81.998 E0.02486
G1 X126.057 Y82.196 E0.0249
G1 X126.753 Y82.469 E0.02487
G1 X127.416 Y82.816 E0.02489
G1 X128.039 Y83.231 E0.0249
G1 X128.613 Y83.71 E0.02487
G1 X129.134 Y84.247 E0.02489
G1 X129.593 Y84.837 E0.02486
G1 X129.988 Y85.473 E0.0249
G1 X130.312 Y86.147 E0.02487
G1 X130.562 Y86.852 E0.02488
G1 X130.736 Y87.58 E0.0249
G1 X130.831 Y88.322 E0.02488
G1 X130.85 Y88.839 E0.01721
G1 X130.85 Y101.539 E0.4224
G1 X130.81 Y102.286 E0.02488
G1 X130.691 Y103.024 E0.02486
G1 X130.493 Y103.746 E0.0249
G1 X130.22 Y104.442 E0.02487
G1 X129.873 Y105.105 E0.02489
G1 X129.458 Y105.728 E0.0249
G1 X128.979 Y106.302 E0.02487
G1 X128.442 Y106.823 E0.02489
G1 X127.852 Y107.282 E0.02486
G1 X127.216 Y107.677 E0.0249
G1 X126.542 Y108.001 E0.02487
G1 X125.837 Y108.251 E0.02488
G1 X125.109 Y108.425 E0.0249
G1 X124.367 Y108.52 E0.02488
G1 X123.85 Y108.539 E0.01721
G1 X111.15 Y108.539 E0.4224
G1 X110.403 Y108.499 E0.02488
G1 X109.665 Y108.38 E0.02486
G1 X108.943 Y108.182 E0.0249
G1 X108.247 Y107.909 E0.02487
G1 X107.584 Y107.562 E0.02489
G1 X106.961 Y107.147 E0.0249
G1 X106.387 Y106.668 E0.02487
G1 X105.866 Y106.131 E0.02489
G1 X105.407 Y105.541 E0.02486
G1 X105.012 Y104.905 E0.0249
G1 X104.688 Y104.231 E0.02487
G1 X104.438 Y103.526 E0.02488
G1 X104.264 Y102.798 E0.0249
G1 X104.169 Y102.056 E0.02488
G1 X104.15 Y101.539 E0.01721
G1 X104.15 Y88.839 E0.4224
G1 X104.19 Y88.092 E0.02488
G1 X104.309 Y87.354 E0.02486
G1 X104.507 Y86.632 E0.0249
G1 X104.78 Y85.936 E0.02487
G1 X105.127 Y85.273 E0.02489
G1 X105.542 Y84.65 E0.0249
G1 X106.021 Y84.076 E0.02487
G0 F6000 X105.939 Y84.789
G1 F1200 X106.415 Y84.241 E0.02414
G1 X106.949 Y83.748 E0.02417
G1 X107.534 Y83.318 E0.02415
G1 X108.163 Y82.954 E0.02417
G1 X108.828 Y82.661 E0.02417
G1 X109.521 Y82.443 E0.02416
G1 X110.233 Y82.303 E0.02413
G1 X111.15 Y82.239 E0.03057
G1 X123.85 Y82.239 E0.4224
G1 X124.575 Y82.279 E0.02415
G1 X125.292 Y82.398 E0.02417
G1 X125.991 Y82.596 E0.02416
G1 X126.664 Y82.869 E0.02416
G1 X127.303 Y83.214 E0.02415
G1 X127.9 Y83.628 E0.02416
G1 X128.448 Y84.104 E0.02414
G1 X128.941 Y84.638 E0.02417
G1 X129.371 Y85.223 E0.02415
G1 X129.735 Y85.852 E0.02417
G1 X130.028 Y86.517 E0.02417
G1 X130.246 Y87.21 E0.02416
G1 X130.386 Y87.922 E0.02413
G1 X130.45 Y88.839 E0.03057
G1 X130.45 Y101.539 E0.4224
G1 X130.41 Y102.264 E0.02415
G1 X130.291 Y102.981 E0.02417
G1 X130.093 Y103.68 E0.02416
G1 X129.82 Y104.353 E0.02416
G1 X129.475 Y104.992 E0.02415
G1 X129.061 Y105.589 E0.02416
G1 X128.585 Y106.137 E0.02414
G1 X128.051 Y106.63 E0.02417
G1 X127.466 Y107.06 E0.02415
G1 X126.837 Y107.424 E0.02417
G1 X126.172 Y107.717 E0.02417
G1 X125.479 Y107.935 E0.02416
G1 X124.767 Y108.075 E0.02413
G1 X123.85 Y108.139 E0.03057
G1 X111.15 Y108.139 E0.4224
G1 X110.425 Y108.099 E0.02415
G1 X109.708 Y107.98 E0.02417
G1 X109.009 Y107.782 E0.02416
G1 X108.336 Y107.509 E0.02416
G1 X107.697 Y107.164 E0.02415
G1 X107.1 Y106.75 E0.02416
G1 X106.552 Y106.274 E0.02414
G1 X106.059 Y105.74 E0.02417
G1 X105.629 Y105.155 E0.02415
G1 X105.265 Y104.526 E0.02417
G1 X104.972 Y103.861 E0.02417
G1 X104.754 Y103.168 E0.02416
G1 X104.614 Y102.456 E0.02413
G1 X104.55 Y101.539 E0.03057
G1 X104.55 Y88.839 E0.4224
G1 X104.59 Y88.114 E0.02415
G1 X104.709 Y87.397 E0.02417
G1 X104.907 Y86.698 E0.02416
G1 X105.18 Y86.025 E0.02416
G1 X105.525 Y85.386 E0.02415
G1 X105.939 Y84.789 E0.02416
G0 F6000 X106.335 Y84.933
G1 F1200 X106.809 Y84.412 E0.02343
G1 X107.339 Y83.948 E0.02343
G1 X107.918 Y83.548 E0.02341
G1 X108.539 Y83.216 E0.02342
G1 X109.193 Y82.956 E0.02341
G1 X109.873 Y82.772 E0.02343
G1 X110.569 Y82.666 E0.02342
G1 X111.15 Y82.639 E0.01934
G1 X123.85 Y82.639 E0.4224
G1 X124.553 Y82.679 E0.02342
G1 X125.247 Y82.798 E0.02342
G1 X125.922 Y82.996 E0.0234
G1 X126.571 Y83.268 E0.0234
G1 X127.185 Y83.613 E0.02342
G1 X127.756 Y84.024 E0.0234
G1 X128.277 Y84.498 E0.02343
G1 X128.741 Y85.028 E0.02343
G1 X129.141 Y85.607 E0.02341
G1 X129.473 Y86.228 E0.02342
G1 X129.733 Y86.882 E0.02341
G1 X129.917 Y87.562 E0.02343
G1 X130.023 Y88.258 E0.02342
G1 X130.05 Y88.839 E0.01934
G1 X130.05 Y101.539 E0.4224
G1 X130.01 Y102.242 E0.02342
G1 X129.891 Y102.936 E0.02342
G1 X129.693 Y103.611 E0.0234
G1 X129.421 Y104.26 E0.0234
G1 X129.076 Y104.874 E0.02342
G1 X128.665 Y105.445 E0.0234
G1 X128.191 Y105.966 E0.02343
G1 X127.661 Y106.43 E0.02343
G1 X127.082 Y106.83 E0.02341
G1 X126.461 Y107.162 E0.02342
G1 X125.807 Y107.422 E0.02341
G1 X125.127 Y107.606 E0.02343
G1 X124.431 Y107.712 E0.02342
G1 X123.85 Y107.739 E0.01934
G1 X111.15 Y107.739 E0.4224
G1 X110.447 Y107.699 E0.02342
G1 X109.753 Y107.58 E0.02342
G1 X109.078 Y107.382 E0.0234
G1 X108.429 Y107.11 E0.0234
G1 X107.815 Y106.765 E0.02342
G1 X107.244 Y106.354 E0.0234
G1 X106.723 Y105.88 E0.02343
G1 X106.259 Y105.35 E0.02343
G1 X105.859 Y104.771 E0.02341
G1 X105.527 Y104.15 E0.02342
G1 X105.267 Y103.496 E0.02341
G1 X105.083 Y102.816 E0.02343
G1 X104.977 Y102.12 E0.02342
G1 X104.95 Y101.539 E0.01934
G1 X104.95 Y88.839 E0.4224
G1 X104.99 Y88.136 E0.02342
G1 X105.109 Y87.442 E0.02342
G1 X105.307 Y86.767 E0.0234
G1 X105.579 Y86.118 E0.0234
G1 X105.924 Y85.504 E0.02342
G1 X106.335 Y84.933 E0.0234
G0 F6000 X106.732 Y85.081
G1 F1200 X107.203 Y84.59 E0.02263
G1 X107.728 Y84.156 E0.02266
G1 X108.3 Y83.787 E0.02264
G1 X108.912 Y83.488 E0.02265
G1 X109.554 Y83.263 E0.02263
G1 X110.219 Y83.114 E0.02267
G1 X111.15 Y83.039 E0.03107
G1 X123.85 Y83.039 E0.4224
G1 X124.53 Y83.079 E0.02266
G1 X125.2 Y83.198 E0.02263
G1 X125.852 Y83.395 E0.02265
G1 X126.476 Y83.667 E0.02264
G1 X127.064 Y84.011 E0.02266
G1 X127.608 Y84.421 E0.02266
G1 X128.099 Y84.892 E0.02263
G1 X128.533 Y85.417 E0.02266
G1 X128.902 Y85.989 E0.02264
G1 X129.201 Y86.601 E0.02265
G1 X129.426 Y87.243 E0.02263
G1 X129.575 Y87.908 E0.02267
G1 X129.65 Y88.839 E0.03107
G1 X129.65 Y101.539 E0.4224
G1 X129.61 Y102.219 E0.02266
G1 X129.491 Y102.889 E0.02263
G1 X129.294 Y103.541 E0.02265
G1 X129.022 Y104.165 E0.02264
G1 X128.678 Y104.753 E0.02266
G1 X128.268 Y105.297 E0.02266
G1 X127.797 Y105.788 E0.02263
G1 X127.272 Y106.222 E0.02266
G1 X126.7 Y106.591 E0.02264
G1 X126.088 Y106.89 E0.02265
G1 X125.446 Y107.115 E0.02263
G1 X124.781 Y107.264 E0.02267
G1 X123.85 Y107.339 E0.03107
G1 X111.15 Y107.339 E0.4224
G1 X110.47 Y107.299 E0.02266
G1 X109.8 Y107.18 E0.02263
G1 X109.148 Y106.983 E0.02265
G1 X108.524 Y106.711 E0.02264
G1 X107.936 Y106.367 E0.02266
G1 X107.392 Y105.957 E0.02266
G1 X106.901 Y105.486 E0.02263
G1 X106.467 Y104.961 E0.02266
G1 X106.098 Y104.389 E0.02264
G1 X105.799 Y103.777 E0.02265
G1 X105.574 Y103.135 E0.02263
G1 X105.425 Y102.47 E0.02267
G1 X105.35 Y101.539 E0.03107
G1 X105.35 Y88.839 E0.4224
G1 X105.39 Y88.159 E0.02266
G1 X105.509 Y87.489 E0.02263
G1 X105.706 Y86.837 E0.02265
G1 X105.978 Y86.213 E0.02264
G1 X106.322 Y85.625 E0.02266
G1 X106.732 Y85.081 E0.02266
G0 F6000 X107.128 Y85.236
G1 F1200 X107.595 Y84.774 E0.02185
G1 X108.115 Y84.373 E0.02184
G1 X108.679 Y84.037 E0.02184
G1 X109.281 Y83.773 E0.02186
G1 X109.91 Y83.583 E0.02185
G1 X110.557 Y83.472 E0.02183
G1 X111.15 Y83.439 E0.01975
G1 X123.85 Y83.439 E0.4224
G1 X124.506 Y83.479 E0.02186
G1 X125.152 Y83.598 E0.02185
G1 X125.779 Y83.795 E0.02186
G1 X126.377 Y84.067 E0.02185
G1 X126.938 Y84.409 E0.02185
G1 X127.453 Y84.817 E0.02185
G1 X127.915 Y85.284 E0.02185
G1 X128.316 Y85.804 E0.02184
G1 X128.652 Y86.368 E0.02184
G1 X128.916 Y86.97 E0.02186
G1 X129.106 Y87.599 E0.02185
G1 X129.217 Y88.246 E0.02183
G1 X129.25 Y88.839 E0.01975
G1 X129.25 Y101.539 E0.4224
G1 X129.21 Y102.195 E0.02186
G1 X129.091 Y102.841 E0.02185
G1 X128.894 Y103.468 E0.02186
G1 X128.622 Y104.066 E0.02185
G1 X128.28 Y104.627 E0.02185
G1 X127.872 Y105.142 E0.02185
G1 X127.405 Y105.604 E0.02185
G1 X126.885 Y106.005 E0.02184
G1 X126.321 Y106.341 E0.02184
G1 X125.719 Y106.605 E0.02186
G1 X125.09 Y106.795 E0.02185
G1 X124.443 Y106.906 E0.02183
G1 X123.85 Y106.939 E0.01975
G1 X111.15 Y106.939 E0.4224
G1 X110.494 Y106.899 E0.02186
G1 X109.848 Y106.78 E0.02185
G1 X109.221 Y106.583 E0.02186
G1 X108.623 Y106.311 E0.02185
G1 X108.062 Y105.969 E0.02185
G1 X107.547 Y105.561 E0.02185
G1 X107.085 Y105.094 E0.02185
G1 X106.684 Y104.574 E0.02184
G1 X106.348 Y104.01 E0.02184
G1 X106.084 Y103.408 E0.02186
G1 X105.894 Y102.779 E0.02185
G1 X105.783 Y102.132 E0.02183
G1 X105.75 Y101.539 E0.01975
G1 X105.75 Y88.839 E0.4224
G1 X105.79 Y88.183 E0.02186
G1 X105.909 Y87.537 E0.02185
G1 X106.106 Y86.91 E0.02186
G1 X106.378 Y86.312 E0.02185
G1 X106.72 Y85.751 E0.02185
G1 X107.128 Y85.236 E0.02185
G0 F6000 X107.523 Y85.398
G1 F1200 X107.986 Y84.968 E0.02102
G1 X108.5 Y84.599 E0.02104
G1 X109.056 Y84.299 E0.02101
G1 X109.645 Y84.071 E0.02101
G1 X110.259 Y83.919 E0.02104
G1 X111.15 Y83.839 E0.02975
G1 X123.85 Y83.839 E0.4224
G1 X124.481 Y83.879 E0.02103
G1 X125.102 Y83.998 E0.02103
G1 X125.702 Y84.195 E0.021
G1 X126.274 Y84.466 E0.02105
G1 X126.806 Y84.806 E0.021
G1 X127.291 Y85.212 E0.02104
G1 X127.721 Y85.675 E0.02102
G1 X128.09 Y86.189 E0.02104
G1 X128.39 Y86.745 E0.02101
G1 X128.618 Y87.334 E0.02101
G1 X128.77 Y87.948 E0.02104
G1 X128.85 Y88.839 E0.02975
G1 X128.85 Y101.539 E0.4224
G1 X128.81 Y102.17 E0.02103
G1 X128.691 Y102.791 E0.02103
G1 X128.494 Y103.391 E0.021
G1 X128.223 Y103.963 E0.02105
G1 X127.883 Y104.495 E0.021
G1 X127.477 Y104.98 E0.02104
G1 X127.014 Y105.41 E0.02102
G1 X126.5 Y105.779 E0.02104
G1 X125.944 Y106.079 E0.02101
G1 X125.355 Y106.307 E0.02101
G1 X124.741 Y106.459 E0.02104
G1 X123.85 Y106.539 E0.02975
G1 X111.15 Y106.539 E0.4224
G1 X110.519 Y106.499 E0.02103
G1 X109.898 Y106.38 E0.02103
G1 X109.298 Y106.183 E0.021
G1 X108.726 Y105.912 E0.02105
G1 X108.194 Y105.572 E0.021
G1 X107.709 Y105.166 E0.02104
G1 X107.279 Y104.703 E0.02102
G1 X106.91 Y104.189 E0.02104
G1 X106.61 Y103.633 E0.02101
G1 X106.382 Y103.044 E0.02101
G1 X106.23 Y102.43 E0.02104
G1 X106.15 Y101.539 E0.02975
G1 X106.15 Y88.839 E0.4224
G1 X106.19 Y88.208 E0.02103
G1 X106.309 Y87.587 E0.02103
G1 X106.506 Y86.987 E0.021
G1 X106.777 Y86.415 E0.02105
G1 X107.117 Y85.883 E0.021
G1 X107.523 Y85.398 E0.02104
G0 F6000 X107.515 Y86.02
G1 F1200 X107.917 Y85.567 E0.02014
G1 X108.375 Y85.17 E0.02016
G1 X108.882 Y84.837 E0.02017
G1 X109.428 Y84.573 E0.02017
G1 X110.004 Y84.384 E0.02016
G1 X110.6 Y84.272 E0.02017
G1 X111.15 Y84.239 E0.01833
G1 X123.85 Y84.239 E0.4224
G1 X124.455 Y84.279 E0.02017
G1 X125.049 Y84.398 E0.02015
G1 X125.623 Y84.594 E0.02017
G1 X126.166 Y84.865 E0.02018
G1 X126.669 Y85.204 E0.02017
G1 X127.122 Y85.606 E0.02014
G1 X127.519 Y86.064 E0.02016
G1 X127.852 Y86.571 E0.02017
G1 X128.116 Y87.117 E0.02017
G1 X128.305 Y87.693 E0.02016
G1 X128.417 Y88.289 E0.02017
G1 X128.45 Y88.839 E0.01833
G1 X128.45 Y101.539 E0.4224
G1 X128.41 Y102.144 E0.02017
G1 X128.291 Y102.738 E0.02015
G1 X128.095 Y103.312 E0.02017
G1 X127.824 Y103.855 E0.02018
G1 X127.485 Y104.358 E0.02017
G1 X127.083 Y104.811 E0.02014
G1 X126.625 Y105.208 E0.02016
G1 X126.118 Y105.541 E0.02017
G1 X125.572 Y105.805 E0.02017
G1 X124.996 Y105.994 E0.02016
G1 X124.4 Y106.106 E0.02017
