;FLAVOR:Marlin
;TIME:5353
;Filament used: 3.50141m
;Layer height: 0.2
;MINX:121.97
;MINY:103.35
;MINZ:0.2
;MAXX:150.27
;MAXY:131.65
;MAXZ:50.8
;Generated with Cura_SteamEngine 4.8.0
M140 S100
M105
M190 S100
M104 S230
M105
M109 S230
M82 ;absolute extrusion mode
; Ender 3 Custom Start G-code
G92 E0 ; Reset Extruder
G28 ; Home all axes
G1 Z2.0 F3000 ; Move Z Axis up little to prevent scratching of Heat Bed
G1 X0.1 Y20 Z0.3 F5000.0 ; Move to start position
G1 X0.1 Y200.0 Z0.3 F1500.0 E15 ; Draw the first line
G1 X0.4 Y200.0 Z0.3 F5000.0 ; Move to side a little
G1 X0.4 Y20 Z0.3 F1500.0 E30 ; Draw the second line
G92 E0 ; Reset Extruder
G1 Z2.0 F3000 ; Move Z Axis up little to prevent scratching of Heat Bed
G1 X5 Y20 Z0.3 F5000.0 ; Move over to prevent blob squish
M83 ;relative extrusion mode
G1 F2700 E-5
;LAYER_COUNT:254
;LAYER:0
M107
M205 X8 Y8
G0 F6000 X123.85 Y106.072 Z0.2
;TYPE:SKIRT
G1 F2700 E5
G1 F1200 X124.393 Y105.499 E0.02626
G1 X124.992 Y104.984 E0.02627
G1 X125.64 Y104.533 E0.02626
G1 X126.331 Y104.149 E0.02629
G1 X127.056 Y103.837 E0.02625
G1 X127.809 Y103.6 E0.02626
G1 X128.583 Y103.441 E0.02628
G1 X129.368 Y103.36 E0.02625
G1 X129.77 Y103.35 E0.01337
G1 X142.47 Y103.35 E0.4224
G1 X143.259 Y103.39 E0.02628
G1 X144.039 Y103.509 E0.02624
G1 X144.804 Y103.707 E0.02628
G1 X145.544 Y103.981 E0.02625
G1 X146.253 Y104.329 E0.02627
G1 X146.924 Y104.747 E0.02629
G1 X147.548 Y105.23 E0.02625
G1 X148.121 Y105.773 E0.02626
G1 X148.636 Y106.372 E0.02627
G1 X149.087 Y107.02 E0.02626
G1 X149.471 Y107.711 E0.02629
G1 X149.783 Y108.436 E0.02625
G1 X150.02 Y109.189 E0.02626
G1 X150.179 Y109.963 E0.02628
G1 X150.26 Y110.748 E0.02625
G1 X150.27 Y111.15 E0.01337
G1 X150.27 Y123.85 E0.4224
G1 X150.23 Y124.639 E0.02628
G1 X150.111 Y125.419 E0.02624
G1 X149.913 Y126.184 E0.02628
G1 X149.639 Y126.924 E0.02625
G1 X149.291 Y127.633 E0.02627
G1 X148.873 Y128.304 E0.02629
G1 X148.39 Y128.928 E0.02625
G1 X147.847 Y129.501 E0.02626
G1 X147.248 Y130.016 E0.02627
G1 X146.6 Y130.467 E0.02626
G1 X145.909 Y130.851 E0.02629
G1 X145.184 Y131.163 E0.02625
G1 X144.431 Y131.4 E0.02626
G1 X143.657 Y131.559 E0.02628
G1 X142.872 Y131.64 E0.02625
G1 X142.47 Y131.65 E0.01337
G1 X129.77 Y131.65 E0.4224
G1 X128.981 Y131.61 E0.02628
G1 X128.201 Y131.491 E0.02624
G1 X127.436 Y131.293 E0.02628
G1 X126.696 Y131.019 E0.02625
G1 X125.987 Y130.671 E0.02627
G1 X125.316 Y130.253 E0.02629
G1 X124.692 Y129.77 E0.02625
G1 X124.119 Y129.227 E0.02626
G1 X123.604 Y128.628 E0.02627
G1 X123.153 Y127.98 E0.02626
G1 X122.769 Y127.289 E0.02629
G1 X122.457 Y126.564 E0.02625
G1 X122.22 Y125.811 E0.02626
G1 X122.061 Y125.037 E0.02628
G1 X121.98 Y124.252 E0.02625
G1 X121.97 Y123.85 E0.01337
G1 X121.97 Y111.15 E0.4224
G1 X122.01 Y110.361 E0.02628
G1 X122.129 Y109.581 E0.02624
G1 X122.327 Y108.816 E0.02628
G1 X122.601 Y108.076 E0.02625
G1 X122.949 Y107.367 E0.02627
G1 X123.367 Y106.696 E0.02629
G1 X123.85 Y106.072 E0.02625
G0 F6000 X124.245 Y106.227
G1 F1200 X124.786 Y105.68 E0.02559
G1 X125.381 Y105.192 E0.02559
G1 X126.023 Y104.769 E0.02557
G1 X126.706 Y104.414 E0.0256
G1 X127.421 Y104.133 E0.02555
G1 X128.163 Y103.927 E0.02561
G1 X128.921 Y103.799 E0.02557
G1 X129.77 Y103.75 E0.02828
G1 X142.47 Y103.75 E0.4224
G1 X143.238 Y103.79 E0.02558
G1 X143.998 Y103.909 E0.02559
G1 X144.741 Y104.107 E0.02557
G1 X145.46 Y104.381 E0.02559
G1 X146.146 Y104.728 E0.02557
G1 X146.793 Y105.144 E0.02558
G1 X147.393 Y105.625 E0.02558
G1 X147.94 Y106.166 E0.02559
G1 X148.428 Y106.761 E0.02559
G1 X148.851 Y107.403 E0.02557
G1 X149.206 Y108.086 E0.0256
G1 X149.487 Y108.801 E0.02555
G1 X149.693 Y109.543 E0.02561
G1 X149.821 Y110.301 E0.02557
G1 X149.87 Y111.15 E0.02828
G1 X149.87 Y123.85 E0.4224
G1 X149.83 Y124.618 E0.02558
G1 X149.711 Y125.378 E0.02559
G1 X149.513 Y126.121 E0.02557
G1 X149.239 Y126.84 E0.02559
G1 X148.892 Y127.526 E0.02557
G1 X148.476 Y128.173 E0.02558
G1 X147.995 Y128.773 E0.02558
G1 X147.454 Y129.32 E0.02559
G1 X146.859 Y129.808 E0.02559
G1 X146.217 Y130.231 E0.02557
G1 X145.534 Y130.586 E0.0256
G1 X144.819 Y130.867 E0.02555
G1 X144.077 Y131.073 E0.02561
G1 X143.319 Y131.201 E0.02557
G1 X142.47 Y131.25 E0.02828
G1 X129.77 Y131.25 E0.4224
G1 X129.002 Y131.21 E0.02558
G1 X128.242 Y131.091 E0.02559
G1 X127.499 Y130.893 E0.02557
G1 X126.78 Y130.619 E0.02559
G1 X126.094 Y130.272 E0.02557
G1 X125.447 Y129.856 E0.02558
G1 X124.847 Y129.375 E0.02558
G1 X124.3 Y128.834 E0.02559
G1 X123.812 Y128.239 E0.02559
G1 X123.389 Y127.597 E0.02557
G1 X123.034 Y126.914 E0.0256
G1 X122.753 Y126.199 E0.02555
G1 X122.547 Y125.457 E0.02561
G1 X122.419 Y124.699 E0.02557
G1 X122.37 Y123.85 E0.02828
G1 X122.37 Y111.15 E0.4224
G1 X122.41 Y110.382 E0.02558
G1 X122.529 Y109.622 E0.02559
G1 X122.727 Y108.879 E0.02557
G1 X123.001 Y108.16 E0.02559
G1 X123.348 Y107.474 E0.02557
G1 X123.764 Y106.827 E0.02558
G1 X124.245 Y106.227 E0.02558
G0 F6000 X124.641 Y106.387
G1 F1200 X125.178 Y105.866 E0.02489
G1 X125.768 Y105.407 E0.02486
G1 X126.404 Y105.012 E0.0249
G1 X127.078 Y104.688 E0.02487
G1 X127.783 Y104.438 E0.02488
G1 X128.511 Y104.264 E0.0249
G1 X129.253 Y104.169 E0.02488
G1 X129.77 Y104.15 E0.01721
G1 X142.47 Y104.15 E0.4224
G1 X143.217 Y104.19 E0.02488
G1 X143.955 Y104.309 E0.02486
G1 X144.677 Y104.507 E0.0249
G1 X145.373 Y104.78 E0.02487
G1 X146.036 Y105.127 E0.02489
G1 X146.659 Y105.542 E0.0249
G1 X147.233 Y106.021 E0.02487
G1 X147.754 Y106.558 E0.02489
G1 X148.213 Y107.148 E0.02486
G1 X148.608 Y107.784 E0.0249
G1 X148.932 Y108.458 E0.02487
G1 X149.182 Y109.163 E0.02488
G1 X149.356 Y109.891 E0.0249
G1 X149.451 Y110.633 E0.02488
G1 X149.47 Y111.15 E0.01721
G1 X149.47 Y123.85 E0.4224
G1 X149.43 Y124.597 E0.02488
G1 X149.311 Y125.335 E0.02486
G1 X149.113 Y126.057 E0.0249
G1 X148.84 Y126.753 E0.02487
G1 X148.493 Y127.416 E0.02489
G1 X148.078 Y128.039 E0.0249
G1 X147.599 Y128.613 E0.02487
G1 X147.062 Y129.134 E0.02489
G1 X146.472 Y129.593 E0.02486
G1 X145.836 Y129.988 E0.0249
G1 X145.162 Y130.312 E0.02487
G1 X144.457 Y130.562 E0.02488
G1 X143.729 Y130.736 E0.0249
G1 X142.987 Y130.831 E0.02488
G1 X142.47 Y130.85 E0.01721
G1 X129.77 Y130.85 E0.4224
G1 X129.023 Y130.81 E0.02488
G1 X128.285 Y130.691 E0.02486
G1 X127.563 Y130.493 E0.0249
G1 X126.867 Y130.22 E0.02487
G1 X126.204 Y129.873 E0.02489
G1 X125.581 Y129.458 E0.0249
G1 X125.007 Y128.979 E0.02487
G1 X124.486 Y128.442 E0.02489
G1 X124.027 Y127.852 E0.02486
G1 X123.632 Y127.216 E0.0249
G1 X123.308 Y126.542 E0.02487
G1 X123.058 Y125.837 E0.02488
G1 X122.884 Y125.109 E0.0249
G1 X122.789 Y124.367 E0.02488
G1 X122.77 Y123.85 E0.01721
G1 X122.77 Y111.15 E0.4224
G1 X122.81 Y110.403 E0.02488
G1 X122.929 Y109.665 E0.02486
G1 X123.127 Y108.943 E0.0249
G1 X123.4 Y108.247 E0.02487
G1 X123.747 Y107.584 E0.02489
G1 X124.162 Y106.961 E0.0249
G1 X124.641 Y106.387 E0.02487
G0 F6000 X124.559 Y107.1
G1 F1200 X125.035 Y106.552 E0.02414
G1 X125.569 Y106.059 E0.02417
G1 X126.154 Y105.629 E0.02415
G1 X126.783 Y105.265 E0.02417
G1 X127.448 Y104.972 E0.02417
G1 X128.141 Y104.754 E0.02416
G1 X128.853 Y104.614 E0.02413
G1 X129.77 Y104.55 E0.03057
G1 X142.47 Y104.55 E0.4224
G1 X143.195 Y104.59 E0.02415
G1 X143.912 Y104.709 E0.02417
G1 X144.611 Y104.907 E0.02416
G1 X145.284 Y105.18 E0.02416
G1 X145.923 Y105.525 E0.02415
G1 X146.52 Y105.939 E0.02416
G1 X147.068 Y106.415 E0.02414
G1 X147.561 Y106.949 E0.02417
G1 X147.991 Y107.534 E0.02415
G1 X148.355 Y108.163 E0.02417
G1 X148.648 Y108.828 E0.02417
G1 X148.866 Y109.521 E0.02416
G1 X149.006 Y110.233 E0.02413
G1 X149.07 Y111.15 E0.03057
G1 X149.07 Y123.85 E0.4224
G1 X149.03 Y124.575 E0.02415
G1 X148.911 Y125.292 E0.02417
G1 X148.713 Y125.991 E0.02416
G1 X148.44 Y126.664 E0.02416
G1 X148.095 Y127.303 E0.02415
G1 X147.681 Y127.9 E0.02416
G1 X147.205 Y128.448 E0.02414
G1 X146.671 Y128.941 E0.02417
G1 X146.086 Y129.371 E0.02415
G1 X145.457 Y129.735 E0.02417
G1 X144.792 Y130.028 E0.02417
G1 X144.099 Y130.246 E0.02416
G1 X143.387 Y130.386 E0.02413
G1 X142.47 Y130.45 E0.03057
G1 X129.77 Y130.45 E0.4224
G1 X129.045 Y130.41 E0.02415
G1 X128.328 Y130.291 E0.02417
G1 X127.629 Y130.093 E0.02416
G1 X126.956 Y129.82 E0.02416
G1 X126.317 Y129.475 E0.02415
G1 X125.72 Y129.061 E0.02416
G1 X125.172 Y128.585 E0.02414
G1 X124.679 Y128.051 E0.02417
G1 X124.249 Y127.466 E0.02415
G1 X123.885 Y126.837 E0.02417
G1 X123.592 Y126.172 E0.02417
G1 X123.374 Y125.479 E0.02416
G1 X123.234 Y124.767 E0.02413
G1 X123.17 Y123.85 E0.03057
G1 X123.17 Y111.15 E0.4224
G1 X123.21 Y110.425 E0.02415
G1 X123.329 Y109.708 E0.02417
G1 X123.527 Y109.009 E0.02416
G1 X123.8 Y108.336 E0.02416
G1 X124.145 Y107.697 E0.02415
G1 X124.559 Y107.1 E0.02416
G0 F6000 X124.955 Y107.244
G1 F1200 X125.429 Y106.723 E0.02343
G1 X125.959 Y106.259 E0.02343
G1 X126.538 Y105.859 E0.02341
G1 X127.159 Y105.527 E0.02342
G1 X127.813 Y105.267 E0.02341
G1 X128.493 Y105.083 E0.02343
G1 X129.189 Y104.977 E0.02342
G1 X129.77 Y104.95 E0.01934
G1 X142.47 Y104.95 E0.4224
G1 X143.173 Y104.99 E0.02342
G1 X143.867 Y105.109 E0.02342
G1 X144.542 Y105.307 E0.0234
G1 X145.191 Y105.579 E0.0234
G1 X145.805 Y105.924 E0.02342
G1 X146.376 Y106.335 E0.0234
G1 X146.897 Y106.809 E0.02343
G1 X147.361 Y107.339 E0.02343
G1 X147.761 Y107.918 E0.02341
G1 X148.093 Y108.539 E0.02342
G1 X148.353 Y109.193 E0.02341
G1 X148.537 Y109.873 E0.02343
G1 X148.643 Y110.569 E0.02342
G1 X148.67 Y111.15 E0.01934
G1 X148.67 Y123.85 E0.4224
G1 X148.63 Y124.553 E0.02342
G1 X148.511 Y125.247 E0.02342
G1 X148.313 Y125.922 E0.0234
G1 X148.041 Y126.571 E0.0234
G1 X147.696 Y127.185 E0.02342
G1 X147.285 Y127.756 E0.0234
G1 X146.811 Y128.277 E0.02343
G1 X146.281 Y128.741 E0.02343
G1 X145.702 Y129.141 E0.02341
G1 X145.081 Y129.473 E0.02342
G1 X144.427 Y129.733 E0.02341
G1 X143.747 Y129.917 E0.02343
G1 X143.051 Y130.023 E0.02342
G1 X142.47 Y130.05 E0.01934
G1 X129.77 Y130.05 E0.4224
G1 X129.067 Y130.01 E0.02342
G1 X128.373 Y129.891 E0.02342
G1 X127.698 Y129.693 E0.0234
G1 X127.049 Y129.421 E0.0234
G1 X126.435 Y129.076 E0.02342
G1 X125.864 Y128.665 E0.0234
G1 X125.343 Y128.191 E0.02343
G1 X124.879 Y127.661 E0.02343
G1 X124.479 Y127.082 E0.02341
G1 X124.147 Y126.461 E0.02342
G1 X123.887 Y125.807 E0.02341
G1 X123.703 Y125.127 E0.02343
G1 X123.597 Y124.431 E0.02342
G1 X123.57 Y123.85 E0.01934
G1 X123.57 Y111.15 E0.4224
G1 X123.61 Y110.447 E0.02342
G1 X123.729 Y109.753 E0.02342
G1 X123.927 Y109.078 E0.0234
G1 X124.199 Y108.429 E0.0234
G1 X124.544 Y107.815 E0.02342
G1 X124.955 Y107.244 E0.0234
G0 F6000 X125.352 Y107.392
G1 F1200 X125.823 Y106.901 E0.02263
G1 X126.348 Y106.467 E0.02266
G1 X126.92 Y106.098 E0.02264
G1 X127.532 Y105.799 E0.02265
G1 X128.174 Y105.574 E0.02263
G1 X128.839 Y105.425 E0.02267
G1 X129.77 Y105.35 E0.03107
G1 X142.47 Y105.35 E0.4224
G1 X143.15 Y105.39 E0.02266
G1 X143.82 Y105.509 E0.02263
G1 X144.472 Y105.706 E0.02265
G1 X145.096 Y105.978 E0.02264
G1 X145.684 Y106.322 E0.02266
G1 X146.228 Y106.732 E0.02266
G1 X146.719 Y107.203 E0.02263
G1 X147.153 Y107.728 E0.02266
G1 X147.522 Y108.3 E0.02264
G1 X147.821 Y108.912 E0.02265
G1 X148.046 Y109.554 E0.02263
G1 X148.195 Y110.219 E0.02267
G1 X148.27 Y111.15 E0.03107
G1 X148.27 Y123.85 E0.4224
G1 X148.23 Y124.53 E0.02266
G1 X148.111 Y125.2 E0.02263
G1 X147.914 Y125.852 E0.02265
G1 X147.642 Y126.476 E0.02264
G1 X147.298 Y127.064 E0.02266
G1 X146.888 Y127.608 E0.02266
G1 X146.417 Y128.099 E0.02263
G1 X145.892 Y128.533 E0.02266
G1 X145.32 Y128.902 E0.02264
G1 X144.708 Y129.201 E0.02265
G1 X144.066 Y129.426 E0.02263
G1 X143.401 Y129.575 E0.02267
G1 X142.47 Y129.65 E0.03107
G1 X129.77 Y129.65 E0.4224
G1 X129.09 Y129.61 E0.02266
G1 X128.42 Y129.491 E0.02263
G1 X127.768 Y129.294 E0.02265
G1 X127.144 Y129.022 E0.02264
G1 X126.556 Y128.678 E0.02266
G1 X126.012 Y128.268 E0.02266
G1 X125.521 Y127.797 E0.02263
G1 X125.087 Y127.272 E0.02266
G1 X124.718 Y126.7 E0.02264
G1 X124.419 Y126.088 E0.02265
G1 X124.194 Y125.446 E0.02263
G1 X124.045 Y124.781 E0.02267
G1 X123.97 Y123.85 E0.03107
G1 X123.97 Y111.15 E0.4224
G1 X124.01 Y110.47 E0.02266
G1 X124.129 Y109.8 E0.02263
G1 X124.326 Y109.148 E0.02265
G1 X124.598 Y108.524 E0.02264
G1 X124.942 Y107.936 E0.02266
G1 X125.352 Y107.392 E0.02266
G0 F6000 X125.748 Y107.547
G1 F1200 X126.215 Y107.085 E0.02185
G1 X126.735 Y106.684 E0.02184
G1 X127.299 Y106.348 E0.02184
G1 X127.901 Y106.084 E0.02186
G1 X128.53 Y105.894 E0.02185
G1 X129.177 Y105.783 E0.02183
G1 X129.77 Y105.75 E0.01975
G1 X142.47 Y105.75 E0.4224
G1 X143.126 Y105.79 E0.02186
G1 X143.772 Y105.909 E0.02185
G1 X144.399 Y106.106 E0.02186
G1 X144.997 Y106.378 E0.02185
G1 X145.558 Y106.72 E0.02185
G1 X146.073 Y107.128 E0.02185
G1 X146.535 Y107.595 E0.02185
G1 X146.936 Y108.115 E0.02184
G1 X147.272 Y108.679 E0.02184
G1 X147.536 Y109.281 E0.02186
G1 X147.726 Y109.91 E0.02185
G1 X147.837 Y110.557 E0.02183
G1 X147.87 Y111.15 E0.01975
G1 X147.87 Y123.85 E0.4224
G1 X147.83 Y124.506 E0.02186
G1 X147.711 Y125.152 E0.02185
G1 X147.514 Y125.779 E0.02186
G1 X147.242 Y126.377 E0.02185
G1 X146.9 Y126.938 E0.02185
G1 X146.492 Y127.453 E0.02185
G1 X146.025 Y127.915 E0.02185
G1 X145.505 Y128.316 E0.02184
G1 X144.941 Y128.652 E0.02184
G1 X144.339 Y128.916 E0.02186
G1 X143.71 Y129.106 E0.02185
G1 X143.063 Y129.217 E0.02183
G1 X142.47 Y129.25 E0.01975
G1 X129.77 Y129.25 E0.4224
G1 X129.114 Y129.21 E0.02186
G1 X128.468 Y129.091 E0.02185
G1 X127.841 Y128.894 E0.02186
G1 X127.243 Y128.622 E0.02185
G1 X126.682 Y128.28 E0.02185
G1 X126.167 Y127.872 E0.02185
G1 X125.705 Y127.405 E0.02185
G1 X125.304 Y126.885 E0.02184
G1 X124.968 Y126.321 E0.02184
G1 X124.704 Y125.719 E0.02186
G1 X124.514 Y125.09 E0.02185
G1 X124.403 Y124.443 E0.02183
G1 X124.37 Y123.85 E0.01975
G1 X124.37 Y111.15 E0.4224
G1 X124.41 Y110.494 E0.02186
G1 X124.529 Y109.848 E0.02185
G1 X124.726 Y109.221 E0.02186
G1 X124.998 Y108.623 E0.02185
G1 X125.34 Y108.062 E0.02185
G1 X125.748 Y107.547 E0.02185
G0 F6000 X126.143 Y107.709
G1 F1200 X126.606 Y107.279 E0.02102
G1 X127.12 Y106.91 E0.02104
G1 X127.676 Y106.61 E0.02101
G1 X128.265 Y106.382 E0.02101
G1 X128.879 Y106.23 E0.02104
G1 X129.77 Y106.15 E0.02975
G1 X142.47 Y106.15 E0.4224
G1 X143.101 Y106.19 E0.02103
G1 X143.722 Y106.309 E0.02103
G1 X144.322 Y106.506 E0.021
G1 X144.894 Y106.777 E0.02105
G1 X145.426 Y107.117 E0.021
G1 X145.911 Y107.523 E0.02104
G1 X146.341 Y107.986 E0.02102
G1 X146.71 Y108.5 E0.02104
G1 X147.01 Y109.056 E0.02101
G1 X147.238 Y109.645 E0.02101
G1 X147.39 Y110.259 E0.02104
G1 X147.47 Y111.15 E0.02975
G1 X147.47 Y123.85 E0.4224
G1 X147.43 Y124.481 E0.02103
G1 X147.311 Y125.102 E0.02103
G1 X147.114 Y125.702 E0.021
G1 X146.843 Y126.274 E0.02105
G1 X146.503 Y126.806 E0.021
G1 X146.097 Y127.291 E0.02104
G1 X145.634 Y127.721 E0.02102
G1 X145.12 Y128.09 E0.02104
G1 X144.564 Y128.39 E0.02101
G1 X143.975 Y128.618 E0.02101
G1 X143.361 Y128.77 E0.02104
G1 X142.47 Y128.85 E0.02975
G1 X129.77 Y128.85 E0.4224
G1 X129.139 Y128.81 E0.02103
G1 X128.518 Y128.691 E0.02103
G1 X127.918 Y128.494 E0.021
G1 X127.346 Y128.223 E0.02105
G1 X126.814 Y127.883 E0.021
G1 X126.329 Y127.477 E0.02104
G1 X125.899 Y127.014 E0.02102
G1 X125.53 Y126.5 E0.02104
G1 X125.23 Y125.944 E0.02101
G1 X125.002 Y125.355 E0.02101
G1 X124.85 Y124.741 E0.02104
G1 X124.77 Y123.85 E0.02975
G1 X124.77 Y111.15 E0.4224
G1 X124.81 Y110.519 E0.02103
G1 X124.929 Y109.898 E0.02103
G1 X125.126 Y109.298 E0.021
G1 X125.397 Y108.726 E0.02105
G1 X125.737 Y108.194 E0.021
G1 X126.143 Y107.709 E0.02104
G0 F6000 X126.135 Y108.331
G1 F1200 X126.537 Y107.878 E0.02014
G1 X126.995 Y107.481 E0.02016
G1 X127.502 Y107.148 E0.02017
G1 X128.048 Y106.884 E0.02017
G1 X128.624 Y106.695 E0.02016
G1 X129.22 Y106.583 E0.02017
G1 X129.77 Y106.55 E0.01833
G1 X142.47 Y106.55 E0.4224
G1 X143.075 Y106.59 E0.02017
G1 X143.669 Y106.709 E0.02015
G1 X144.243 Y106.905 E0.02017
G1 X144.786 Y107.176 E0.02018
G1 X145.289 Y107.515 E0.02017
G1 X145.742 Y107.917 E0.02014
G1 X146.139 Y108.375 E0.02016
G1 X146.472 Y108.882 E0.02017
G1 X146.736 Y109.428 E0.02017
G1 X146.925 Y110.004 E0.02016
G1 X147.037 Y110.6 E0.02017
G1 X147.07 Y111.15 E0.01833
G1 X147.07 Y123.85 E0.4224
G1 X147.03 Y124.455 E0.02017
G1 X146.911 Y125.049 E0.02015
G1 X146.715 Y125.623 E0.02017
G1 X146.444 Y126.166 E0.02018
