;FLAVOR:Marlin
;TIME:5343
;Filament used: 3.50064m
;Layer height: 0.2
;MINX:120.1
;MINY:128.909
;MINZ:0.2
;MAXX:148.4
;MAXY:157.209
;MAXZ:50.8
;Generated with Cura_SteamEngine 4.8.0
M140 S100
M105
M190 S100
M104 S230
M105
M109 S230
M82 ;absolute extrusion mode
; Ender 3 Custom Start G-code
G92 E0 ; Reset Extruder
G28 ; Home all axes
G1 Z2.0 F3000 ; Move Z Axis up little to prevent scratching of Heat Bed
G1 X0.1 Y20 Z0.3 F5000.0 ; Move to start position
G1 X0.1 Y200.0 Z0.3 F1500.0 E15 ; Draw the first line
G1 X0.4 Y200.0 Z0.3 F5000.0 ; Move to side a little
G1 X0.4 Y20 Z0.3 F1500.0 E30 ; Draw the second line
G92 E0 ; Reset Extruder
G1 Z2.0 F3000 ; Move Z Axis up little to prevent scratching of Heat Bed
G1 X5 Y20 Z0.3 F5000.0 ; Move over to prevent blob squish
M83 ;relative extrusion mode
G1 F2700 E-5
;LAYER_COUNT:254
;LAYER:0
M107
M205 X8 Y8
G0 F6000 X122.523 Y131.058 Z0.2
;TYPE:SKIRT
G1 F2700 E5
G1 F1200 X123.122 Y130.543 E0.02627
G1 X123.77 Y130.092 E0.02626
G1 X124.461 Y129.708 E0.02629
G1 X125.186 Y129.396 E0.02625
G1 X125.939 Y129.159 E0.02626
G1 X126.713 Y129 E0.02628
G1 X127.498 Y128.919 E0.02625
G1 X127.9 Y128.909 E0.01337
G1 X140.6 Y128.909 E0.4224
G1 X141.389 Y128.949 E0.02628
G1 X142.169 Y129.068 E0.02624
G1 X142.934 Y129.266 E0.02628
G1 X143.674 Y129.54 E0.02625
G1 X144.383 Y129.888 E0.02627
G1 X145.054 Y130.306 E0.02629
G1 X145.678 Y130.789 E0.02625
G1 X146.251 Y131.332 E0.02626
G1 X146.766 Y131.931 E0.02627
G1 X147.217 Y132.579 E0.02626
G1 X147.601 Y133.27 E0.02629
G1 X147.913 Y133.995 E0.02625
G1 X148.15 Y134.748 E0.02626
G1 X148.309 Y135.522 E0.02628
G1 X148.39 Y136.307 E0.02625
G1 X148.4 Y136.709 E0.01337
G1 X148.4 Y149.409 E0.4224
G1 X148.36 Y150.198 E0.02628
G1 X148.241 Y150.978 E0.02624
G1 X148.043 Y151.743 E0.02628
G1 X147.769 Y152.483 E0.02625
G1 X147.421 Y153.192 E0.02627
G1 X147.003 Y153.863 E0.02629
G1 X146.52 Y154.487 E0.02625
G1 X145.977 Y155.06 E0.02626
G1 X145.378 Y155.575 E0.02627
G1 X144.73 Y156.026 E0.02626
G1 X144.039 Y156.41 E0.02629
G1 X143.314 Y156.722 E0.02625
G1 X142.561 Y156.959 E0.02626
G1 X141.787 Y157.118 E0.02628
G1 X141.002 Y157.199 E0.02625
G1 X140.6 Y157.209 E0.01337
G1 X127.9 Y157.209 E0.4224
G1 X127.111 Y157.169 E0.02628
G1 X126.331 Y157.05 E0.02624
G1 X125.566 Y156.852 E0.02628
G1 X124.826 Y156.578 E0.02625
G1 X124.117 Y156.23 E0.02627
G1 X123.446 Y155.812 E0.02629
G1 X122.822 Y155.329 E0.02625
G1 X122.249 Y154.786 E0.02626
G1 X121.734 Y154.187 E0.02627
G1 X121.283 Y153.539 E0.02626
G1 X120.899 Y152.848 E0.02629
G1 X120.587 Y152.123 E0.02625
G1 X120.35 Y151.37 E0.02626
G1 X120.191 Y150.596 E0.02628
G1 X120.11 Y149.811 E0.02625
G1 X120.1 Y149.409 E0.01337
G1 X120.1 Y136.709 E0.4224
G1 X120.14 Y135.92 E0.02628
G1 X120.259 Y135.14 E0.02624
G1 X120.457 Y134.375 E0.02628
G1 X120.731 Y133.635 E0.02625
G1 X121.079 Y132.926 E0.02627
G1 X121.497 Y132.255 E0.02629
G1 X121.98 Y131.631 E0.02625
G1 X122.523 Y131.058 E0.02626
G0 F6000 X122.916 Y131.239
G1 F1200 X123.511 Y130.751 E0.02559
G1 X124.153 Y130.328 E0.02557
G1 X124.836 Y129.973 E0.0256
G1 X125.551 Y129.692 E0.02555
G1 X126.293 Y129.486 E0.02561
G1 X127.051 Y129.358 E0.02557
G1 X127.9 Y129.309 E0.02828
G1 X140.6 Y129.309 E0.4224
G1 X141.368 Y129.349 E0.02558
G1 X142.128 Y129.468 E0.02559
G1 X142.871 Y129.666 E0.02557
G1 X143.59 Y129.94 E0.02559
G1 X144.276 Y130.287 E0.02557
G1 X144.923 Y130.703 E0.02558
G1 X145.523 Y131.184 E0.02558
G1 X146.07 Y131.725 E0.02559
G1 X146.558 Y132.32 E0.02559
G1 X146.981 Y132.962 E0.02557
G1 X147.336 Y133.645 E0.0256
G1 X147.617 Y134.36 E0.02555
G1 X147.823 Y135.102 E0.02561
G1 X147.951 Y135.86 E0.02557
G1 X148 Y136.709 E0.02828
G1 X148 Y149.409 E0.4224
G1 X147.96 Y150.177 E0.02558
G1 X147.841 Y150.937 E0.02559
G1 X147.643 Y151.68 E0.02557
G1 X147.369 Y152.399 E0.02559
G1 X147.022 Y153.085 E0.02557
G1 X146.606 Y153.732 E0.02558
G1 X146.125 Y154.332 E0.02558
G1 X145.584 Y154.879 E0.02559
G1 X144.989 Y155.367 E0.02559
G1 X144.347 Y155.79 E0.02557
G1 X143.664 Y156.145 E0.0256
G1 X142.949 Y156.426 E0.02555
G1 X142.207 Y156.632 E0.02561
G1 X141.449 Y156.76 E0.02557
G1 X140.6 Y156.809 E0.02828
G1 X127.9 Y156.809 E0.4224
G1 X127.132 Y156.769 E0.02558
G1 X126.372 Y156.65 E0.02559
G1 X125.629 Y156.452 E0.02557
G1 X124.91 Y156.178 E0.02559
G1 X124.224 Y155.831 E0.02557
G1 X123.577 Y155.415 E0.02558
G1 X122.977 Y154.934 E0.02558
G1 X122.43 Y154.393 E0.02559
G1 X121.942 Y153.798 E0.02559
G1 X121.519 Y153.156 E0.02557
G1 X121.164 Y152.473 E0.0256
G1 X120.883 Y151.758 E0.02555
G1 X120.677 Y151.016 E0.02561
G1 X120.549 Y150.258 E0.02557
G1 X120.5 Y149.409 E0.02828
G1 X120.5 Y136.709 E0.4224
G1 X120.54 Y135.941 E0.02558
G1 X120.659 Y135.181 E0.02559
G1 X120.857 Y134.438 E0.02557
G1 X121.131 Y133.719 E0.02559
G1 X121.478 Y133.033 E0.02557
G1 X121.894 Y132.386 E0.02558
G1 X122.375 Y131.786 E0.02558
G1 X122.916 Y131.239 E0.02559
G0 F6000 X123.308 Y131.425
G1 F1200 X123.898 Y130.966 E0.02486
G1 X124.534 Y130.571 E0.0249
G1 X125.208 Y130.247 E0.02487
G1 X125.913 Y129.997 E0.02488
G1 X126.641 Y129.823 E0.0249
G1 X127.383 Y129.728 E0.02488
G1 X127.9 Y129.709 E0.01721
G1 X140.6 Y129.709 E0.4224
G1 X141.347 Y129.749 E0.02488
G1 X142.085 Y129.868 E0.02486
G1 X142.807 Y130.066 E0.0249
G1 X143.503 Y130.339 E0.02487
G1 X144.166 Y130.686 E0.02489
G1 X144.789 Y131.101 E0.0249
G1 X145.363 Y131.58 E0.02487
G1 X145.884 Y132.117 E0.02489
G1 X146.343 Y132.707 E0.02486
G1 X146.738 Y133.343 E0.0249
G1 X147.062 Y134.017 E0.02487
G1 X147.312 Y134.722 E0.02488
G1 X147.486 Y135.45 E0.0249
G1 X147.581 Y136.192 E0.02488
G1 X147.6 Y136.709 E0.01721
G1 X147.6 Y149.409 E0.4224
G1 X147.56 Y150.156 E0.02488
G1 X147.441 Y150.894 E0.02486
G1 X147.243 Y151.616 E0.0249
G1 X146.97 Y152.312 E0.02487
G1 X146.623 Y152.975 E0.02489
G1 X146.208 Y153.598 E0.0249
G1 X145.729 Y154.172 E0.02487
G1 X145.192 Y154.693 E0.02489
G1 X144.602 Y155.152 E0.02486
G1 X143.966 Y155.547 E0.0249
G1 X143.292 Y155.871 E0.02487
G1 X142.587 Y156.121 E0.02488
G1 X141.859 Y156.295 E0.0249
G1 X141.117 Y156.39 E0.02488
G1 X140.6 Y156.409 E0.01721
G1 X127.9 Y156.409 E0.4224
G1 X127.153 Y156.369 E0.02488
G1 X126.415 Y156.25 E0.02486
G1 X125.693 Y156.052 E0.0249
G1 X124.997 Y155.779 E0.02487
G1 X124.334 Y155.432 E0.02489
G1 X123.711 Y155.017 E0.0249
G1 X123.137 Y154.538 E0.02487
G1 X122.616 Y154.001 E0.02489
G1 X122.157 Y153.411 E0.02486
G1 X121.762 Y152.775 E0.0249
G1 X121.438 Y152.101 E0.02487
G1 X121.188 Y151.396 E0.02488
G1 X121.014 Y150.668 E0.0249
G1 X120.919 Y149.926 E0.02488
G1 X120.9 Y149.409 E0.01721
G1 X120.9 Y136.709 E0.4224
G1 X120.94 Y135.962 E0.02488
G1 X121.059 Y135.224 E0.02486
G1 X121.257 Y134.502 E0.0249
G1 X121.53 Y133.806 E0.02487
G1 X121.877 Y133.143 E0.02489
G1 X122.292 Y132.52 E0.0249
G1 X122.771 Y131.946 E0.02487
G1 X123.308 Y131.425 E0.02489
G0 F6000 X123.165 Y132.111
G1 F1200 X123.699 Y131.618 E0.02417
G1 X124.284 Y131.188 E0.02415
G1 X124.913 Y130.824 E0.02417
G1 X125.578 Y130.531 E0.02417
G1 X126.271 Y130.313 E0.02416
G1 X126.983 Y130.173 E0.02413
G1 X127.9 Y130.109 E0.03057
G1 X140.6 Y130.109 E0.4224
G1 X141.325 Y130.149 E0.02415
G1 X142.042 Y130.268 E0.02417
G1 X142.741 Y130.466 E0.02416
G1 X143.414 Y130.739 E0.02416
G1 X144.053 Y131.084 E0.02415
G1 X144.65 Y131.498 E0.02416
G1 X145.198 Y131.974 E0.02414
G1 X145.691 Y132.508 E0.02417
G1 X146.121 Y133.093 E0.02415
G1 X146.485 Y133.722 E0.02417
G1 X146.778 Y134.387 E0.02417
G1 X146.996 Y135.08 E0.02416
G1 X147.136 Y135.792 E0.02413
G1 X147.2 Y136.709 E0.03057
G1 X147.2 Y149.409 E0.4224
G1 X147.16 Y150.134 E0.02415
G1 X147.041 Y150.851 E0.02417
G1 X146.843 Y151.55 E0.02416
G1 X146.57 Y152.223 E0.02416
G1 X146.225 Y152.862 E0.02415
G1 X145.811 Y153.459 E0.02416
G1 X145.335 Y154.007 E0.02414
G1 X144.801 Y154.5 E0.02417
G1 X144.216 Y154.93 E0.02415
G1 X143.587 Y155.294 E0.02417
G1 X142.922 Y155.587 E0.02417
G1 X142.229 Y155.805 E0.02416
G1 X141.517 Y155.945 E0.02413
G1 X140.6 Y156.009 E0.03057
G1 X127.9 Y156.009 E0.4224
G1 X127.175 Y155.969 E0.02415
G1 X126.458 Y155.85 E0.02417
G1 X125.759 Y155.652 E0.02416
G1 X125.086 Y155.379 E0.02416
G1 X124.447 Y155.034 E0.02415
G1 X123.85 Y154.62 E0.02416
G1 X123.302 Y154.144 E0.02414
G1 X122.809 Y153.61 E0.02417
G1 X122.379 Y153.025 E0.02415
G1 X122.015 Y152.396 E0.02417
G1 X121.722 Y151.731 E0.02417
G1 X121.504 Y151.038 E0.02416
G1 X121.364 Y150.326 E0.02413
G1 X121.3 Y149.409 E0.03057
G1 X121.3 Y136.709 E0.4224
G1 X121.34 Y135.984 E0.02415
G1 X121.459 Y135.267 E0.02417
G1 X121.657 Y134.568 E0.02416
G1 X121.93 Y133.895 E0.02416
G1 X122.275 Y133.256 E0.02415
G1 X122.689 Y132.659 E0.02416
G1 X123.165 Y132.111 E0.02414
G0 F6000 X123.559 Y132.282
G1 F1200 X124.089 Y131.818 E0.02343
G1 X124.668 Y131.418 E0.02341
G1 X125.289 Y131.086 E0.02342
G1 X125.943 Y130.826 E0.02341
G1 X126.623 Y130.642 E0.02343
G1 X127.319 Y130.536 E0.02342
G1 X127.9 Y130.509 E0.01934
G1 X140.6 Y130.509 E0.4224
G1 X141.303 Y130.549 E0.02342
G1 X141.997 Y130.668 E0.02342
G1 X142.672 Y130.866 E0.0234
G1 X143.321 Y131.138 E0.0234
G1 X143.935 Y131.483 E0.02342
G1 X144.506 Y131.894 E0.0234
G1 X145.027 Y132.368 E0.02343
G1 X145.491 Y132.898 E0.02343
G1 X145.891 Y133.477 E0.02341
G1 X146.223 Y134.098 E0.02342
G1 X146.483 Y134.752 E0.02341
G1 X146.667 Y135.432 E0.02343
G1 X146.773 Y136.128 E0.02342
G1 X146.8 Y136.709 E0.01934
G1 X146.8 Y149.409 E0.4224
G1 X146.76 Y150.112 E0.02342
G1 X146.641 Y150.806 E0.02342
G1 X146.443 Y151.481 E0.0234
G1 X146.171 Y152.13 E0.0234
G1 X145.826 Y152.744 E0.02342
G1 X145.415 Y153.315 E0.0234
G1 X144.941 Y153.836 E0.02343
G1 X144.411 Y154.3 E0.02343
G1 X143.832 Y154.7 E0.02341
G1 X143.211 Y155.032 E0.02342
G1 X142.557 Y155.292 E0.02341
G1 X141.877 Y155.476 E0.02343
G1 X141.181 Y155.582 E0.02342
G1 X140.6 Y155.609 E0.01934
G1 X127.9 Y155.609 E0.4224
G1 X127.197 Y155.569 E0.02342
G1 X126.503 Y155.45 E0.02342
G1 X125.828 Y155.252 E0.0234
G1 X125.179 Y154.98 E0.0234
G1 X124.565 Y154.635 E0.02342
G1 X123.994 Y154.224 E0.0234
G1 X123.473 Y153.75 E0.02343
G1 X123.009 Y153.22 E0.02343
G1 X122.609 Y152.641 E0.02341
G1 X122.277 Y152.02 E0.02342
G1 X122.017 Y151.366 E0.02341
G1 X121.833 Y150.686 E0.02343
G1 X121.727 Y149.99 E0.02342
G1 X121.7 Y149.409 E0.01934
G1 X121.7 Y136.709 E0.4224
G1 X121.74 Y136.006 E0.02342
G1 X121.859 Y135.312 E0.02342
G1 X122.057 Y134.637 E0.0234
G1 X122.329 Y133.988 E0.0234
G1 X122.674 Y133.374 E0.02342
G1 X123.085 Y132.803 E0.0234
G1 X123.559 Y132.282 E0.02343
G0 F6000 X123.953 Y132.46
G1 F1200 X124.478 Y132.026 E0.02266
G1 X125.05 Y131.657 E0.02264
G1 X125.662 Y131.358 E0.02265
G1 X126.304 Y131.133 E0.02263
G1 X126.969 Y130.984 E0.02267
G1 X127.9 Y130.909 E0.03107
G1 X140.6 Y130.909 E0.4224
G1 X141.28 Y130.949 E0.02266
G1 X141.95 Y131.068 E0.02263
G1 X142.602 Y131.265 E0.02265
G1 X143.226 Y131.537 E0.02264
G1 X143.814 Y131.881 E0.02266
G1 X144.358 Y132.291 E0.02266
G1 X144.849 Y132.762 E0.02263
G1 X145.283 Y133.287 E0.02266
G1 X145.652 Y133.859 E0.02264
G1 X145.951 Y134.471 E0.02265
G1 X146.176 Y135.113 E0.02263
G1 X146.325 Y135.778 E0.02267
G1 X146.4 Y136.709 E0.03107
G1 X146.4 Y149.409 E0.4224
G1 X146.36 Y150.089 E0.02266
G1 X146.241 Y150.759 E0.02263
G1 X146.044 Y151.411 E0.02265
G1 X145.772 Y152.035 E0.02264
G1 X145.428 Y152.623 E0.02266
G1 X145.018 Y153.167 E0.02266
G1 X144.547 Y153.658 E0.02263
G1 X144.022 Y154.092 E0.02266
G1 X143.45 Y154.461 E0.02264
G1 X142.838 Y154.76 E0.02265
G1 X142.196 Y154.985 E0.02263
G1 X141.531 Y155.134 E0.02267
G1 X140.6 Y155.209 E0.03107
G1 X127.9 Y155.209 E0.4224
G1 X127.22 Y155.169 E0.02266
G1 X126.55 Y155.05 E0.02263
G1 X125.898 Y154.853 E0.02265
G1 X125.274 Y154.581 E0.02264
G1 X124.686 Y154.237 E0.02266
G1 X124.142 Y153.827 E0.02266
G1 X123.651 Y153.356 E0.02263
G1 X123.217 Y152.831 E0.02266
G1 X122.848 Y152.259 E0.02264
G1 X122.549 Y151.647 E0.02265
G1 X122.324 Y151.005 E0.02263
G1 X122.175 Y150.34 E0.02267
G1 X122.1 Y149.409 E0.03107
G1 X122.1 Y136.709 E0.4224
G1 X122.14 Y136.029 E0.02266
G1 X122.259 Y135.359 E0.02263
G1 X122.456 Y134.707 E0.02265
G1 X122.728 Y134.083 E0.02264
G1 X123.072 Y133.495 E0.02266
G1 X123.482 Y132.951 E0.02266
G1 X123.953 Y132.46 E0.02263
G0 F6000 X124.345 Y132.644
G1 F1200 X124.865 Y132.243 E0.02184
G1 X125.429 Y131.907 E0.02184
G1 X126.031 Y131.643 E0.02186
G1 X126.66 Y131.453 E0.02185
G1 X127.307 Y131.342 E0.02183
G1 X127.9 Y131.309 E0.01975
G1 X140.6 Y131.309 E0.4224
G1 X141.256 Y131.349 E0.02186
G1 X141.902 Y131.468 E0.02185
G1 X142.529 Y131.665 E0.02186
G1 X143.127 Y131.937 E0.02185
G1 X143.688 Y132.279 E0.02185
G1 X144.203 Y132.687 E0.02185
G1 X144.665 Y133.154 E0.02185
G1 X145.066 Y133.674 E0.02184
G1 X145.402 Y134.238 E0.02184
G1 X145.666 Y134.84 E0.02186
G1 X145.856 Y135.469 E0.02185
G1 X145.967 Y136.116 E0.02183
G1 X146 Y136.709 E0.01975
G1 X146 Y149.409 E0.4224
G1 X145.96 Y150.065 E0.02186
G1 X145.841 Y150.711 E0.02185
G1 X145.644 Y151.338 E0.02186
G1 X145.372 Y151.936 E0.02185
G1 X145.03 Y152.497 E0.02185
G1 X144.622 Y153.012 E0.02185
G1 X144.155 Y153.474 E0.02185
G1 X143.635 Y153.875 E0.02184
G1 X143.071 Y154.211 E0.02184
G1 X142.469 Y154.475 E0.02186
G1 X141.84 Y154.665 E0.02185
G1 X141.193 Y154.776 E0.02183
G1 X140.6 Y154.809 E0.01975
G1 X127.9 Y154.809 E0.4224
G1 X127.244 Y154.769 E0.02186
G1 X126.598 Y154.65 E0.02185
G1 X125.971 Y154.453 E0.02186
G1 X125.373 Y154.181 E0.02185
G1 X124.812 Y153.839 E0.02185
G1 X124.297 Y153.431 E0.02185
G1 X123.835 Y152.964 E0.02185
G1 X123.434 Y152.444 E0.02184
G1 X123.098 Y151.88 E0.02184
G1 X122.834 Y151.278 E0.02186
G1 X122.644 Y150.649 E0.02185
G1 X122.533 Y150.002 E0.02183
G1 X122.5 Y149.409 E0.01975
G1 X122.5 Y136.709 E0.4224
G1 X122.54 Y136.053 E0.02186
G1 X122.659 Y135.407 E0.02185
G1 X122.856 Y134.78 E0.02186
G1 X123.128 Y134.182 E0.02185
G1 X123.47 Y133.621 E0.02185
G1 X123.878 Y133.106 E0.02185
G1 X124.345 Y132.644 E0.02185
G0 F6000 X124.273 Y133.268
G1 F1200 X124.736 Y132.838 E0.02102
G1 X125.25 Y132.469 E0.02104
G1 X125.806 Y132.169 E0.02101
G1 X126.395 Y131.941 E0.02101
G1 X127.009 Y131.789 E0.02104
G1 X127.9 Y131.709 E0.02975
G1 X140.6 Y131.709 E0.4224
G1 X141.231 Y131.749 E0.02103
G1 X141.852 Y131.868 E0.02103
G1 X142.452 Y132.065 E0.021
G1 X143.024 Y132.336 E0.02105
G1 X143.556 Y132.676 E0.021
G1 X144.041 Y133.082 E0.02104
G1 X144.471 Y133.545 E0.02102
G1 X144.84 Y134.059 E0.02104
G1 X145.14 Y134.615 E0.02101
G1 X145.368 Y135.204 E0.02101
G1 X145.52 Y135.818 E0.02104
G1 X145.6 Y136.709 E0.02975
G1 X145.6 Y149.409 E0.4224
G1 X145.56 Y150.04 E0.02103
G1 X145.441 Y150.661 E0.02103
G1 X145.244 Y151.261 E0.021
G1 X144.973 Y151.833 E0.02105
G1 X144.633 Y152.365 E0.021
G1 X144.227 Y152.85 E0.02104
G1 X143.764 Y153.28 E0.02102
G1 X143.25 Y153.649 E0.02104
G1 X142.694 Y153.949 E0.02101
G1 X142.105 Y154.177 E0.02101
G1 X141.491 Y154.329 E0.02104
G1 X140.6 Y154.409 E0.02975
G1 X127.9 Y154.409 E0.4224
G1 X127.269 Y154.369 E0.02103
G1 X126.648 Y154.25 E0.02103
G1 X126.048 Y154.053 E0.021
G1 X125.476 Y153.782 E0.02105
G1 X124.944 Y153.442 E0.021
G1 X124.459 Y153.036 E0.02104
G1 X124.029 Y152.573 E0.02102
G1 X123.66 Y152.059 E0.02104
G1 X123.36 Y151.503 E0.02101
G1 X123.132 Y150.914 E0.02101
G1 X122.98 Y150.3 E0.02104
G1 X122.9 Y149.409 E0.02975
G1 X122.9 Y136.709 E0.4224
G1 X122.94 Y136.078 E0.02103
G1 X123.059 Y135.457 E0.02103
G1 X123.256 Y134.857 E0.021
G1 X123.527 Y134.285 E0.02105
G1 X123.867 Y133.753 E0.021
G1 X124.273 Y133.268 E0.02104
G0 F6000 X124.667 Y133.437
G1 F1200 X125.125 Y133.04 E0.02016
G1 X125.632 Y132.707 E0.02017
G1 X126.178 Y132.443 E0.02017
G1 X126.754 Y132.254 E0.02016
G1 X127.35 Y132.142 E0.02017
G1 X127.9 Y132.109 E0.01833
G1 X140.6 Y132.109 E0.4224
G1 X141.205 Y132.149 E0.02017
G1 X141.799 Y132.268 E0.02015
G1 X142.373 Y132.464 E0.02017
G1 X142.916 Y132.735 E0.02018
G1 X143.419 Y133.074 E0.02017
G1 X143.872 Y133.476 E0.02014
G1 X144.269 Y133.934 E0.02016
G1 X144.602 Y134.441 E0.02017
G1 X144.866 Y134.987 E0.02017
G1 X145.055 Y135.563 E0.02016
G1 X145.167 Y136.159 E0.02017
G1 X145.2 Y136.709 E0.01833
G1 X145.2 Y149.409 E0.4224
G1 X145.16 Y150.014 E0.02017
G1 X145.041 Y150.608 E0.02015
G1 X144.845 Y151.182 E0.02017
G1 X144.574 Y151.725 E0.02018
G1 X144.235 Y152.228 E0.02017
