;START_OF_HEADER
;HEADER_VERSION:0.1
;FLAVOR:Griffin
;GENERATOR.NAME:Cura_SteamEngine
;GENERATOR.VERSION:4.4.1
;GENERATOR.BUILD_DATE:2019-12-23
;TARGET_MACHINE.NAME:Ultimaker S5
;EXTRUDER_TRAIN.0.INITIAL_TEMPERATURE:200
;EXTRUDER_TRAIN.0.MATERIAL.VOLUME_USED:943
;EXTRUDER_TRAIN.0.MATERIAL.GUID:506c9f0d-e3aa-4bd4-b2d2-23e2425b1aa9
;EXTRUDER_TRAIN.0.NOZZLE.DIAMETER:0.4
;EXTRUDER_TRAIN.0.NOZZLE.NAME:AA 0.4
;EXTRUDER_TRAIN.1.INITIAL_TEMPERATURE:175
;EXTRUDER_TRAIN.1.MATERIAL.VOLUME_USED:563
;EXTRUDER_TRAIN.1.MATERIAL.GUID:1d52b2be-a3a2-41de-a8b1-3bcdb5618695
;EXTRUDER_TRAIN.1.NOZZLE.DIAMETER:0.4
;EXTRUDER_TRAIN.1.NOZZLE.NAME:BB 0.4
;BUILD_PLATE.TYPE:glass
;BUILD_PLATE.INITIAL_TEMPERATURE:60
;BUILD_VOLUME.TEMPERATURE:27
;PRINT.TIME:999
;PRINT.GROUPS:1
;PRINT.SIZE.MIN.X:134.175
;PRINT.SIZE.MIN.Y:112.29
;PRINT.SIZE.MIN.Z:0.27
;PRINT.SIZE.MAX.X:330
;PRINT.SIZE.MAX.Y:237
;PRINT.SIZE.MAX.Z:8.67
;END_OF_HEADER
;Generated with Cura_SteamEngine 4.4.1
T0
M82 ;absolute extrusion mode

G92 E0
M109 S200
G280 S1
G0 Z20.001
G1 F1500 E-6.5
;LAYER_COUNT:43
;LAYER:0
M107
M204 S625
M205 X6 Y6
G1 F600 Z2.27
G0 F2571.4 X178.747 Y126.255 Z2.27
M204 S500
M205 X5 Y5
;TYPE:SKIRT
G1 F600 Z0.27
G1 F1500 E0
G1 F1200 X178.41 Y126.633 E0.00667
G1 X178.017 Y126.953 E0.01334
G1 X177.579 Y127.207 E0.02001
G1 X177.107 Y127.39 E0.02667
G1 X176.438 Y127.513 E0.03563
G1 X175.07 Y127.619 E0.0537
G1 X174.263 Y127.689 E0.06436
G1 X174.077 Y127.7 E0.06682
G1 X173.76 Y127.709 E0.07099
G1 X173.669 Y127.71 E0.07219
G1 X156.661 Y127.71 E0.29614
G1 X155.963 Y127.7 E0.30533
G1 X155.459 Y127.653 E0.312
G1 X154.968 Y127.527 E0.31867
G1 X154.504 Y127.325 E0.32534
G1 X154.077 Y127.053 E0.332
G1 X153.698 Y126.718 E0.33866
G1 X153.376 Y126.326 E0.34534
G1 X153.12 Y125.889 E0.35201
G1 X152.936 Y125.418 E0.35867
G1 X152.828 Y124.923 E0.36534
G1 X152.8 Y124.577 E0.36991
G1 X152.791 Y124.245 E0.37429
G1 X152.79 Y124.158 E0.37543
G1 X152.79 Y116.131 E0.48113
G1 X152.799 Y115.466 E0.48988
G1 X152.846 Y114.961 E0.49656
G1 X152.972 Y114.471 E0.50322
G1 X153.173 Y114.006 E0.50989
G1 X153.444 Y113.579 E0.51655
G1 X153.78 Y113.199 E0.52323
G1 X154.171 Y112.878 E0.52989
G1 X154.607 Y112.621 E0.53656
G1 X155.079 Y112.437 E0.54323
G1 X155.574 Y112.329 E0.5499
G1 X155.919 Y112.3 E0.55446
G1 X156.24 Y112.291 E0.55869
G1 X156.33 Y112.29 E0.55987
G1 X173.339 Y112.29 E0.78384
G1 X174.038 Y112.3 E0.79304
G1 X174.542 Y112.347 E0.79971
G1 X175.033 Y112.473 E0.80638
G1 X175.497 Y112.675 E0.81304
G1 X175.924 Y112.947 E0.81971
G1 X176.303 Y113.282 E0.82637
G1 X176.625 Y113.674 E0.83305
G1 X176.881 Y114.11 E0.83971
G1 X177.065 Y114.582 E0.84638
G1 X177.13 Y114.833 E0.84979
G1 X177.719 Y117.561 E0.88654
G1 X178.368 Y120.197 E0.92229
G1 X179.097 Y122.84 E0.95839
G1 X179.26 Y123.372 E0.96571
G1 X179.37 Y123.866 E0.97238
G1 X179.4 Y124.371 E0.97904
G1 X179.351 Y124.875 E0.98571
G1 X179.224 Y125.365 E0.99237
G1 X179.02 Y125.829 E0.99905
G1 X178.747 Y126.255 E1.00571
M204 S625
M205 X6 Y6
G0 F2571.4 X276.681 Y193.556
M204 S500
M205 X5 Y5
G1 F1200 X277.019 Y193.179 E1.01238
G1 X277.412 Y192.86 E1.01904
G1 X277.851 Y192.607 E1.02571
G1 X278.324 Y192.426 E1.03238
G1 X278.96 Y192.306 E1.0409
G1 X281.599 Y192.082 E1.07578
G1 X284.266 Y191.779 E1.11112
G1 X286.992 Y191.392 E1.14737
G1 X289.681 Y190.932 E1.1833
G1 X292.374 Y190.393 E1.21946
G1 X294.137 Y189.976 E1.24331
G1 X294.17 Y189.969 E1.24376
G1 X295.562 Y189.655 E1.26255
G1 X295.905 Y189.597 E1.26713
G1 X296.625 Y189.515 E1.27667
G1 X296.674 Y189.509 E1.27732
G1 X298.605 Y189.319 E1.30287
G1 X298.649 Y189.315 E1.30345
G1 X299.335 Y189.257 E1.31252
G1 X299.86 Y189.256 E1.31943
G1 X300.549 Y189.311 E1.32853
G1 X300.61 Y189.317 E1.32934
G1 X302.591 Y189.513 E1.35555
G1 X302.635 Y189.517 E1.35613
G1 X303.308 Y189.593 E1.36505
G1 X303.822 Y189.694 E1.37195
G1 X304.511 Y189.889 E1.38137
G1 X304.567 Y189.906 E1.38215
G1 X306.437 Y190.472 E1.40787
G1 X306.48 Y190.485 E1.40846
G1 X307.159 Y190.701 E1.41785
G1 X307.658 Y190.908 E1.42496
G1 X308.247 Y191.212 E1.43369
G1 X308.289 Y191.234 E1.43431
G1 X310.029 Y192.165 E1.4603
G1 X310.07 Y192.187 E1.46091
G1 X310.704 Y192.538 E1.47045
G1 X311.14 Y192.828 E1.47734
G1 X311.656 Y193.236 E1.48601
G1 X311.7 Y193.272 E1.48676
G1 X313.267 Y194.557 E1.51344
G1 X313.304 Y194.587 E1.51407
G1 X313.814 Y195.018 E1.52286
G1 X314.184 Y195.386 E1.52973
G1 X314.65 Y195.932 E1.53918
G1 X314.691 Y195.981 E1.54002
G1 X315.899 Y197.455 E1.56512
G1 X315.929 Y197.492 E1.56574
G1 X316.406 Y198.092 E1.57584
G1 X316.699 Y198.531 E1.58279
G1 X317.034 Y199.134 E1.59187
G1 X317.989 Y200.92 E1.61854
G1 X318.009 Y200.959 E1.61911
G1 X318.32 Y201.56 E1.62802
G1 X318.523 Y202.047 E1.63497
G1 X318.752 Y202.755 E1.64477
G1 X318.77 Y202.813 E1.64557
G1 X319.327 Y204.653 E1.67088
G1 X319.339 Y204.693 E1.67143
G1 X319.535 Y205.372 E1.68074
G1 X319.639 Y205.885 E1.68763
G1 X319.712 Y206.502 E1.69581
G1 X319.718 Y206.563 E1.69662
G1 X319.92 Y208.606 E1.72365
G1 X319.925 Y208.651 E1.72425
G1 X319.983 Y209.336 E1.7333
G1 X319.983 Y209.868 E1.7403
G1 X319.928 Y210.542 E1.74921
G1 X319.923 Y210.597 E1.74994
G1 X319.724 Y212.606 E1.77652
G1 X319.72 Y212.648 E1.77707
G1 X319.646 Y213.307 E1.78581
G1 X319.545 Y213.821 E1.7927
G1 X319.362 Y214.469 E1.80157
G1 X319.345 Y214.527 E1.80237
G1 X318.76 Y216.459 E1.82895
G1 X318.748 Y216.5 E1.82951
G1 X318.541 Y217.152 E1.83852
G1 X318.333 Y217.653 E1.84566
G1 X318.013 Y218.273 E1.85485
G1 X317.991 Y218.315 E1.85547
G1 X317.074 Y220.029 E1.88107
G1 X317.053 Y220.069 E1.88166
G1 X316.701 Y220.705 E1.89123
G1 X316.409 Y221.144 E1.89817
G1 X316.002 Y221.658 E1.90681
G1 X315.967 Y221.7 E1.90753
G1 X314.683 Y223.266 E1.93419
G1 X314.654 Y223.301 E1.93479
G1 X314.222 Y223.813 E1.94361
G1 X313.85 Y224.187 E1.95056
G1 X313.304 Y224.652 E1.96
G1 X313.258 Y224.691 E1.9608
G1 X311.784 Y225.899 E1.98589
G1 X311.749 Y225.927 E1.98648
G1 X311.15 Y226.404 E1.99656
G1 X310.708 Y226.699 E2.00356
G1 X310.148 Y227.01 E2.01199
G1 X310.103 Y227.035 E2.01267
G1 X308.318 Y227.989 E2.03932
G1 X308.28 Y228.009 E2.03989
G1 X307.679 Y228.32 E2.0488
G1 X307.192 Y228.523 E2.05574
G1 X306.484 Y228.752 E2.06554
G1 X306.426 Y228.77 E2.06634
G1 X304.586 Y229.327 E2.09166
G1 X304.545 Y229.339 E2.09222
G1 X303.865 Y229.535 E2.10154
G1 X303.348 Y229.639 E2.10848
G1 X302.714 Y229.713 E2.11689
G1 X302.658 Y229.719 E2.11763
G1 X300.608 Y229.922 E2.14475
G1 X300.565 Y229.926 E2.14532
G1 X299.909 Y229.982 E2.15399
G1 X299.379 Y229.984 E2.16097
G1 X298.682 Y229.928 E2.17018
G1 X298.622 Y229.922 E2.17097
G1 X296.638 Y229.725 E2.19722
G1 X296.597 Y229.721 E2.19777
G1 X295.92 Y229.645 E2.20674
G1 X295.393 Y229.541 E2.21381
G1 X294.727 Y229.35 E2.22293
G1 X294.682 Y229.336 E2.22355
G1 X292.78 Y228.76 E2.24972
G1 X292.737 Y228.747 E2.25031
G1 X292.083 Y228.539 E2.25935
G1 X291.584 Y228.332 E2.26646
G1 X290.966 Y228.013 E2.27562
G1 X290.924 Y227.991 E2.27624
G1 X289.21 Y227.074 E2.30184
G1 X289.17 Y227.053 E2.30243
G1 X288.534 Y226.701 E2.31201
G1 X288.095 Y226.409 E2.31895
G1 X287.581 Y226.002 E2.32758
G1 X287.539 Y225.967 E2.3283
G1 X285.972 Y224.682 E2.35498
G1 X285.937 Y224.654 E2.35557
G1 X285.419 Y224.217 E2.3645
G1 X285.041 Y223.839 E2.37154
G1 X284.583 Y223.299 E2.38086
G1 X284.548 Y223.258 E2.38157
G1 X283.339 Y221.783 E2.40668
G1 X283.309 Y221.746 E2.40731
G1 X282.832 Y221.146 E2.4174
G1 X282.539 Y220.707 E2.42435
G1 X282.229 Y220.149 E2.43276
G1 X282.204 Y220.103 E2.43345
G1 X281.25 Y218.318 E2.4601
G1 X281.23 Y218.28 E2.46066
G1 X280.919 Y217.679 E2.46957
G1 X280.717 Y217.195 E2.47648
G1 X280.507 Y216.548 E2.48544
G1 X280.488 Y216.488 E2.48626
G1 X279.906 Y214.568 E2.51268
G1 X279.895 Y214.53 E2.5132
G1 X279.702 Y213.864 E2.52233
G1 X279.6 Y213.373 E2.52894
G1 X279.244 Y210.555 E2.56634
G1 X278.828 Y207.872 E2.60209
G1 X278.328 Y205.161 E2.63839
G1 X277.759 Y202.497 E2.67426
G1 X277.112 Y199.839 E2.71028
G1 X276.401 Y197.235 E2.74582
G1 X276.159 Y196.438 E2.75679
G1 X276.051 Y195.943 E2.76346
G1 X276.022 Y195.438 E2.77012
G1 X276.072 Y194.934 E2.77679
G1 X276.201 Y194.444 E2.78346
G1 X276.406 Y193.981 E2.79013
G1 X276.681 Y193.556 E2.79679
M204 S625
M205 X6 Y6
G1 F1500 E-3.70321
G0 F2571.4 X283.045 Y198.084
G0 X285.579 Y200.161
M204 S500
M205 X5 Y5
G1 F1500 E2.79679
G1 F1200 X285.946 Y199.67 E2.80486
G1 X287.189 Y198.154 E2.83068
G1 X287.691 Y197.605 E2.84047
G1 X288.154 Y197.189 E2.84867
G1 X289.67 Y195.946 E2.87448
G1 X290.27 Y195.506 E2.88428
G1 X290.798 Y195.193 E2.89236
G1 X292.527 Y194.269 E2.91818
G1 X293.201 Y193.954 E2.92797
G1 X293.782 Y193.749 E2.93608
G1 X295.658 Y193.18 E2.9619
G1 X296.38 Y193.003 E2.97169
G1 X296.99 Y192.915 E2.9798
G1 X298.941 Y192.723 E3.00561
G1 X299.685 Y192.69 E3.01542
G1 X300.299 Y192.723 E3.02352
G1 X302.249 Y192.915 E3.04932
G1 X302.985 Y193.028 E3.05912
G1 X303.581 Y193.18 E3.06722
G1 X305.457 Y193.749 E3.09303
G1 X306.157 Y194.003 E3.10284
G1 X306.712 Y194.269 E3.11094
G1 X308.441 Y195.193 E3.13676
G1 X309.078 Y195.579 E3.14656
G1 X309.569 Y195.946 E3.15464
G1 X311.085 Y197.189 E3.18045
G1 X311.634 Y197.691 E3.19025
G1 X312.05 Y198.154 E3.19844
G1 X313.293 Y199.67 E3.22426
G1 X313.733 Y200.27 E3.23405
G1 X314.046 Y200.798 E3.24213
G1 X314.97 Y202.527 E3.26795
G1 X315.285 Y203.201 E3.27774
G1 X315.49 Y203.782 E3.28586
G1 X316.059 Y205.658 E3.31167
G1 X316.236 Y206.38 E3.32146
G1 X316.323 Y206.987 E3.32953
G1 X316.516 Y208.938 E3.35535
G1 X316.55 Y209.681 E3.36514
G1 X316.516 Y210.303 E3.37334
G1 X316.323 Y212.253 E3.39915
G1 X316.21 Y212.988 E3.40894
G1 X316.059 Y213.581 E3.41699
G1 X315.49 Y215.457 E3.44281
G1 X315.236 Y216.157 E3.45261
G1 X314.97 Y216.712 E3.46072
G1 X314.046 Y218.441 E3.48653
G1 X313.66 Y219.078 E3.49634
G1 X313.293 Y219.569 E3.50441
G1 X312.05 Y221.085 E3.53022
G1 X311.548 Y221.634 E3.54002
G1 X311.085 Y222.05 E3.54821
G1 X309.569 Y223.293 E3.57403
G1 X308.969 Y223.733 E3.58383
G1 X308.441 Y224.046 E3.59191
G1 X306.712 Y224.97 E3.61772
G1 X306.038 Y225.285 E3.62752
G1 X305.457 Y225.49 E3.63563
G1 X303.581 Y226.059 E3.66144
G1 X302.859 Y226.236 E3.67123
G1 X302.253 Y226.323 E3.67929
G1 X300.303 Y226.516 E3.70509
G1 X299.559 Y226.55 E3.7149
G1 X298.938 Y226.516 E3.72309
G1 X296.987 Y226.323 E3.74891
G1 X296.251 Y226.21 E3.75871
G1 X295.658 Y226.059 E3.76677
G1 X293.782 Y225.49 E3.79258
G1 X293.082 Y225.236 E3.80239
G1 X292.527 Y224.97 E3.81049
G1 X290.798 Y224.046 E3.8363
G1 X290.161 Y223.66 E3.84611
G1 X289.67 Y223.293 E3.85418
G1 X288.154 Y222.05 E3.88
G1 X287.605 Y221.548 E3.88979
G1 X287.189 Y221.085 E3.89799
G1 X285.946 Y219.569 E3.9238
G1 X285.506 Y218.969 E3.9336
G1 X285.193 Y218.441 E3.94168
G1 X284.269 Y216.712 E3.96749
G1 X283.954 Y216.038 E3.97729
G1 X283.749 Y215.457 E3.9854
G1 X283.18 Y213.581 E4.01122
G1 X283.003 Y212.859 E4.021
G1 X282.915 Y212.249 E4.02912
G1 X282.723 Y210.299 E4.05492
G1 X282.69 Y209.555 E4.06473
G1 X282.723 Y208.941 E4.07282
G1 X282.915 Y206.99 E4.09864
G1 X283.028 Y206.255 E4.10843
G1 X283.18 Y205.658 E4.11654
G1 X283.749 Y203.782 E4.14235
G1 X284.003 Y203.082 E4.15216
G1 X284.269 Y202.527 E4.16026
G1 X285.193 Y200.798 E4.18608
G1 X285.579 Y200.161 E4.19588
M204 S625
M205 X6 Y6
G0 F2571.4 X285.938 Y200.379
M204 S500
M205 X5 Y5
G1 F1200 X286.271 Y199.936 E4.20318
G1 X287.514 Y198.42 E4.22899
G1 X288.001 Y197.889 E4.23848
G1 X288.42 Y197.514 E4.24589
G1 X289.936 Y196.271 E4.2717
G1 X290.519 Y195.845 E4.28121
G1 X290.996 Y195.563 E4.2885
G1 X292.725 Y194.639 E4.31432
G1 X293.379 Y194.335 E4.32381
G1 X293.903 Y194.151 E4.33113
G1 X295.779 Y193.582 E4.35694
G1 X296.48 Y193.411 E4.36644
G1 X297.031 Y193.333 E4.37377
G1 X298.982 Y193.141 E4.39958
G1 X299.703 Y193.111 E4.40908
G1 X300.258 Y193.141 E4.4164
G1 X302.208 Y193.333 E4.4422
G1 X302.921 Y193.444 E4.4517
G1 X303.46 Y193.582 E4.45903
G1 X305.336 Y194.151 E4.48484
G1 X306.013 Y194.399 E4.49434
G1 X306.514 Y194.639 E4.50165
G1 X308.243 Y195.563 E4.52747
G1 X308.86 Y195.938 E4.53697
G1 X309.303 Y196.271 E4.54427
G1 X310.819 Y197.514 E4.57008
G1 X311.35 Y198.001 E4.57957
G1 X311.725 Y198.42 E4.58697
G1 X312.968 Y199.936 E4.61279
G1 X313.394 Y200.519 E4.6223
G1 X313.676 Y200.996 E4.62959
G1 X314.6 Y202.725 E4.65541
G1 X314.904 Y203.379 E4.6649
G1 X315.088 Y203.903 E4.67222
G1 X315.657 Y205.779 E4.69803
G1 X315.828 Y206.48 E4.70753
G1 X315.905 Y207.028 E4.71482
G1 X316.098 Y208.979 E4.74063
G1 X316.13 Y209.7 E4.75013
G1 X316.098 Y210.261 E4.75753
G1 X315.905 Y212.211 E4.78333
G1 X315.795 Y212.924 E4.79283
G1 X315.657 Y213.46 E4.80012
G1 X315.088 Y215.336 E4.82594
G1 X314.84 Y216.013 E4.83543
G1 X314.6 Y216.514 E4.84274
G1 X313.676 Y218.243 E4.86856
G1 X313.301 Y218.86 E4.87806
G1 X312.968 Y219.303 E4.88536
G1 X311.725 Y220.819 E4.91118
G1 X311.238 Y221.35 E4.92066
G1 X310.819 Y221.725 E4.92807
G1 X309.303 Y222.968 E4.95388
G1 X308.72 Y223.394 E4.96339
G1 X308.243 Y223.676 E4.97068
G1 X306.514 Y224.6 E4.9965
G1 X305.86 Y224.904 E5.00599
G1 X305.336 Y225.088 E5.01331
G1 X303.46 Y225.657 E5.03912
G1 X302.759 Y225.828 E5.04862
G1 X302.211 Y225.905 E5.05591
G1 X300.261 Y226.098 E5.08171
G1 X299.54 Y226.13 E5.09121
G1 X298.979 Y226.098 E5.09861
G1 X297.028 Y225.905 E5.12443
G1 X296.315 Y225.795 E5.13393
G1 X295.779 Y225.657 E5.14121
G1 X293.903 Y225.088 E5.16703
G1 X293.226 Y224.84 E5.17652
G1 X292.725 Y224.6 E5.18384
G1 X290.996 Y223.676 E5.20965
G1 X290.379 Y223.301 E5.21916
G1 X289.936 Y222.968 E5.22645
G1 X288.42 Y221.725 E5.25227
G1 X287.889 Y221.238 E5.26175
G1 X287.514 Y220.819 E5.26916
G1 X286.271 Y219.303 E5.29497
G1 X285.845 Y218.72 E5.30448
G1 X285.563 Y218.243 E5.31178
G1 X284.639 Y216.514 E5.33759
G1 X284.335 Y215.86 E5.34709
G1 X284.151 Y215.336 E5.3544
G1 X283.582 Y213.46 E5.38021
G1 X283.411 Y212.759 E5.38971
G1 X283.333 Y212.208 E5.39704
G1 X283.141 Y210.258 E5.42284
G1 X283.111 Y209.537 E5.43234
G1 X283.141 Y208.982 E5.43966
G1 X283.333 Y207.031 E5.46548
G1 X283.444 Y206.319 E5.47496
G1 X283.582 Y205.779 E5.4823
G1 X284.151 Y203.903 E5.50812
G1 X284.399 Y203.226 E5.51761
G1 X284.639 Y202.725 E5.52492
G1 X285.563 Y200.996 E5.55074
G1 X285.938 Y200.379 E5.56025
M204 S625
M205 X6 Y6
G0 F2571.4 X286.297 Y200.598
M204 S500
M205 X5 Y5
G1 F1200 X286.596 Y200.203 E5.56677
G1 X287.839 Y198.687 E5.59258
G1 X288.311 Y198.173 E5.60177
G1 X288.687 Y197.839 E5.60839
G1 X290.203 Y196.596 E5.63421
G1 X290.767 Y196.185 E5.6434
G1 X291.194 Y195.934 E5.64992
G1 X292.923 Y195.01 E5.67573
G1 X293.556 Y194.717 E5.68492
G1 X294.025 Y194.553 E5.69146
G1 X295.901 Y193.984 E5.71727
G1 X296.58 Y193.82 E5.72647
G1 X297.073 Y193.751 E5.73302
G1 X299.024 Y193.559 E5.75884
G1 X299.721 Y193.531 E5.76802
G1 X300.217 Y193.559 E5.77456
G1 X302.167 Y193.751 E5.80036
G1 X302.856 Y193.859 E5.80955
G1 X303.338 Y193.984 E5.8161
G1 X305.214 Y194.553 E5.84192
G1 X305.869 Y194.794 E5.85111
G1 X306.316 Y195.01 E5.85764
G1 X308.045 Y195.934 E5.88346
G1 X308.641 Y196.297 E5.89265
G1 X309.036 Y196.596 E5.89917
G1 X310.552 Y197.839 E5.92498
G1 X311.066 Y198.311 E5.93417
G1 X311.4 Y198.687 E5.94079
G1 X312.643 Y200.203 E5.96661
G1 X313.054 Y200.767 E5.9758
G1 X313.305 Y201.194 E5.98232
G1 X314.229 Y202.923 E6.00813
G1 X314.522 Y203.556 E6.01732
G1 X314.686 Y204.025 E6.02386
G1 X315.255 Y205.901 E6.04967
G1 X315.419 Y206.58 E6.05887
G1 X315.487 Y207.069 E6.06537
G1 X315.68 Y209.02 E6.09119
G1 X315.709 Y209.718 E6.10039
G1 X315.68 Y210.22 E6.10701
G1 X315.487 Y212.17 E6.13281
G1 X315.379 Y212.859 E6.14199
G1 X315.255 Y213.338 E6.14851
G1 X314.686 Y215.214 E6.17432
G1 X314.445 Y215.869 E6.18351
G1 X314.229 Y216.316 E6.19005
G1 X313.305 Y218.045 E6.21586
G1 X312.942 Y218.641 E6.22505
G1 X312.643 Y219.036 E6.23157
G1 X311.4 Y220.552 E6.25739
G1 X310.928 Y221.066 E6.26657
G1 X310.552 Y221.4 E6.2732
G1 X309.036 Y222.643 E6.29901
G1 X308.472 Y223.054 E6.3082
G1 X308.045 Y223.305 E6.31472
G1 X306.316 Y224.229 E6.34054
G1 X305.683 Y224.522 E6.34972
G1 X305.214 Y224.686 E6.35626
G1 X303.338 Y225.255 E6.38208
G1 X302.659 Y225.419 E6.39127
G1 X302.17 Y225.487 E6.39777
G1 X300.22 Y225.68 E6.42358
G1 X299.523 Y225.709 E6.43276
G1 X299.02 Y225.68 E6.4394
G1 X297.069 Y225.487 E6.46521
G1 X296.38 Y225.379 E6.47439
G1 X295.901 Y225.255 E6.48091
