;FLAVOR:Makerbot
;TIME:7188
;MINX:-6.15
;MINY:-18.85
;MINZ:0.3
;MAXX:112.5
;MAXY:73
;MAXZ:50.7
;Generated with Cura_SteamEngine 4.8.0
T0
M82 ;absolute extrusion mode
; **** FlashForge Creator Pro PRINTER start.gcode for dual extrusion only ****
M83 ; relative extrusion mode
M73 P0 ; enable build progress
G162 X Y F3000 ; home XY maximum
G161 Z F1200 ; home Z minimum
G92 Z-5 ; set Z to -5
G1 Z0 ; move Z to 0
G161 Z F100 ; home Z slowly
M132 X Y Z A B ; recall home offsets
M135 T0 ; load right extruder offsets
G1 X150 Y-70 Z30 F9000 ; move to wait position right hand side of the table
G130 X20 Y20 Z20 A20 B20 ; lower stepper Vrefs while heating
M127
M140 S60 T0 ; set bed temperature
M134 T0 ; stabilize bed temperature
M104 S230 T0 ; set right extruder temp
M104 S230 T1 ; set left extruder temp
M133 T0 ; stabilize right extruder temperature
M133 T1 ; stabilize left extruder temperature
G130 X127 Y127 Z40 A127 B127 ; default stepper Vrefs
G92 A0 B0 ; zero extruders
M135 T0 ; right tool
G1 Z0.4 ; position nozzle
G1 X110 Y-70 E25 F300 ; purge nozzle
G1 X120 Y-70 Z0.15 F1200 ; slow wipe
G1 X110 Y-70 Z0.5 F1200 ; lift
G1 Z4 F1200 ; raise
G1 X-110 F4000 ; move nozzle to left side of bed
G1 Z0.4 F1200 ; lower
M135 T1 ; left tool
G1 X-140 Y-70 F9000 ; reposition nozzle
G1 X-100 Y-70 E25 F300 ; purge nozzle
G1 X-110 Y-70 Z0.15 F1200 ; slow wipe
G1 X-100 Y-70 Z0.5 F1200 ; lift
G92 A0 B0 ; zero extruders
M135 T0 ; left or right tool
M73 P1 ;@body (notify GPX body has started)
; **** end of start.gcode ****
M83 ;relative extrusion mode
G1 F1800 E-1.3
;LAYER_COUNT:253
;LAYER:0
M127 T0
;MESH:d2095 specimen_part1.STL
G0 F2700 X-2.94 Y-5.841 Z0.3
;TYPE:WALL-INNER
G1 F1800 E1.3
G1 F900 X-2.81 Y-5.352 E0.02524
G1 X-2.602 Y-4.891 E0.02523
G1 X-2.318 Y-4.472 E0.02525
G1 X-1.966 Y-4.106 E0.02533
G1 X-1.56 Y-3.807 E0.02516
G1 X-1.107 Y-3.58 E0.02528
G1 X-.624 Y-3.434 E0.02517
G1 X-.12 Y-3.369 E0.02535
G1 X0.384 Y-3.392 E0.02517
G1 X0.878 Y-3.499 E0.02522
G1 X1.348 Y-3.688 E0.02527
G1 X1.778 Y-3.955 E0.02525
G1 X2.157 Y-4.289 E0.0252
G1 X2.475 Y-4.684 E0.0253
G1 X2.72 Y-5.125 E0.02517
G1 X2.889 Y-5.603 E0.02529
G1 X2.973 Y-6.104 E0.02534
G1 X2.972 Y-6.607 E0.02509
G1 X2.886 Y-7.107 E0.02531
G1 X2.716 Y-7.584 E0.02526
G1 X2.468 Y-8.025 E0.02524
G1 X2.15 Y-8.418 E0.02522
G1 X1.769 Y-8.752 E0.02528
G1 X1.338 Y-9.017 E0.02524
G1 X0.867 Y-9.204 E0.02528
G1 X0.373 Y-9.309 E0.0252
G1 X-.131 Y-9.331 E0.02517
G1 X-.635 Y-9.265 E0.02536
G1 X-1.117 Y-9.116 E0.02517
G1 X-1.57 Y-8.887 E0.02532
G1 X-1.975 Y-8.585 E0.0252
G1 X-2.324 Y-8.22 E0.02519
G1 X-2.607 Y-7.8 E0.02527
G1 X-2.814 Y-7.338 E0.02526
G1 X-2.941 Y-6.85 E0.02516
G1 X-2.983 Y-6.35 E0.02503
G1 X-2.94 Y-5.841 E0.02548
G0 F2700 X-3.038 Y-5.824
G0 X5.68 Y18.38
G0 X5.75 Y18.45
G1 F900 X-5.75 Y18.45 E0.57374
G1 X-5.75 Y-18.45 E1.84095
G1 X5.75 Y-18.45 E0.57374
G1 X5.75 Y18.45 E1.84095
G0 F2700 X6.15 Y18.85
;TYPE:WALL-OUTER
G1 F900 X-6.15 Y18.85 E0.61365
G1 X-6.15 Y-18.85 E1.88086
G1 X6.15 Y-18.85 E0.61365
G1 X6.15 Y18.85 E1.88086
G0 F2700 X5.95 Y18.85
G0 X5.68 Y18.38
G0 X1.429 Y-3.622
G0 X1.167 Y-4.046
G1 F900 X1.539 Y-4.277 E0.02185
G1 X1.867 Y-4.566 E0.02181
G1 X2.142 Y-4.908 E0.02189
G1 X2.354 Y-5.29 E0.0218
G1 X2.5 Y-5.704 E0.0219
G1 X2.573 Y-6.137 E0.02191
G1 X2.572 Y-6.573 E0.02175
G1 X2.498 Y-7.005 E0.02187
G1 X2.351 Y-7.418 E0.02187
G1 X2.136 Y-7.8 E0.02187
G1 X1.861 Y-8.14 E0.02182
G1 X1.531 Y-8.429 E0.02188
G1 X1.158 Y-8.658 E0.02184
G1 X0.751 Y-8.82 E0.02185
G1 X0.322 Y-8.911 E0.02188
G1 X-.114 Y-8.93 E0.02177
G1 X-.549 Y-8.873 E0.02189
G1 X-.967 Y-8.744 E0.02182
G1 X-1.359 Y-8.546 E0.02191
G1 X-1.709 Y-8.285 E0.02178
G1 X-2.011 Y-7.968 E0.02184
G1 X-2.256 Y-7.605 E0.02185
G1 X-2.435 Y-7.205 E0.02186
G1 X-2.545 Y-6.782 E0.02181
G1 X-2.582 Y-6.35 E0.02163
G1 X-2.544 Y-5.91 E0.02203
G1 X-2.432 Y-5.486 E0.02188
G1 X-2.252 Y-5.087 E0.02184
G1 X-2.006 Y-4.725 E0.02184
G1 X-1.701 Y-4.408 E0.02195
G1 X-1.35 Y-4.149 E0.02176
G1 X-.958 Y-3.953 E0.02187
G1 X-.54 Y-3.826 E0.0218
G1 X-.104 Y-3.77 E0.02193
G1 X0.332 Y-3.79 E0.02178
G1 X0.76 Y-3.883 E0.02185
G1 X1.167 Y-4.046 E0.02187
G0 F2700 X1.337 Y-4.151
G0 X1.525 Y-3.339
;TYPE:SKIN
G1 F900 X2.012 Y-3.641 E0.02859
G1 X2.44 Y-4.018 E0.02846
G1 X2.8 Y-4.466 E0.02867
G1 X3.077 Y-4.965 E0.02847
G1 X3.268 Y-5.505 E0.02858
G1 X3.363 Y-6.072 E0.02868
G1 X3.362 Y-6.64 E0.02834
G1 X3.264 Y-7.206 E0.02866
G1 X3.073 Y-7.746 E0.02858
G1 X2.792 Y-8.245 E0.02857
G1 X2.432 Y-8.689 E0.02852
G1 X2.001 Y-9.068 E0.02863
G1 X1.513 Y-9.367 E0.02855
G1 X0.98 Y-9.579 E0.02862
G1 X0.422 Y-9.697 E0.02845
G1 X-.148 Y-9.723 E0.02847
G1 X-.719 Y-9.647 E0.02874
G1 X-1.263 Y-9.479 E0.02841
G1 X-1.776 Y-9.22 E0.02867
G1 X-2.234 Y-8.878 E0.02852
G1 X-2.629 Y-8.466 E0.02848
G1 X-2.949 Y-7.99 E0.02862
G1 X-3.183 Y-7.468 E0.02854
G1 X-3.327 Y-6.916 E0.02846
G1 X-3.375 Y-6.35 E0.02834
G1 X-3.326 Y-5.774 E0.02884
G1 X-3.179 Y-5.221 E0.02855
G1 X-2.943 Y-4.7 E0.02854
G1 X-2.622 Y-4.226 E0.02856
G1 X-2.224 Y-3.812 E0.02865
G1 X-1.765 Y-3.473 E0.02847
G1 X-1.252 Y-3.217 E0.0286
G1 X-.706 Y-3.052 E0.02846
G1 X-.136 Y-2.977 E0.02868
G1 X0.435 Y-3.004 E0.02852
G1 X0.993 Y-3.125 E0.02849
G1 X1.525 Y-3.339 E0.02861
G0 F2700 X2.508 Y-4.662
G0 X5.36 Y-18.06
G1 F900 X5.36 Y18.06 E1.80203
G1 X-5.36 Y18.06 E0.53482
G1 X-5.36 Y-18.06 E1.80203
G1 X5.36 Y-18.06 E0.53482
G0 F2700 X4.748 Y-17.879
G1 F900 X5.179 Y-17.447 E0.03044
G0 F2700 X5.179 Y-16.882
G1 F900 X4.182 Y-17.879 E0.07034
G0 F2700 X3.616 Y-17.879
G1 F900 X5.179 Y-16.316 E0.11028
G0 F2700 X5.179 Y-15.75
G1 F900 X3.051 Y-17.879 E0.15018
G0 F2700 X2.485 Y-17.879
G1 F900 X5.179 Y-15.185 E0.19008
G0 F2700 X5.179 Y-14.619
G1 F900 X1.919 Y-17.879 E0.23001
G0 F2700 X1.354 Y-17.879
G1 F900 X5.179 Y-14.053 E0.26991
G0 F2700 X5.179 Y-13.488
G1 F900 X0.788 Y-17.879 E0.30981
G0 F2700 X0.222 Y-17.879
G1 F900 X5.179 Y-12.922 E0.34974
G0 F2700 X5.179 Y-12.356
G1 F900 X-.342 Y-17.879 E0.38961
G0 F2700 X-.908 Y-17.879
G1 F900 X5.179 Y-11.791 E0.42951
G0 F2700 X5.179 Y-11.225
G1 F900 X-1.474 Y-17.879 E0.46944
G0 F2700 X-2.04 Y-17.879
G1 F900 X5.179 Y-10.659 E0.50937
G0 F2700 X5.179 Y-10.093
G1 F900 X-2.605 Y-17.879 E0.54927
G0 F2700 X-3.171 Y-17.879
G1 F900 X5.179 Y-9.528 E0.58917
G0 F2700 X5.179 Y-8.962
G1 F900 X-3.737 Y-17.879 E0.62911
G0 F2700 X-4.302 Y-17.879
G1 F900 X5.179 Y-8.396 E0.66901
G0 F2700 X5.179 Y-7.831
G1 F900 X-4.868 Y-17.879 E0.70891
G0 F2700 X-5.179 Y-17.624
G1 F900 X5.179 Y-7.265 E0.73085
G0 F2700 X5.179 Y-6.699
G1 F900 X-5.179 Y-17.058 E0.73085
G0 F2700 X-5.179 Y-16.493
G1 F900 X2.088 Y-9.225 E0.51276
G1 X2.158 Y-9.155
G0 F2700 X2.827 Y-8.486
G1 F900 X5.179 Y-6.134 E0.16595
G0 F2700 X5.179 Y-5.568
G1 F900 X3.406 Y-7.341 E0.12509
G0 F2700 X3.541 Y-6.64
G1 F900 X5.179 Y-5.002 E0.11557
G0 F2700 X5.179 Y-4.437
G1 F900 X3.541 Y-6.074 E0.11553
G0 F2700 X3.463 Y-5.587
G1 F900 X5.179 Y-3.871 E0.12107
G0 F2700 X5.179 Y-3.305
G1 F900 X3.333 Y-5.151 E0.13025
G0 F2700 X3.165 Y-4.754
G1 F900 X5.179 Y-2.74 E0.1421
G0 F2700 X5.179 Y-2.174
G1 F900 X2.963 Y-4.39 E0.15635
G0 F2700 X2.714 Y-4.073
G1 F900 X5.179 Y-1.608 E0.17392
G0 F2700 X5.179 Y-1.042
G1 F900 X2.443 Y-3.779 E0.19307
G0 F2700 X2.142 Y-3.514
G1 F900 X5.179 Y-.477 E0.21428
G0 F2700 X5.179 Y0.088
G1 F900 X1.796 Y-3.294 E0.23865
G0 F2700 X1.422 Y-3.102
G1 F900 X5.179 Y0.654 E0.26504
G0 F2700 X5.179 Y1.219
G1 F900 X1.014 Y-2.945 E0.29383
G0 F2700 X0.55 Y-2.843
G1 F900 X5.179 Y1.785 E0.32657
G0 F2700 X5.179 Y2.351
G1 F900 X0.025 Y-2.802 E0.36361
G0 F2700 X-.591 Y-2.854
G1 F900 X5.179 Y2.916 E0.4071
G0 F2700 X5.179 Y3.482
G1 F900 X-1.383 Y-3.08 E0.46298
G1 X-1.453 Y-3.15
G0 F2700 X-3.254 Y-4.951
G1 F900 X-5.179 Y-6.876 E0.13582
G0 F2700 X-5.179 Y-6.31
G1 F900 X5.179 Y4.048 E0.73081
G0 F2700 X5.179 Y4.613
G1 F900 X-5.179 Y-5.745 E0.73081
G0 F2700 X-5.179 Y-5.179
G1 F900 X5.179 Y5.179 E0.73081
G0 F2700 X5.179 Y5.745
G1 F900 X-5.179 Y-4.613 E0.73081
G0 F2700 X-5.179 Y-4.048
G1 F900 X5.179 Y6.31 E0.73081
G0 F2700 X5.179 Y6.876
G1 F900 X-5.179 Y-3.482 E0.73081
G0 F2700 X-5.179 Y-2.916
G1 F900 X5.179 Y7.442 E0.73081
G0 F2700 X5.179 Y8.007
G1 F900 X-5.179 Y-2.351 E0.73081
G0 F2700 X-5.179 Y-1.785
G1 F900 X5.179 Y8.573 E0.73081
G0 F2700 X5.179 Y9.139
G1 F900 X-5.179 Y-1.219 E0.73081
G0 F2700 X-5.179 Y-.654
G1 F900 X5.179 Y9.705 E0.73085
G0 F2700 X5.179 Y10.27
G1 F900 X-5.179 Y-0.088 E0.73081
G0 F2700 X-5.179 Y0.477
G1 F900 X5.179 Y10.836 E0.73085
G0 F2700 X5.179 Y11.402
G1 F900 X-5.179 Y1.042 E0.73088
G0 F2700 X-5.179 Y1.608
G1 F900 X5.179 Y11.967 E0.73085
G0 F2700 X5.179 Y12.533
G1 F900 X-5.179 Y2.174 E0.73085
G0 F2700 X-5.179 Y2.74
G1 F900 X5.179 Y13.099 E0.73085
G0 F2700 X5.179 Y13.664
G1 F900 X-5.179 Y3.305 E0.73085
G0 F2700 X-5.179 Y3.871
G1 F900 X5.179 Y14.23 E0.73085
G0 F2700 X5.179 Y14.796
G1 F900 X-5.179 Y4.437 E0.73085
G0 F2700 X-5.179 Y5.002
G1 F900 X5.179 Y15.361 E0.73085
G0 F2700 X5.179 Y15.927
G1 F900 X-5.179 Y5.568 E0.73085
G0 F2700 X-5.179 Y6.134
G1 F900 X5.179 Y16.493 E0.73085
G0 F2700 X5.179 Y17.058
G1 F900 X-5.179 Y6.699 E0.73085
G0 F2700 X-5.179 Y7.265
G1 F900 X5.179 Y17.624 E0.73085
G0 F2700 X4.868 Y17.879
G1 F900 X-5.179 Y7.831 E0.70891
G0 F2700 X-5.179 Y8.396
G1 F900 X4.302 Y17.879 E0.66901
G0 F2700 X3.737 Y17.879
G1 F900 X-5.179 Y8.962 E0.62911
G0 F2700 X-5.179 Y9.528
G1 F900 X3.171 Y17.879 E0.58917
G0 F2700 X2.605 Y17.879
G1 F900 X-5.179 Y10.093 E0.54927
G0 F2700 X-5.179 Y10.659
G1 F900 X2.04 Y17.879 E0.50937
G0 F2700 X1.474 Y17.879
G1 F900 X-5.179 Y11.225 E0.46944
G0 F2700 X-5.179 Y11.791
G1 F900 X0.908 Y17.879 E0.42951
G0 F2700 X0.342 Y17.879
G1 F900 X-5.179 Y12.356 E0.38961
G0 F2700 X-5.179 Y12.922
G1 F900 X-.222 Y17.879 E0.34974
G0 F2700 X-.788 Y17.879
G1 F900 X-5.179 Y13.488 E0.30981
G0 F2700 X-5.179 Y14.053
G1 F900 X-1.354 Y17.879 E0.26991
G0 F2700 X-1.919 Y17.879
G1 F900 X-5.179 Y14.619 E0.23001
G0 F2700 X-5.179 Y15.185
G1 F900 X-2.485 Y17.879 E0.19008
G0 F2700 X-3.051 Y17.879
G1 F900 X-5.179 Y15.75 E0.15018
G0 F2700 X-5.179 Y16.316
G1 F900 X-3.616 Y17.879 E0.11028
G0 F2700 X-4.182 Y17.879
G1 F900 X-5.179 Y16.882 E0.07034
G0 F2700 X-5.179 Y17.447
G1 F900 X-4.748 Y17.879 E0.03044
G0 F2700 X-3.505 Y-5.768
G1 F900 X-5.179 Y-7.442 E0.11811
G0 F2700 X-5.179 Y-8.007
G1 F900 X-3.552 Y-6.38 E0.11479
G0 F2700 X-3.508 Y-6.902
G1 F900 X-5.179 Y-8.573 E0.1179
G0 F2700 X-5.179 Y-9.139
G1 F900 X-3.397 Y-7.357 E0.12573
G0 F2700 X-3.244 Y-7.77
G1 F900 X-5.179 Y-9.705 E0.13652
G0 F2700 X-5.179 Y-10.27
G1 F900 X-3.058 Y-8.149 E0.14965
G0 F2700 X-2.829 Y-8.486
G1 F900 X-5.179 Y-10.836 E0.16581
G0 F2700 X-5.179 Y-11.402
G1 F900 X-2.566 Y-8.789 E0.18436
G0 F2700 X-2.279 Y-9.067
G1 F900 X-5.179 Y-11.967 E0.20461
G0 F2700 X-5.179 Y-12.533
G1 F900 X-1.956 Y-9.31 E0.2274
G0 F2700 X-1.593 Y-9.513
G1 F900 X-5.179 Y-13.099 E0.25301
G0 F2700 X-5.179 Y-13.664
G1 F900 X-1.201 Y-9.686 E0.28067
G0 F2700 X-.768 Y-9.819
G1 F900 X-5.179 Y-14.23 E0.31122
G0 F2700 X-5.179 Y-14.796
G1 F900 X-.271 Y-9.888 E0.34629
G0 F2700 X0.299 Y-9.882
G1 F900 X-5.179 Y-15.361 E0.38654
G0 F2700 X-5.179 Y-15.927
G1 F900 X0.987 Y-9.76 E0.43508
M104 S230
G1 X1.057 Y-9.69
;MESH:NONMESH
G0 F600 X1.057 Y-9.69 Z0.5
G0 F2700 X-1.131 Y-9.153
G0 X-2.001 Y-8.614
G0 X-2.641 Y-7.819
G0 X-3.083 Y-6.35
G0 X-2.984 Y-6.349
;TIME_ELAPSED:86.434154
;LAYER:1
M126 T0
;TYPE:WALL-INNER
;MESH:d2095 specimen_part1.STL
G1 F1650 X-2.937 Y-5.831 E0.0173
G1 X-2.807 Y-5.342 E0.01683
G1 X-2.597 Y-4.883 E0.01679
G1 X-2.311 Y-4.464 E0.01687
G1 X-1.958 Y-4.101 E0.01684
G1 X-1.551 Y-3.803 E0.01678
G1 X-1.098 Y-3.577 E0.01684
G1 X-.614 Y-3.432 E0.0168
G1 X-.113 Y-3.369 E0.01679
G1 X0.393 Y-3.393 E0.01685
G1 X0.888 Y-3.502 E0.01686
G1 X1.357 Y-3.693 E0.01684
G1 X1.786 Y-3.961 E0.01682
G1 X2.164 Y-4.298 E0.01684
G1 X2.48 Y-4.692 E0.0168
G1 X2.724 Y-5.136 E0.01685
G1 X2.89 Y-5.613 E0.0168
G1 X2.973 Y-6.112 E0.01682
G1 X2.971 Y-6.618 E0.01683
G1 X2.883 Y-7.117 E0.01685
G1 X2.711 Y-7.593 E0.01683
G1 X2.462 Y-8.033 E0.01682
G1 X2.142 Y-8.426 E0.01686
G1 X1.76 Y-8.757 E0.01681
G1 X1.328 Y-9.02 E0.01682
G1 X0.858 Y-9.206 E0.01681
G1 X0.365 Y-9.309 E0.01675
G1 X-.14 Y-9.33 E0.01681
G1 X-.643 Y-9.263 E0.01688
G1 X-1.127 Y-9.113 E0.01685
G1 X-1.578 Y-8.881 E0.01687
G1 X-1.982 Y-8.579 E0.01678
G1 X-2.331 Y-8.212 E0.01684
G1 X-2.612 Y-7.791 E0.01684
G1 X-2.817 Y-7.329 E0.01681
G1 X-2.942 Y-6.84 E0.01679
G1 X-2.984 Y-6.349 E0.01639
G0 F4950 X-3.084 Y-6.349
G0 X-2.89 Y-5.523
G0 X5.68 Y18.38
G0 X5.75 Y18.45
G1 F1650 X-5.75 Y18.45 E0.38249
G1 X-5.75 Y-18.45 E1.2273
G1 X5.75 Y-18.45 E0.38249
G1 X5.75 Y18.45 E1.2273
G0 F4950 X6.15 Y18.85
;TYPE:WALL-OUTER
G1 F1050 X-6.15 Y18.85 E0.4091
G1 X-6.15 Y-18.85 E1.25391
G1 X6.15 Y-18.85 E0.4091
G1 X6.15 Y18.85 E1.25391
G0 F4950 X5.95 Y18.85
G0 X5.68 Y18.38
G0 X-.159 Y-3.275
G0 X-0.097 Y-3.77
G1 F1050 X0.34 Y-3.791 E0.01455
G1 X0.769 Y-3.885 E0.01461
G1 X1.174 Y-4.05 E0.01455
G1 X1.545 Y-4.282 E0.01455
G1 X1.873 Y-4.574 E0.01461
G1 X2.146 Y-4.915 E0.01453
G1 X2.357 Y-5.299 E0.01457
G1 X2.501 Y-5.712 E0.01455
G1 X2.573 Y-6.144 E0.01457
G1 X2.571 Y-6.582 E0.01457
G1 X2.495 Y-7.014 E0.01459
G1 X2.346 Y-7.426 E0.01457
G1 X2.131 Y-7.807 E0.01455
G1 X1.854 Y-8.146 E0.01456
G1 X1.523 Y-8.433 E0.01457
G1 X1.149 Y-8.661 E0.01457
G1 X0.743 Y-8.821 E0.01451
G1 X0.315 Y-8.911 E0.01455
G1 X-.122 Y-8.929 E0.01455
G1 X-.557 Y-8.871 E0.0146
G1 X-.975 Y-8.741 E0.01456
G1 X-1.365 Y-8.541 E0.01458
G1 X-1.715 Y-8.279 E0.01454
G1 X-2.017 Y-7.961 E0.01459
G1 X-2.26 Y-7.597 E0.01456
G1 X-2.438 Y-7.197 E0.01456
G1 X-2.546 Y-6.773 E0.01455
G1 X-2.582 Y-6.35 E0.01412
G1 X-2.542 Y-5.901 E0.01499
G1 X-2.429 Y-5.478 E0.01456
G1 X-2.247 Y-5.08 E0.01456
G1 X-2 Y-4.718 E0.01458
G1 X-1.695 Y-4.404 E0.01456
G1 X-1.342 Y-4.146 E0.01454
G1 X-.95 Y-3.95 E0.01458
G1 X-.531 Y-3.825 E0.01454
G1 X-0.097 Y-3.77 E0.01455
G0 F4950 X0.103 Y-3.779
G0 X-.128 Y-2.977
;TYPE:SKIN
G1 F1050 X0.444 Y-3.005 E0.01905
G1 X1.005 Y-3.128 E0.0191
G1 X1.535 Y-3.344 E0.01904
G1 X2.02 Y-3.647 E0.01902
G1 X2.448 Y-4.029 E0.01908
G1 X2.806 Y-4.474 E0.019
G1 X3.081 Y-4.977 E0.01907
G1 X3.269 Y-5.516 E0.01899
G1 X3.363 Y-6.081 E0.01905
G1 X3.361 Y-6.653 E0.01902
G1 X3.261 Y-7.218 E0.01908
G1 X3.066 Y-7.757 E0.01906
G1 X2.785 Y-8.253 E0.01896
G1 X2.423 Y-8.699 E0.01911
G1 X1.99 Y-9.073 E0.01903
G1 X1.502 Y-9.371 E0.01902
G1 X0.971 Y-9.581 E0.01899
G1 X0.414 Y-9.697 E0.01892
G1 X-.158 Y-9.722 E0.01904
G1 X-.727 Y-9.645 E0.0191
G1 X-1.275 Y-9.476 E0.01907
G1 X-1.785 Y-9.213 E0.01909
G1 X-2.242 Y-8.872 E0.01896
G1 X-2.637 Y-8.456 E0.01908
G1 X-2.955 Y-7.98 E0.01904
G1 X-3.187 Y-7.458 E0.019
G1 X-3.328 Y-6.906 E0.01895
G1 X-3.376 Y-6.348 E0.01863
G1 X-3.323 Y-5.763 E0.01954
G1 X-3.175 Y-5.21 E0.01904
G1 X-2.938 Y-4.69 E0.01901
G1 X-2.614 Y-4.216 E0.0191
G1 X-2.215 Y-3.806 E0.01903
G1 X-1.754 Y-3.469 E0.01899
G1 X-1.242 Y-3.213 E0.01904
G1 X-.694 Y-3.049 E0.01903
G1 X-.128 Y-2.977 E0.01898
G0 F4950 X1.375 Y-3.658
G0 X2.193 Y-4.271
G0 X2.76 Y-5.12
G0 X5.36 Y-18.06
G1 F1050 X5.36 Y18.06 E1.20136
G1 X-5.36 Y18.06 E0.35655
G1 X-5.36 Y-18.06 E1.20136
G1 X5.36 Y-18.06 E0.35655
G0 F4950 X-4.748 Y-17.879
G1 F1050 X-5.179 Y-17.447 E0.0203
G0 F4950 X-5.179 Y-16.882
G1 F1050 X-4.182 Y-17.879 E0.0469
G0 F4950 X-3.616 Y-17.879
G1 F1050 X-5.179 Y-16.316 E0.07352
G0 F4950 X-5.179 Y-15.75
G1 F1050 X-3.051 Y-17.879 E0.10012
G0 F4950 X-2.485 Y-17.879
G1 F1050 X-5.179 Y-15.185 E0.12672
G0 F4950 X-5.179 Y-14.619
G1 F1050 X-1.919 Y-17.879 E0.15334
G0 F4950 X-1.354 Y-17.879
G1 F1050 X-5.179 Y-14.053 E0.17994
G0 F4950 X-5.179 Y-13.488
G1 F1050 X-.788 Y-17.879 E0.20654
G0 F4950 X-.222 Y-17.879
G1 F1050 X-5.179 Y-12.922 E0.23316
G0 F4950 X-5.179 Y-12.356
G1 F1050 X0.342 Y-17.879 E0.25974
G0 F4950 X0.908 Y-17.879
G1 F1050 X-5.179 Y-11.791 E0.28634
G0 F4950 X-5.179 Y-11.225
G1 F1050 X1.474 Y-17.879 E0.31296
G0 F4950 X2.04 Y-17.879
G1 F1050 X-5.179 Y-10.659 E0.33958
G0 F4950 X-5.179 Y-10.093
G1 F1050 X2.605 Y-17.879 E0.36618
G0 F4950 X3.171 Y-17.879
G1 F1050 X-5.179 Y-9.528 E0.39278
G0 F4950 X-5.179 Y-8.962
G1 F1050 X3.737 Y-17.879 E0.4194
G0 F4950 X4.302 Y-17.879
G1 F1050 X-5.179 Y-8.396 E0.446
G0 F4950 X-5.179 Y-7.831
G1 F1050 X4.868 Y-17.879 E0.4726
G0 F4950 X5.179 Y-17.624
G1 F1050 X-5.179 Y-7.265 E0.48723
