;FLAVOR:Makerbot
;TIME:11921
;MINX:-26.053
;MINY:-33.35
;MINZ:0.3
;MAXX:112.5
;MAXY:73
;MAXZ:13.7
;Generated with Cura_SteamEngine 4.8.0
T0
M82 ;absolute extrusion mode
; **** FlashForge Creator Pro PRINTER start.gcode for dual extrusion only ****
M83 ; relative extrusion mode
M73 P0 ; enable build progress
G162 X Y F3000 ; home XY maximum
G161 Z F1200 ; home Z minimum
G92 Z-5 ; set Z to -5
G1 Z0 ; move Z to 0
G161 Z F100 ; home Z slowly
M132 X Y Z A B ; recall home offsets
M135 T0 ; load right extruder offsets
G1 X150 Y-70 Z30 F9000 ; move to wait position right hand side of the table
G130 X20 Y20 Z20 A20 B20 ; lower stepper Vrefs while heating
M127
M140 S60 T0 ; set bed temperature
M134 T0 ; stabilize bed temperature
M104 S230 T0 ; set right extruder temp
M104 S230 T1 ; set left extruder temp
M133 T0 ; stabilize right extruder temperature
M133 T1 ; stabilize left extruder temperature
G130 X127 Y127 Z40 A127 B127 ; default stepper Vrefs
G92 A0 B0 ; zero extruders
M135 T0 ; right tool
G1 Z0.4 ; position nozzle
G1 X110 Y-70 E25 F300 ; purge nozzle
G1 X120 Y-70 Z0.15 F1200 ; slow wipe
G1 X110 Y-70 Z0.5 F1200 ; lift
G1 Z4 F1200 ; raise
G1 X-110 F4000 ; move nozzle to left side of bed
G1 Z0.4 F1200 ; lower
M135 T1 ; left tool
G1 X-140 Y-70 F9000 ; reposition nozzle
G1 X-100 Y-70 E25 F300 ; purge nozzle
G1 X-110 Y-70 Z0.15 F1200 ; slow wipe
G1 X-100 Y-70 Z0.5 F1200 ; lift
G92 A0 B0 ; zero extruders
M135 T0 ; left or right tool
M73 P1 ;@body (notify GPX body has started)
; **** end of start.gcode ****
M83 ;relative extrusion mode
G1 F1800 E-1.3
;LAYER_COUNT:63
;LAYER:0
M127 T0
M104 T1 S175
;MESH:FCPRO_final_3.3mf
G0 X-.525 Y5.75 Z0.3
;TYPE:WALL-INNER
G1 F1800 E1.3
G1 F900 X-24.8 Y5.75 E1.21108
G1 X-24.8 Y-5.75 E0.57374
G1 X-.525 Y-5.75 E1.21108
G1 X-.525 Y5.75 E0.57374
G0 F1800 X-.125 Y6.15
;TYPE:WALL-OUTER
G1 F900 X-25.2 Y6.15 E1.251
G1 X-25.2 Y-6.15 E0.61365
G1 X-.125 Y-6.15 E1.251
G1 X-.125 Y6.15 E0.61365
G0 F1800 X-.325 Y6.15
G0 X-.915 Y5.36
;TYPE:SKIN
G1 F900 X-24.41 Y5.36 E1.17217
G1 X-24.41 Y-5.36 E0.53482
G1 X-.915 Y-5.36 E1.17217
G1 X-.915 Y5.36 E0.53482
G0 F1800 X-1.2 Y5.18
G1 F900 X-1.2 Y-5.18 E0.51686
G0 F1800 X-1.6 Y-5.18
G1 F900 X-1.6 Y5.18 E0.51686
G0 F1800 X-2 Y5.18
G1 F900 X-2 Y-5.18 E0.51686
G0 F1800 X-2.4 Y-5.18
G1 F900 X-2.4 Y5.18 E0.51686
G0 F1800 X-2.8 Y5.18
G1 F900 X-2.8 Y-5.18 E0.51686
G0 F1800 X-3.2 Y-5.18
G1 F900 X-3.2 Y5.18 E0.51686
G0 F1800 X-3.6 Y5.18
G1 F900 X-3.6 Y-5.18 E0.51686
G0 F1800 X-4 Y-5.18
G1 F900 X-4 Y5.18 E0.51686
G0 F1800 X-4.4 Y5.18
G1 F900 X-4.4 Y-5.18 E0.51686
G0 F1800 X-4.8 Y-5.18
G1 F900 X-4.8 Y5.18 E0.51686
G0 F1800 X-5.2 Y5.18
G1 F900 X-5.2 Y-5.18 E0.51686
G0 F1800 X-5.6 Y-5.18
G1 F900 X-5.6 Y5.18 E0.51686
G0 F1800 X-6 Y5.18
G1 F900 X-6 Y-5.18 E0.51686
G0 F1800 X-6.4 Y-5.18
G1 F900 X-6.4 Y5.18 E0.51686
G0 F1800 X-6.8 Y5.18
G1 F900 X-6.8 Y-5.18 E0.51686
G0 F1800 X-7.2 Y-5.18
G1 F900 X-7.2 Y5.18 E0.51686
G0 F1800 X-7.6 Y5.18
G1 F900 X-7.6 Y-5.18 E0.51686
G0 F1800 X-8 Y-5.18
G1 F900 X-8 Y5.18 E0.51686
G0 F1800 X-8.4 Y5.18
G1 F900 X-8.4 Y-5.18 E0.51686
G0 F1800 X-8.8 Y-5.18
G1 F900 X-8.8 Y5.18 E0.51686
G0 F1800 X-9.2 Y5.18
G1 F900 X-9.2 Y-5.18 E0.51686
G0 F1800 X-9.6 Y-5.18
G1 F900 X-9.6 Y5.18 E0.51686
G0 F1800 X-10 Y5.18
G1 F900 X-10 Y-5.18 E0.51686
G0 F1800 X-10.4 Y-5.18
G1 F900 X-10.4 Y5.18 E0.51686
G0 F1800 X-10.8 Y5.18
G1 F900 X-10.8 Y-5.18 E0.51686
G0 F1800 X-11.2 Y-5.18
G1 F900 X-11.2 Y5.18 E0.51686
G0 F1800 X-11.6 Y5.18
G1 F900 X-11.6 Y-5.18 E0.51686
G0 F1800 X-12 Y-5.18
G1 F900 X-12 Y5.18 E0.51686
G0 F1800 X-12.4 Y5.18
G1 F900 X-12.4 Y-5.18 E0.51686
G0 F1800 X-12.8 Y-5.18
G1 F900 X-12.8 Y5.18 E0.51686
G0 F1800 X-13.2 Y5.18
G1 F900 X-13.2 Y-5.18 E0.51686
G0 F1800 X-13.6 Y-5.18
G1 F900 X-13.6 Y5.18 E0.51686
G0 F1800 X-14 Y5.18
G1 F900 X-14 Y-5.18 E0.51686
G0 F1800 X-14.4 Y-5.18
G1 F900 X-14.4 Y5.18 E0.51686
G0 F1800 X-14.8 Y5.18
G1 F900 X-14.8 Y-5.18 E0.51686
G0 F1800 X-15.2 Y-5.18
G1 F900 X-15.2 Y5.18 E0.51686
G0 F1800 X-15.6 Y5.18
G1 F900 X-15.6 Y-5.18 E0.51686
G0 F1800 X-16 Y-5.18
G1 F900 X-16 Y5.18 E0.51686
G0 F1800 X-16.4 Y5.18
G1 F900 X-16.4 Y-5.18 E0.51686
G0 F1800 X-16.8 Y-5.18
G1 F900 X-16.8 Y5.18 E0.51686
G0 F1800 X-17.2 Y5.18
G1 F900 X-17.2 Y-5.18 E0.51686
G0 F1800 X-17.6 Y-5.18
G1 F900 X-17.6 Y5.18 E0.51686
G0 F1800 X-18 Y5.18
G1 F900 X-18 Y-5.18 E0.51686
G0 F1800 X-18.4 Y-5.18
G1 F900 X-18.4 Y5.18 E0.51686
G0 F1800 X-18.8 Y5.18
G1 F900 X-18.8 Y-5.18 E0.51686
G0 F1800 X-19.2 Y-5.18
G1 F900 X-19.2 Y5.18 E0.51686
G0 F1800 X-19.6 Y5.18
G1 F900 X-19.6 Y-5.18 E0.51686
G0 F1800 X-20 Y-5.18
G1 F900 X-20 Y5.18 E0.51686
G0 F1800 X-20.4 Y5.18
G1 F900 X-20.4 Y-5.18 E0.51686
G0 F1800 X-20.8 Y-5.18
G1 F900 X-20.8 Y5.18 E0.51686
G0 F1800 X-21.2 Y5.18
G1 F900 X-21.2 Y-5.18 E0.51686
G0 F1800 X-21.6 Y-5.18
G1 F900 X-21.6 Y5.18 E0.51686
G0 F1800 X-22 Y5.18
G1 F900 X-22 Y-5.18 E0.51686
G0 F1800 X-22.4 Y-5.18
G1 F900 X-22.4 Y5.18 E0.51686
G0 F1800 X-22.8 Y5.18
G1 F900 X-22.8 Y-5.18 E0.51686
G0 F1800 X-23.2 Y-5.18
G1 F900 X-23.2 Y5.18 E0.51686
G0 F1800 X-23.6 Y5.18
G1 F900 X-23.6 Y-5.18 E0.51686
G0 F1800 X-24 Y-5.18
G1 F900 X-24 Y5.18 E0.51686
G1 X-24 Y5.28
G1 F1800 E-1.3
;MESH:FCPRO_final_3.3mf(4)
G0 X-.595 Y-5.73
G0 X-.595 Y-7.015
G0 X-.748 Y-20.197
G0 X-.595 Y-21.47
G0 X-.525 Y-21.45
;TYPE:WALL-INNER
G1 F1800 E1.3
G1 F900 X-24.8 Y-21.45 E1.21108
G1 X-24.8 Y-32.95 E0.57374
G1 X-.525 Y-32.95 E1.21108
G1 X-.525 Y-21.45 E0.57374
G0 F1800 X-.125 Y-21.05
;TYPE:WALL-OUTER
G1 F900 X-25.2 Y-21.05 E1.251
G1 X-25.2 Y-33.35 E0.61365
G1 X-.125 Y-33.35 E1.251
G1 X-.125 Y-21.05 E0.61365
G0 F1800 X-.325 Y-21.05
G0 X-.915 Y-21.84
;TYPE:SKIN
G1 F900 X-24.41 Y-21.84 E1.17217
G1 X-24.41 Y-32.56 E0.53482
G1 X-.915 Y-32.56 E1.17217
G1 X-.915 Y-21.84 E0.53482
G0 F1800 X-1.2 Y-22.02
G1 F900 X-1.2 Y-32.38 E0.51686
G0 F1800 X-1.6 Y-32.38
G1 F900 X-1.6 Y-22.02 E0.51686
G0 F1800 X-2 Y-22.02
G1 F900 X-2 Y-32.38 E0.51686
G0 F1800 X-2.4 Y-32.38
G1 F900 X-2.4 Y-22.02 E0.51686
G0 F1800 X-2.8 Y-22.02
G1 F900 X-2.8 Y-32.38 E0.51686
G0 F1800 X-3.2 Y-32.38
G1 F900 X-3.2 Y-22.02 E0.51686
G0 F1800 X-3.6 Y-22.02
G1 F900 X-3.6 Y-32.38 E0.51686
G0 F1800 X-4 Y-32.38
G1 F900 X-4 Y-22.02 E0.51686
G0 F1800 X-4.4 Y-22.02
G1 F900 X-4.4 Y-32.38 E0.51686
G0 F1800 X-4.8 Y-32.38
G1 F900 X-4.8 Y-22.02 E0.51686
G0 F1800 X-5.2 Y-22.02
G1 F900 X-5.2 Y-32.38 E0.51686
G0 F1800 X-5.6 Y-32.38
G1 F900 X-5.6 Y-22.02 E0.51686
G0 F1800 X-6 Y-22.02
G1 F900 X-6 Y-32.38 E0.51686
G0 F1800 X-6.4 Y-32.38
G1 F900 X-6.4 Y-22.02 E0.51686
G0 F1800 X-6.8 Y-22.02
G1 F900 X-6.8 Y-32.38 E0.51686
G0 F1800 X-7.2 Y-32.38
G1 F900 X-7.2 Y-22.02 E0.51686
G0 F1800 X-7.6 Y-22.02
G1 F900 X-7.6 Y-32.38 E0.51686
G0 F1800 X-8 Y-32.38
G1 F900 X-8 Y-22.02 E0.51686
G0 F1800 X-8.4 Y-22.02
G1 F900 X-8.4 Y-32.38 E0.51686
G0 F1800 X-8.8 Y-32.38
G1 F900 X-8.8 Y-22.02 E0.51686
G0 F1800 X-9.2 Y-22.02
G1 F900 X-9.2 Y-32.38 E0.51686
G0 F1800 X-9.6 Y-32.38
G1 F900 X-9.6 Y-22.02 E0.51686
G0 F1800 X-10 Y-22.02
G1 F900 X-10 Y-32.38 E0.51686
G0 F1800 X-10.4 Y-32.38
G1 F900 X-10.4 Y-22.02 E0.51686
G0 F1800 X-10.8 Y-22.02
G1 F900 X-10.8 Y-32.38 E0.51686
G0 F1800 X-11.2 Y-32.38
G1 F900 X-11.2 Y-22.02 E0.51686
G0 F1800 X-11.6 Y-22.02
G1 F900 X-11.6 Y-32.38 E0.51686
G0 F1800 X-12 Y-32.38
G1 F900 X-12 Y-22.02 E0.51686
G0 F1800 X-12.4 Y-22.02
G1 F900 X-12.4 Y-32.38 E0.51686
G0 F1800 X-12.8 Y-32.38
G1 F900 X-12.8 Y-22.02 E0.51686
G0 F1800 X-13.2 Y-22.02
G1 F900 X-13.2 Y-32.38 E0.51686
G0 F1800 X-13.6 Y-32.38
G1 F900 X-13.6 Y-22.02 E0.51686
G0 F1800 X-14 Y-22.02
G1 F900 X-14 Y-32.38 E0.51686
G0 F1800 X-14.4 Y-32.38
G1 F900 X-14.4 Y-22.02 E0.51686
G0 F1800 X-14.8 Y-22.02
G1 F900 X-14.8 Y-32.38 E0.51686
G0 F1800 X-15.2 Y-32.38
G1 F900 X-15.2 Y-22.02 E0.51686
G0 F1800 X-15.6 Y-22.02
G1 F900 X-15.6 Y-32.38 E0.51686
G0 F1800 X-16 Y-32.38
G1 F900 X-16 Y-22.02 E0.51686
G0 F1800 X-16.4 Y-22.02
G1 F900 X-16.4 Y-32.38 E0.51686
G0 F1800 X-16.8 Y-32.38
G1 F900 X-16.8 Y-22.02 E0.51686
G0 F1800 X-17.2 Y-22.02
G1 F900 X-17.2 Y-32.38 E0.51686
G0 F1800 X-17.6 Y-32.38
G1 F900 X-17.6 Y-22.02 E0.51686
G0 F1800 X-18 Y-22.02
G1 F900 X-18 Y-32.38 E0.51686
G0 F1800 X-18.4 Y-32.38
G1 F900 X-18.4 Y-22.02 E0.51686
G0 F1800 X-18.8 Y-22.02
G1 F900 X-18.8 Y-32.38 E0.51686
G0 F1800 X-19.2 Y-32.38
G1 F900 X-19.2 Y-22.02 E0.51686
G0 F1800 X-19.6 Y-22.02
G1 F900 X-19.6 Y-32.38 E0.51686
G0 F1800 X-20 Y-32.38
G1 F900 X-20 Y-22.02 E0.51686
G0 F1800 X-20.4 Y-22.02
G1 F900 X-20.4 Y-32.38 E0.51686
G0 F1800 X-20.8 Y-32.38
G1 F900 X-20.8 Y-22.02 E0.51686
G0 F1800 X-21.2 Y-22.02
G1 F900 X-21.2 Y-32.38 E0.51686
G0 F1800 X-21.6 Y-32.38
G1 F900 X-21.6 Y-22.02 E0.51686
G0 F1800 X-22 Y-22.02
G1 F900 X-22 Y-32.38 E0.51686
G0 F1800 X-22.4 Y-32.38
G1 F900 X-22.4 Y-22.02 E0.51686
G0 F1800 X-22.8 Y-22.02
G1 F900 X-22.8 Y-32.38 E0.51686
G0 F1800 X-23.2 Y-32.38
G1 F900 X-23.2 Y-22.02 E0.51686
G0 F1800 X-23.6 Y-22.02
G1 F900 X-23.6 Y-32.38 E0.51686
G0 F1800 X-24 Y-32.38
G1 F900 X-24 Y-22.02 E0.51686
G1 X-24 Y-21.92
G1 F1800 E-1.3
;MESH:FCPRO_final_3.3mf(5)
G0 X-.595 Y-21.47
G0 X-.748 Y-20.197
G0 X-26.053 Y-7.003
G0 X-26.053 Y7.003
G0 X-.748 Y20.197
G0 X-.595 Y21.47
G0 X-.595 Y32.88
G0 X-.525 Y32.95
;TYPE:WALL-INNER
G1 F1800 E1.3
G1 F900 X-24.8 Y32.95 E1.21108
G1 X-24.8 Y21.45 E0.57374
G1 X-.525 Y21.45 E1.21108
G1 X-.525 Y32.95 E0.57374
G0 F1800 X-.125 Y33.35
;TYPE:WALL-OUTER
G1 F900 X-25.2 Y33.35 E1.251
G1 X-25.2 Y21.05 E0.61365
G1 X-.125 Y21.05 E1.251
G1 X-.125 Y33.35 E0.61365
G0 F1800 X-.325 Y33.35
G0 X-.915 Y32.56
;TYPE:SKIN
G1 F900 X-24.41 Y32.56 E1.17217
G1 X-24.41 Y21.84 E0.53482
G1 X-.915 Y21.84 E1.17217
G1 X-.915 Y32.56 E0.53482
G0 F1800 X-1.2 Y32.38
G1 F900 X-1.2 Y22.02 E0.51686
G0 F1800 X-1.6 Y22.02
G1 F900 X-1.6 Y32.38 E0.51686
G0 F1800 X-2 Y32.38
G1 F900 X-2 Y22.02 E0.51686
G0 F1800 X-2.4 Y22.02
G1 F900 X-2.4 Y32.38 E0.51686
G0 F1800 X-2.8 Y32.38
G1 F900 X-2.8 Y22.02 E0.51686
G0 F1800 X-3.2 Y22.02
G1 F900 X-3.2 Y32.38 E0.51686
G0 F1800 X-3.6 Y32.38
G1 F900 X-3.6 Y22.02 E0.51686
G0 F1800 X-4 Y22.02
G1 F900 X-4 Y32.38 E0.51686
G0 F1800 X-4.4 Y32.38
G1 F900 X-4.4 Y22.02 E0.51686
G0 F1800 X-4.8 Y22.02
G1 F900 X-4.8 Y32.38 E0.51686
G0 F1800 X-5.2 Y32.38
G1 F900 X-5.2 Y22.02 E0.51686
G0 F1800 X-5.6 Y22.02
G1 F900 X-5.6 Y32.38 E0.51686
G0 F1800 X-6 Y32.38
G1 F900 X-6 Y22.02 E0.51686
G0 F1800 X-6.4 Y22.02
G1 F900 X-6.4 Y32.38 E0.51686
G0 F1800 X-6.8 Y32.38
G1 F900 X-6.8 Y22.02 E0.51686
G0 F1800 X-7.2 Y22.02
G1 F900 X-7.2 Y32.38 E0.51686
G0 F1800 X-7.6 Y32.38
G1 F900 X-7.6 Y22.02 E0.51686
G0 F1800 X-8 Y22.02
G1 F900 X-8 Y32.38 E0.51686
G0 F1800 X-8.4 Y32.38
G1 F900 X-8.4 Y22.02 E0.51686
G0 F1800 X-8.8 Y22.02
G1 F900 X-8.8 Y32.38 E0.51686
G0 F1800 X-9.2 Y32.38
G1 F900 X-9.2 Y22.02 E0.51686
G0 F1800 X-9.6 Y22.02
G1 F900 X-9.6 Y32.38 E0.51686
G0 F1800 X-10 Y32.38
G1 F900 X-10 Y22.02 E0.51686
G0 F1800 X-10.4 Y22.02
G1 F900 X-10.4 Y32.38 E0.51686
G0 F1800 X-10.8 Y32.38
M104 T1 S230
G1 F900 X-10.8 Y22.02 E0.51686
G0 F1800 X-11.2 Y22.02
G1 F900 X-11.2 Y32.38 E0.51686
G0 F1800 X-11.6 Y32.38
G1 F900 X-11.6 Y22.02 E0.51686
G0 F1800 X-12 Y22.02
G1 F900 X-12 Y32.38 E0.51686
G0 F1800 X-12.4 Y32.38
G1 F900 X-12.4 Y22.02 E0.51686
G0 F1800 X-12.8 Y22.02
G1 F900 X-12.8 Y32.38 E0.51686
G0 F1800 X-13.2 Y32.38
G1 F900 X-13.2 Y22.02 E0.51686
G0 F1800 X-13.6 Y22.02
G1 F900 X-13.6 Y32.38 E0.51686
G0 F1800 X-14 Y32.38
G1 F900 X-14 Y22.02 E0.51686
G0 F1800 X-14.4 Y22.02
G1 F900 X-14.4 Y32.38 E0.51686
G0 F1800 X-14.8 Y32.38
G1 F900 X-14.8 Y22.02 E0.51686
G0 F1800 X-15.2 Y22.02
G1 F900 X-15.2 Y32.38 E0.51686
G0 F1800 X-15.6 Y32.38
G1 F900 X-15.6 Y22.02 E0.51686
G0 F1800 X-16 Y22.02
G1 F900 X-16 Y32.38 E0.51686
G0 F1800 X-16.4 Y32.38
G1 F900 X-16.4 Y22.02 E0.51686
G0 F1800 X-16.8 Y22.02
G1 F900 X-16.8 Y32.38 E0.51686
G0 F1800 X-17.2 Y32.38
G1 F900 X-17.2 Y22.02 E0.51686
G0 F1800 X-17.6 Y22.02
G1 F900 X-17.6 Y32.38 E0.51686
G0 F1800 X-18 Y32.38
G1 F900 X-18 Y22.02 E0.51686
G0 F1800 X-18.4 Y22.02
G1 F900 X-18.4 Y32.38 E0.51686
G0 F1800 X-18.8 Y32.38
G1 F900 X-18.8 Y22.02 E0.51686
G0 F1800 X-19.2 Y22.02
G1 F900 X-19.2 Y32.38 E0.51686
G0 F1800 X-19.6 Y32.38
G1 F900 X-19.6 Y22.02 E0.51686
G0 F1800 X-20 Y22.02
G1 F900 X-20 Y32.38 E0.51686
G0 F1800 X-20.4 Y32.38
G1 F900 X-20.4 Y22.02 E0.51686
G0 F1800 X-20.8 Y22.02
G1 F900 X-20.8 Y32.38 E0.51686
G0 F1800 X-21.2 Y32.38
G1 F900 X-21.2 Y22.02 E0.51686
G0 F1800 X-21.6 Y22.02
G1 F900 X-21.6 Y32.38 E0.51686
G0 F1800 X-22 Y32.38
G1 F900 X-22 Y22.02 E0.51686
G0 F1800 X-22.4 Y22.02
G1 F900 X-22.4 Y32.38 E0.51686
G0 F1800 X-22.8 Y32.38
G1 F900 X-22.8 Y22.02 E0.51686
G0 F1800 X-23.2 Y22.02
G1 F900 X-23.2 Y32.38 E0.51686
G0 F1800 X-23.6 Y32.38
G1 F900 X-23.6 Y22.02 E0.51686
M104 S215
G0 F1800 X-24 Y22.02
G1 F900 X-24 Y32.38 E0.51686
G1 X-24 Y32.48
G1 F1800 E-1.3
;MESH:FCPRO_final_3.3mf(1)
G0 X-.539 Y32.936
G0 X-.38 Y34.292
G0 X112.5 Y73
G1 F1200 E-14.7
G1 F600 Z1.3
M135 T1
M104 S230
M116
M104 T0 S175
G1 F1800 E-1.3
G0 X78.5 Y73 Z1.3
G1 F600 Z0.3
G0 F1800 X24.786 Y7.015
G0 X24.786 Y5.736
G0 X24.8 Y5.75
;TYPE:WALL-INNER
G1 F1800 E1.3
G1 F900 X0.525 Y5.75 E1.21108
G1 X0.525 Y-5.75 E0.57374
G1 X24.8 Y-5.75 E1.21108
G1 X24.8 Y5.75 E0.57374
G0 F1800 X25.2 Y6.15
;TYPE:WALL-OUTER
G1 F900 X0.125 Y6.15 E1.251
G1 X0.125 Y-6.15 E0.61365
G1 X25.2 Y-6.15 E1.251
G1 X25.2 Y6.15 E0.61365
G0 F1800 X25 Y6.15
G0 X24.41 Y5.36
;TYPE:SKIN
G1 F900 X0.915 Y5.36 E1.17217
G1 X0.915 Y-5.36 E0.53482
G1 X24.41 Y-5.36 E1.17217
G1 X24.41 Y5.36 E0.53482
G0 F1800 X24 Y5.18
G1 F900 X24 Y-5.18 E0.51686
G0 F1800 X23.6 Y-5.18
G1 F900 X23.6 Y5.18 E0.51686
G0 F1800 X23.2 Y5.18
G1 F900 X23.2 Y-5.18 E0.51686
G0 F1800 X22.8 Y-5.18
G1 F900 X22.8 Y5.18 E0.51686
G0 F1800 X22.4 Y5.18
G1 F900 X22.4 Y-5.18 E0.51686
G0 F1800 X22 Y-5.18
G1 F900 X22 Y5.18 E0.51686
G0 F1800 X21.6 Y5.18
G1 F900 X21.6 Y-5.18 E0.51686
G0 F1800 X21.2 Y-5.18
G1 F900 X21.2 Y5.18 E0.51686
G0 F1800 X20.8 Y5.18
G1 F900 X20.8 Y-5.18 E0.51686
G0 F1800 X20.4 Y-5.18
G1 F900 X20.4 Y5.18 E0.51686
G0 F1800 X20 Y5.18
G1 F900 X20 Y-5.18 E0.51686
G0 F1800 X19.6 Y-5.18
G1 F900 X19.6 Y5.18 E0.51686
G0 F1800 X19.2 Y5.18
G1 F900 X19.2 Y-5.18 E0.51686
G0 F1800 X18.8 Y-5.18
G1 F900 X18.8 Y5.18 E0.51686
G0 F1800 X18.4 Y5.18
G1 F900 X18.4 Y-5.18 E0.51686
G0 F1800 X18 Y-5.18
G1 F900 X18 Y5.18 E0.51686
G0 F1800 X17.6 Y5.18
G1 F900 X17.6 Y-5.18 E0.51686
G0 F1800 X17.2 Y-5.18
G1 F900 X17.2 Y5.18 E0.51686
G0 F1800 X16.8 Y5.18
G1 F900 X16.8 Y-5.18 E0.51686
G0 F1800 X16.4 Y-5.18
G1 F900 X16.4 Y5.18 E0.51686
G0 F1800 X16 Y5.18
G1 F900 X16 Y-5.18 E0.51686
G0 F1800 X15.6 Y-5.18
G1 F900 X15.6 Y5.18 E0.51686
G0 F1800 X15.2 Y5.18
G1 F900 X15.2 Y-5.18 E0.51686
G0 F1800 X14.8 Y-5.18
G1 F900 X14.8 Y5.18 E0.51686
G0 F1800 X14.4 Y5.18
G1 F900 X14.4 Y-5.18 E0.51686
G0 F1800 X14 Y-5.18
G1 F900 X14 Y5.18 E0.51686
G0 F1800 X13.6 Y5.18
G1 F900 X13.6 Y-5.18 E0.51686
G0 F1800 X13.2 Y-5.18
G1 F900 X13.2 Y5.18 E0.51686
G0 F1800 X12.8 Y5.18
G1 F900 X12.8 Y-5.18 E0.51686
G0 F1800 X12.4 Y-5.18
G1 F900 X12.4 Y5.18 E0.51686
G0 F1800 X12 Y5.18
G1 F900 X12 Y-5.18 E0.51686
G0 F1800 X11.6 Y-5.18
G1 F900 X11.6 Y5.18 E0.51686
G0 F1800 X11.2 Y5.18
G1 F900 X11.2 Y-5.18 E0.51686
G0 F1800 X10.8 Y-5.18
G1 F900 X10.8 Y5.18 E0.51686
G0 F1800 X10.4 Y5.18
G1 F900 X10.4 Y-5.18 E0.51686
G0 F1800 X10 Y-5.18
G1 F900 X10 Y5.18 E0.51686
G0 F1800 X9.6 Y5.18
G1 F900 X9.6 Y-5.18 E0.51686
G0 F1800 X9.2 Y-5.18
G1 F900 X9.2 Y5.18 E0.51686
G0 F1800 X8.8 Y5.18
G1 F900 X8.8 Y-5.18 E0.51686
G0 F1800 X8.4 Y-5.18
G1 F900 X8.4 Y5.18 E0.51686
G0 F1800 X8 Y5.18
G1 F900 X8 Y-5.18 E0.51686
G0 F1800 X7.6 Y-5.18
G1 F900 X7.6 Y5.18 E0.51686
G0 F1800 X7.2 Y5.18
G1 F900 X7.2 Y-5.18 E0.51686
G0 F1800 X6.8 Y-5.18
G1 F900 X6.8 Y5.18 E0.51686
G0 F1800 X6.4 Y5.18
G1 F900 X6.4 Y-5.18 E0.51686
G0 F1800 X6 Y-5.18
G1 F900 X6 Y5.18 E0.51686
G0 F1800 X5.6 Y5.18
G1 F900 X5.6 Y-5.18 E0.51686
G0 F1800 X5.2 Y-5.18
G1 F900 X5.2 Y5.18 E0.51686
G0 F1800 X4.8 Y5.18
G1 F900 X4.8 Y-5.18 E0.51686
G0 F1800 X4.4 Y-5.18
G1 F900 X4.4 Y5.18 E0.51686
G0 F1800 X4 Y5.18
G1 F900 X4 Y-5.18 E0.51686
G0 F1800 X3.6 Y-5.18
G1 F900 X3.6 Y5.18 E0.51686
G0 F1800 X3.2 Y5.18
G1 F900 X3.2 Y-5.18 E0.51686
G0 F1800 X2.8 Y-5.18
G1 F900 X2.8 Y5.18 E0.51686
G0 F1800 X2.4 Y5.18
G1 F900 X2.4 Y-5.18 E0.51686
G0 F1800 X2 Y-5.18
